( Generated by T2Laser ) 
(  DXF2Gcode for Grbl  )
( Start Point: LL      )
( Frame Mode : Extents )
( X Maximum  : 84.9    )
( Y Maximum  : 14.9    )
( Laser Power: 255     )
( Vector Rate: 130     )
( Rapid Feed : 2000    )
( Vector Name: BirdPistonShort.dxf )
G21
G90
F130
M05
G00 Z0 
G01 X5.39 Y7.93 F2000
M03 S0
G01 Z0 F300
G01 X5.35 Y7.5 M03 S255 F130
G01 X5.53 Y8.33 M03 S0 F2000
G01 Z0 F300
G01 X5.39 Y7.93 M03 S255 F130
G01 X5.99 Y9.03 M03 S0 F2000
G01 Z0 F300
G01 X5.53 Y8.33 M03 S255 F130
G01 X6.69 Y9.49 M03 S0 F2000
G01 Z0 F300
G01 X5.99 Y9.03 M03 S255 F130
G01 X7.09 Y9.61 M03 S0 F2000
G01 Z0 F300
G01 X6.69 Y9.49 M03 S255 F130
G01 X7.5 Y9.65 M03 S0 F2000
G01 Z0 F300
G01 X7.09 Y9.61 M03 S255 F130
G01 X7.93 Y9.61 M03 S0 F2000
G01 Z0 F300
G01 X7.5 Y9.65 M03 S255 F130
G01 X8.33 Y9.49 M03 S0 F2000
G01 Z0 F300
G01 X7.93 Y9.61 M03 S255 F130
G01 X9.03 Y9.03 M03 S0 F2000
G01 Z0 F300
G01 X8.33 Y9.49 M03 S255 F130
G01 X9.49 Y8.33 M03 S0 F2000
G01 Z0 F300
G01 X9.03 Y9.03 M03 S255 F130
G01 X9.61 Y7.93 M03 S0 F2000
G01 Z0 F300
G01 X9.49 Y8.33 M03 S255 F130
G01 X9.65 Y7.5 M03 S0 F2000
G01 Z0 F300
G01 X9.61 Y7.93 M03 S255 F130
G01 X9.61 Y7.06 M03 S0 F2000
G01 Z0 F300
G01 X9.65 Y7.5 M03 S255 F130
G01 X9.47 Y6.66 M03 S0 F2000
G01 Z0 F300
G01 X9.61 Y7.06 M03 S255 F130
G01 X9.03 Y5.98 M03 S0 F2000
G01 Z0 F300
G01 X9.47 Y6.66 M03 S255 F130
G01 X8.34 Y5.53 M03 S0 F2000
G01 Z0 F300
G01 X9.03 Y5.98 M03 S255 F130
G01 X7.94 Y5.39 M03 S0 F2000
G01 Z0 F300
G01 X8.34 Y5.53 M03 S255 F130
G01 X7.5 Y5.35 M03 S0 F2000
G01 Z0 F300
G01 X7.94 Y5.39 M03 S255 F130
G01 X7.06 Y5.39 M03 S0 F2000
G01 Z0 F300
G01 X7.5 Y5.35 M03 S255 F130
G01 X6.66 Y5.53 M03 S0 F2000
G01 Z0 F300
G01 X7.06 Y5.39 M03 S255 F130
G01 X5.98 Y5.98 M03 S0 F2000
G01 Z0 F300
G01 X6.66 Y5.53 M03 S255 F130
G01 X5.53 Y6.66 M03 S0 F2000
G01 Z0 F300
G01 X5.98 Y5.98 M03 S255 F130
G01 X5.39 Y7.06 M03 S0 F2000
G01 Z0 F300
G01 X5.53 Y6.66 M03 S255 F130
G01 X5.35 Y7.5 M03 S0 F2000
G01 Z0 F300
G01 X5.39 Y7.06 M03 S255 F130
G01 X5.35 Y7.5 M03 S0 F2000
G01 Z0 F300
G01 X5.35 Y7.5 M03 S255 F130
G01 X75.89 Y8.24 M03 S0 F2000
G01 Z0 F300
G01 X75.74 Y7.5 M03 S255 F130
G01 X76.29 Y8.85 M03 S0 F2000
G01 Z0 F300
G01 X75.89 Y8.24 M03 S255 F130
G01 X76.91 Y9.26 M03 S0 F2000
G01 Z0 F300
G01 X76.29 Y8.85 M03 S255 F130
G01 X77.64 Y9.4 M03 S0 F2000
G01 Z0 F300
G01 X76.91 Y9.26 M03 S255 F130
G01 X78.36 Y9.26 M03 S0 F2000
G01 Z0 F300
G01 X77.64 Y9.4 M03 S255 F130
G01 X78.98 Y8.85 M03 S0 F2000
G01 Z0 F300
G01 X78.36 Y9.26 M03 S255 F130
G01 X79.39 Y8.24 M03 S0 F2000
G01 Z0 F300
G01 X78.98 Y8.85 M03 S255 F130
G01 X79.54 Y7.5 M03 S0 F2000
G01 Z0 F300
G01 X79.39 Y8.24 M03 S255 F130
G01 X79.5 Y7.13 M03 S0 F2000
G01 Z0 F300
G01 X79.54 Y7.5 M03 S255 F130
G01 X79.39 Y6.76 M03 S0 F2000
G01 Z0 F300
G01 X79.5 Y7.13 M03 S255 F130
G01 X78.99 Y6.16 M03 S0 F2000
G01 Z0 F300
G01 X79.39 Y6.76 M03 S255 F130
G01 X78.38 Y5.75 M03 S0 F2000
G01 Z0 F300
G01 X78.99 Y6.16 M03 S255 F130
G01 X78.02 Y5.64 M03 S0 F2000
G01 Z0 F300
G01 X78.38 Y5.75 M03 S255 F130
G01 X77.64 Y5.6 M03 S0 F2000
G01 Z0 F300
G01 X78.02 Y5.64 M03 S255 F130
G01 X77.25 Y5.64 M03 S0 F2000
G01 Z0 F300
G01 X77.64 Y5.6 M03 S255 F130
G01 X76.9 Y5.75 M03 S0 F2000
G01 Z0 F300
G01 X77.25 Y5.64 M03 S255 F130
G01 X76.3 Y6.16 M03 S0 F2000
G01 Z0 F300
G01 X76.9 Y5.75 M03 S255 F130
G01 X75.89 Y6.76 M03 S0 F2000
G01 Z0 F300
G01 X76.3 Y6.16 M03 S255 F130
G01 X75.77 Y7.13 M03 S0 F2000
G01 Z0 F300
G01 X75.89 Y6.76 M03 S255 F130
G01 X75.74 Y7.5 M03 S0 F2000
G01 Z0 F300
G01 X75.77 Y7.13 M03 S255 F130
G01 X75.73 Y7.5 M03 S0 F2000
G01 Z0 F300
G01 X75.73 Y7.5 M03 S255 F130
G01 X84.77 Y6.01 M03 S0 F2000
G01 Z0 F300
G01 X84.9 Y7.5 M03 S255 F130
G01 X84.43 Y4.63 M03 S0 F2000
G01 Z0 F300
G01 X84.77 Y6.01 M03 S255 F130
G01 X83.88 Y3.36 M03 S0 F2000
G01 Z0 F300
G01 X84.43 Y4.63 M03 S255 F130
G01 X83.15 Y2.28 M03 S0 F2000
G01 Z0 F300
G01 X83.88 Y3.36 M03 S255 F130
G01 X82.26 Y1.36 M03 S0 F2000
G01 Z0 F300
G01 X83.15 Y2.28 M03 S255 F130
G01 X81.25 Y0.69 M03 S0 F2000
G01 Z0 F300
G01 X82.26 Y1.36 M03 S255 F130
G01 X80.13 Y0.25 M03 S0 F2000
G01 Z0 F300
G01 X81.25 Y0.69 M03 S255 F130
G01 X79.52 Y0.14 M03 S0 F2000
G01 Z0 F300
G01 X80.13 Y0.25 M03 S255 F130
G01 X78.91 Y0.1 M03 S0 F2000
G01 Z0 F300
G01 X79.52 Y0.14 M03 S255 F130
G01 X78.84 Y0.1 M03 S0 F2000
G01 Z0 F300
G01 X78.91 Y0.1 M03 S255 F130
G01 X78.64 Y0.13 M03 S0 F2000
G01 Z0 F300
G01 X78.84 Y0.1 M03 S255 F130
G01 X78.31 Y0.15 M03 S0 F2000
G01 Z0 F300
G01 X78.64 Y0.13 M03 S255 F130
G01 X77.85 Y0.19 M03 S0 F2000
G01 Z0 F300
G01 X78.31 Y0.15 M03 S255 F130
G01 X77.29 Y0.23 M03 S0 F2000
G01 Z0 F300
G01 X77.85 Y0.19 M03 S255 F130
G01 X76.61 Y0.28 M03 S0 F2000
G01 Z0 F300
G01 X77.29 Y0.23 M03 S255 F130
G01 X75.83 Y0.34 M03 S0 F2000
G01 Z0 F300
G01 X76.61 Y0.28 M03 S255 F130
G01 X74.95 Y0.4 M03 S0 F2000
G01 Z0 F300
G01 X75.83 Y0.34 M03 S255 F130
G01 X74 Y0.46 M03 S0 F2000
G01 Z0 F300
G01 X74.95 Y0.4 M03 S255 F130
G01 X72.95 Y0.54 M03 S0 F2000
G01 Z0 F300
G01 X74 Y0.46 M03 S255 F130
G01 X71.84 Y0.63 M03 S0 F2000
G01 Z0 F300
G01 X72.95 Y0.54 M03 S255 F130
G01 X70.65 Y0.7 M03 S0 F2000
G01 Z0 F300
G01 X71.84 Y0.63 M03 S255 F130
G01 X68.1 Y0.88 M03 S0 F2000
G01 Z0 F300
G01 X70.65 Y0.7 M03 S255 F130
G01 X65.35 Y1.05 M03 S0 F2000
G01 Z0 F300
G01 X68.1 Y0.88 M03 S255 F130
G01 X62.46 Y1.23 M03 S0 F2000
G01 Z0 F300
G01 X65.35 Y1.05 M03 S255 F130
G01 X59.49 Y1.4 M03 S0 F2000
G01 Z0 F300
G01 X62.46 Y1.23 M03 S255 F130
G01 X53.48 Y1.71 M03 S0 F2000
G01 Z0 F300
G01 X59.49 Y1.4 M03 S255 F130
G01 X50.55 Y1.83 M03 S0 F2000
G01 Z0 F300
G01 X53.48 Y1.71 M03 S255 F130
G01 X47.75 Y1.93 M03 S0 F2000
G01 Z0 F300
G01 X50.55 Y1.83 M03 S255 F130
G01 X45.13 Y1.99 M03 S0 F2000
G01 Z0 F300
G01 X47.75 Y1.93 M03 S255 F130
G01 X42.73 Y2.01 M03 S0 F2000
G01 Z0 F300
G01 X45.13 Y1.99 M03 S255 F130
G01 X40.3 Y1.99 M03 S0 F2000
G01 Z0 F300
G01 X42.73 Y2.01 M03 S255 F130
G01 X37.65 Y1.93 M03 S0 F2000
G01 Z0 F300
G01 X40.3 Y1.99 M03 S255 F130
G01 X34.81 Y1.84 M03 S0 F2000
G01 Z0 F300
G01 X37.65 Y1.93 M03 S255 F130
G01 X31.85 Y1.71 M03 S0 F2000
G01 Z0 F300
G01 X34.81 Y1.84 M03 S255 F130
G01 X25.76 Y1.41 M03 S0 F2000
G01 Z0 F300
G01 X31.85 Y1.71 M03 S255 F130
G01 X22.75 Y1.24 M03 S0 F2000
G01 Z0 F300
G01 X25.76 Y1.41 M03 S255 F130
G01 X19.83 Y1.05 M03 S0 F2000
G01 Z0 F300
G01 X22.75 Y1.24 M03 S255 F130
G01 X17.05 Y0.88 M03 S0 F2000
G01 Z0 F300
G01 X19.83 Y1.05 M03 S255 F130
G01 X14.46 Y0.7 M03 S0 F2000
G01 Z0 F300
G01 X17.05 Y0.88 M03 S255 F130
G01 X13.26 Y0.63 M03 S0 F2000
G01 Z0 F300
G01 X14.46 Y0.7 M03 S255 F130
G01 X12.13 Y0.54 M03 S0 F2000
G01 Z0 F300
G01 X13.26 Y0.63 M03 S255 F130
G01 X11.06 Y0.46 M03 S0 F2000
G01 Z0 F300
G01 X12.13 Y0.54 M03 S255 F130
G01 X10.1 Y0.4 M03 S0 F2000
G01 Z0 F300
G01 X11.06 Y0.46 M03 S255 F130
G01 X9.21 Y0.34 M03 S0 F2000
G01 Z0 F300
G01 X10.1 Y0.4 M03 S255 F130
G01 X8.42 Y0.28 M03 S0 F2000
G01 Z0 F300
G01 X9.21 Y0.34 M03 S255 F130
G01 X7.74 Y0.23 M03 S0 F2000
G01 Z0 F300
G01 X8.42 Y0.28 M03 S255 F130
G01 X7.16 Y0.19 M03 S0 F2000
G01 Z0 F300
G01 X7.74 Y0.23 M03 S255 F130
G01 X6.7 Y0.15 M03 S0 F2000
G01 Z0 F300
G01 X7.16 Y0.19 M03 S255 F130
G01 X6.36 Y0.13 M03 S0 F2000
G01 Z0 F300
G01 X6.7 Y0.15 M03 S255 F130
G01 X6.16 Y0.1 M03 S0 F2000
G01 Z0 F300
G01 X6.36 Y0.13 M03 S255 F130
G01 X6.09 Y0.1 M03 S0 F2000
G01 Z0 F300
G01 X6.16 Y0.1 M03 S255 F130
G01 X5.48 Y0.14 M03 S0 F2000
G01 Z0 F300
G01 X6.09 Y0.1 M03 S255 F130
G01 X4.89 Y0.25 M03 S0 F2000
G01 Z0 F300
G01 X5.48 Y0.14 M03 S255 F130
G01 X3.76 Y0.69 M03 S0 F2000
G01 Z0 F300
G01 X4.89 Y0.25 M03 S255 F130
G01 X2.74 Y1.36 M03 S0 F2000
G01 Z0 F300
G01 X3.76 Y0.69 M03 S255 F130
G01 X1.85 Y2.28 M03 S0 F2000
G01 Z0 F300
G01 X2.74 Y1.36 M03 S255 F130
G01 X1.13 Y3.36 M03 S0 F2000
G01 Z0 F300
G01 X1.85 Y2.28 M03 S255 F130
G01 X0.58 Y4.63 M03 S0 F2000
G01 Z0 F300
G01 X1.13 Y3.36 M03 S255 F130
G01 X0.23 Y6.01 M03 S0 F2000
G01 Z0 F300
G01 X0.58 Y4.63 M03 S255 F130
G01 X0.1 Y7.5 M03 S0 F2000
G01 Z0 F300
G01 X0.23 Y6.01 M03 S255 F130
G01 X0.23 Y8.99 M03 S0 F2000
G01 Z0 F300
G01 X0.1 Y7.5 M03 S255 F130
G01 X0.58 Y10.38 M03 S0 F2000
G01 Z0 F300
G01 X0.23 Y8.99 M03 S255 F130
G01 X1.13 Y11.64 M03 S0 F2000
G01 Z0 F300
G01 X0.58 Y10.38 M03 S255 F130
G01 X1.86 Y12.74 M03 S0 F2000
G01 Z0 F300
G01 X1.13 Y11.64 M03 S255 F130
G01 X2.74 Y13.64 M03 S0 F2000
G01 Z0 F300
G01 X1.86 Y12.74 M03 S255 F130
G01 X3.76 Y14.31 M03 S0 F2000
G01 Z0 F300
G01 X2.74 Y13.64 M03 S255 F130
G01 X4.89 Y14.75 M03 S0 F2000
G01 Z0 F300
G01 X3.76 Y14.31 M03 S255 F130
G01 X5.48 Y14.86 M03 S0 F2000
G01 Z0 F300
G01 X4.89 Y14.75 M03 S255 F130
G01 X6.09 Y14.9 M03 S0 F2000
G01 Z0 F300
G01 X5.48 Y14.86 M03 S255 F130
G01 X6.16 Y14.9 M03 S0 F2000
G01 Z0 F300
G01 X6.09 Y14.9 M03 S255 F130
G01 X6.36 Y14.88 M03 S0 F2000
G01 Z0 F300
G01 X6.16 Y14.9 M03 S255 F130
G01 X6.7 Y14.85 M03 S0 F2000
G01 Z0 F300
G01 X6.36 Y14.88 M03 S255 F130
G01 X7.16 Y14.81 M03 S0 F2000
G01 Z0 F300
G01 X6.7 Y14.85 M03 S255 F130
G01 X7.74 Y14.76 M03 S0 F2000
G01 Z0 F300
G01 X7.16 Y14.81 M03 S255 F130
G01 X8.42 Y14.7 M03 S0 F2000
G01 Z0 F300
G01 X7.74 Y14.76 M03 S255 F130
G01 X9.21 Y14.64 M03 S0 F2000
G01 Z0 F300
G01 X8.42 Y14.7 M03 S255 F130
G01 X10.09 Y14.58 M03 S0 F2000
G01 Z0 F300
G01 X9.21 Y14.64 M03 S255 F130
G01 X11.06 Y14.5 M03 S0 F2000
G01 Z0 F300
G01 X10.09 Y14.58 M03 S255 F130
G01 X12.13 Y14.41 M03 S0 F2000
G01 Z0 F300
G01 X11.06 Y14.5 M03 S255 F130
G01 X13.25 Y14.33 M03 S0 F2000
G01 Z0 F300
G01 X12.13 Y14.41 M03 S255 F130
G01 X14.46 Y14.24 M03 S0 F2000
G01 Z0 F300
G01 X13.25 Y14.33 M03 S255 F130
G01 X17.04 Y14.04 M03 S0 F2000
G01 Z0 F300
G01 X14.46 Y14.24 M03 S255 F130
G01 X19.83 Y13.85 M03 S0 F2000
G01 Z0 F300
G01 X17.04 Y14.04 M03 S255 F130
G01 X22.75 Y13.65 M03 S0 F2000
G01 Z0 F300
G01 X19.83 Y13.85 M03 S255 F130
G01 X25.76 Y13.46 M03 S0 F2000
G01 Z0 F300
G01 X22.75 Y13.65 M03 S255 F130
G01 X31.84 Y13.11 M03 S0 F2000
G01 Z0 F300
G01 X25.76 Y13.46 M03 S255 F130
G01 X34.8 Y12.98 M03 S0 F2000
G01 Z0 F300
G01 X31.84 Y13.11 M03 S255 F130
G01 X37.64 Y12.88 M03 S0 F2000
G01 Z0 F300
G01 X34.8 Y12.98 M03 S255 F130
G01 X40.3 Y12.8 M03 S0 F2000
G01 Z0 F300
G01 X37.64 Y12.88 M03 S255 F130
G01 X42.73 Y12.78 M03 S0 F2000
G01 Z0 F300
G01 X40.3 Y12.8 M03 S255 F130
G01 X45.13 Y12.79 M03 S0 F2000
G01 Z0 F300
G01 X42.73 Y12.78 M03 S255 F130
G01 X47.75 Y12.85 M03 S0 F2000
G01 Z0 F300
G01 X45.13 Y12.79 M03 S255 F130
G01 X50.55 Y12.94 M03 S0 F2000
G01 Z0 F300
G01 X47.75 Y12.85 M03 S255 F130
G01 X53.48 Y13.05 M03 S0 F2000
G01 Z0 F300
G01 X50.55 Y12.94 M03 S255 F130
G01 X59.49 Y13.36 M03 S0 F2000
G01 Z0 F300
G01 X53.48 Y13.05 M03 S255 F130
G01 X62.46 Y13.54 M03 S0 F2000
G01 Z0 F300
G01 X59.49 Y13.36 M03 S255 F130
G01 X65.35 Y13.71 M03 S0 F2000
G01 Z0 F300
G01 X62.46 Y13.54 M03 S255 F130
G01 X68.1 Y13.89 M03 S0 F2000
G01 Z0 F300
G01 X65.35 Y13.71 M03 S255 F130
G01 X70.65 Y14.06 M03 S0 F2000
G01 Z0 F300
G01 X68.1 Y13.89 M03 S255 F130
G01 X71.84 Y14.15 M03 S0 F2000
G01 Z0 F300
G01 X70.65 Y14.06 M03 S255 F130
G01 X72.95 Y14.23 M03 S0 F2000
G01 Z0 F300
G01 X71.84 Y14.15 M03 S255 F130
G01 X74 Y14.3 M03 S0 F2000
G01 Z0 F300
G01 X72.95 Y14.23 M03 S255 F130
G01 X74.96 Y14.38 M03 S0 F2000
G01 Z0 F300
G01 X74 Y14.3 M03 S255 F130
G01 X75.83 Y14.44 M03 S0 F2000
G01 Z0 F300
G01 X74.96 Y14.38 M03 S255 F130
G01 X76.61 Y14.5 M03 S0 F2000
G01 Z0 F300
G01 X75.83 Y14.44 M03 S255 F130
G01 X77.29 Y14.55 M03 S0 F2000
G01 Z0 F300
G01 X76.61 Y14.5 M03 S255 F130
G01 X77.85 Y14.59 M03 S0 F2000
G01 Z0 F300
G01 X77.29 Y14.55 M03 S255 F130
G01 X78.31 Y14.63 M03 S0 F2000
G01 Z0 F300
G01 X77.85 Y14.59 M03 S255 F130
G01 X78.64 Y14.65 M03 S0 F2000
G01 Z0 F300
G01 X78.31 Y14.63 M03 S255 F130
G01 X78.84 Y14.68 M03 S0 F2000
G01 Z0 F300
G01 X78.64 Y14.65 M03 S255 F130
G01 X78.91 Y14.68 M03 S0 F2000
G01 Z0 F300
G01 X78.84 Y14.68 M03 S255 F130
G01 X80.13 Y14.54 M03 S0 F2000
G01 Z0 F300
G01 X78.91 Y14.68 M03 S255 F130
G01 X81.25 Y14.13 M03 S0 F2000
G01 Z0 F300
G01 X80.13 Y14.54 M03 S255 F130
G01 X82.26 Y13.49 M03 S0 F2000
G01 Z0 F300
G01 X81.25 Y14.13 M03 S255 F130
G01 X83.15 Y12.63 M03 S0 F2000
G01 Z0 F300
G01 X82.26 Y13.49 M03 S255 F130
G01 X83.88 Y11.56 M03 S0 F2000
G01 Z0 F300
G01 X83.15 Y12.63 M03 S255 F130
G01 X84.43 Y10.35 M03 S0 F2000
G01 Z0 F300
G01 X83.88 Y11.56 M03 S255 F130
G01 X84.77 Y8.99 M03 S0 F2000
G01 Z0 F300
G01 X84.43 Y10.35 M03 S255 F130
G01 X84.9 Y7.5 M03 S0 F2000
G01 Z0 F300
G01 X84.77 Y8.99 M03 S255 F130
G01 X84.9 Y7.5 M03 S0 F2000
G01 Z0 F300
G01 X84.9 Y7.5 M03 S255 F130
G00 M03 S0
M05
G01 X5.39 Y7.93 M03 S0 F2000
M03 S0
G01 Z0.5 F300
G01 X5.35 Y7.5 M03 S255 F130
G01 X5.53 Y8.33 M03 S0 F2000
G01 Z0.5 F300
G01 X5.39 Y7.93 M03 S255 F130
G01 X5.99 Y9.03 M03 S0 F2000
G01 Z0.5 F300
G01 X5.53 Y8.33 M03 S255 F130
G01 X6.69 Y9.49 M03 S0 F2000
G01 Z0.5 F300
G01 X5.99 Y9.03 M03 S255 F130
G01 X7.09 Y9.61 M03 S0 F2000
G01 Z0.5 F300
G01 X6.69 Y9.49 M03 S255 F130
G01 X7.5 Y9.65 M03 S0 F2000
G01 Z0.5 F300
G01 X7.09 Y9.61 M03 S255 F130
G01 X7.93 Y9.61 M03 S0 F2000
G01 Z0.5 F300
G01 X7.5 Y9.65 M03 S255 F130
G01 X8.33 Y9.49 M03 S0 F2000
G01 Z0.5 F300
G01 X7.93 Y9.61 M03 S255 F130
G01 X9.03 Y9.03 M03 S0 F2000
G01 Z0.5 F300
G01 X8.33 Y9.49 M03 S255 F130
G01 X9.49 Y8.33 M03 S0 F2000
G01 Z0.5 F300
G01 X9.03 Y9.03 M03 S255 F130
G01 X9.61 Y7.93 M03 S0 F2000
G01 Z0.5 F300
G01 X9.49 Y8.33 M03 S255 F130
G01 X9.65 Y7.5 M03 S0 F2000
G01 Z0.5 F300
G01 X9.61 Y7.93 M03 S255 F130
G01 X9.61 Y7.06 M03 S0 F2000
G01 Z0.5 F300
G01 X9.65 Y7.5 M03 S255 F130
G01 X9.47 Y6.66 M03 S0 F2000
G01 Z0.5 F300
G01 X9.61 Y7.06 M03 S255 F130
G01 X9.03 Y5.98 M03 S0 F2000
G01 Z0.5 F300
G01 X9.47 Y6.66 M03 S255 F130
G01 X8.34 Y5.53 M03 S0 F2000
G01 Z0.5 F300
G01 X9.03 Y5.98 M03 S255 F130
G01 X7.94 Y5.39 M03 S0 F2000
G01 Z0.5 F300
G01 X8.34 Y5.53 M03 S255 F130
G01 X7.5 Y5.35 M03 S0 F2000
G01 Z0.5 F300
G01 X7.94 Y5.39 M03 S255 F130
G01 X7.06 Y5.39 M03 S0 F2000
G01 Z0.5 F300
G01 X7.5 Y5.35 M03 S255 F130
G01 X6.66 Y5.53 M03 S0 F2000
G01 Z0.5 F300
G01 X7.06 Y5.39 M03 S255 F130
G01 X5.98 Y5.98 M03 S0 F2000
G01 Z0.5 F300
G01 X6.66 Y5.53 M03 S255 F130
G01 X5.53 Y6.66 M03 S0 F2000
G01 Z0.5 F300
G01 X5.98 Y5.98 M03 S255 F130
G01 X5.39 Y7.06 M03 S0 F2000
G01 Z0.5 F300
G01 X5.53 Y6.66 M03 S255 F130
G01 X5.35 Y7.5 M03 S0 F2000
G01 Z0.5 F300
G01 X5.39 Y7.06 M03 S255 F130
G01 X5.35 Y7.5 M03 S0 F2000
G01 Z0.5 F300
G01 X5.35 Y7.5 M03 S255 F130
G01 X75.89 Y8.24 M03 S0 F2000
G01 Z0.5 F300
G01 X75.74 Y7.5 M03 S255 F130
G01 X76.29 Y8.85 M03 S0 F2000
G01 Z0.5 F300
G01 X75.89 Y8.24 M03 S255 F130
G01 X76.91 Y9.26 M03 S0 F2000
G01 Z0.5 F300
G01 X76.29 Y8.85 M03 S255 F130
G01 X77.64 Y9.4 M03 S0 F2000
G01 Z0.5 F300
G01 X76.91 Y9.26 M03 S255 F130
G01 X78.36 Y9.26 M03 S0 F2000
G01 Z0.5 F300
G01 X77.64 Y9.4 M03 S255 F130
G01 X78.98 Y8.85 M03 S0 F2000
G01 Z0.5 F300
G01 X78.36 Y9.26 M03 S255 F130
G01 X79.39 Y8.24 M03 S0 F2000
G01 Z0.5 F300
G01 X78.98 Y8.85 M03 S255 F130
G01 X79.54 Y7.5 M03 S0 F2000
G01 Z0.5 F300
G01 X79.39 Y8.24 M03 S255 F130
G01 X79.5 Y7.13 M03 S0 F2000
G01 Z0.5 F300
G01 X79.54 Y7.5 M03 S255 F130
G01 X79.39 Y6.76 M03 S0 F2000
G01 Z0.5 F300
G01 X79.5 Y7.13 M03 S255 F130
G01 X78.99 Y6.16 M03 S0 F2000
G01 Z0.5 F300
G01 X79.39 Y6.76 M03 S255 F130
G01 X78.38 Y5.75 M03 S0 F2000
G01 Z0.5 F300
G01 X78.99 Y6.16 M03 S255 F130
G01 X78.02 Y5.64 M03 S0 F2000
G01 Z0.5 F300
G01 X78.38 Y5.75 M03 S255 F130
G01 X77.64 Y5.6 M03 S0 F2000
G01 Z0.5 F300
G01 X78.02 Y5.64 M03 S255 F130
G01 X77.25 Y5.64 M03 S0 F2000
G01 Z0.5 F300
G01 X77.64 Y5.6 M03 S255 F130
G01 X76.9 Y5.75 M03 S0 F2000
G01 Z0.5 F300
G01 X77.25 Y5.64 M03 S255 F130
G01 X76.3 Y6.16 M03 S0 F2000
G01 Z0.5 F300
G01 X76.9 Y5.75 M03 S255 F130
G01 X75.89 Y6.76 M03 S0 F2000
G01 Z0.5 F300
G01 X76.3 Y6.16 M03 S255 F130
G01 X75.77 Y7.13 M03 S0 F2000
G01 Z0.5 F300
G01 X75.89 Y6.76 M03 S255 F130
G01 X75.74 Y7.5 M03 S0 F2000
G01 Z0.5 F300
G01 X75.77 Y7.13 M03 S255 F130
G01 X75.73 Y7.5 M03 S0 F2000
G01 Z0.5 F300
G01 X75.73 Y7.5 M03 S255 F130
G01 X84.77 Y6.01 M03 S0 F2000
G01 Z0.5 F300
G01 X84.9 Y7.5 M03 S255 F130
G01 X84.43 Y4.63 M03 S0 F2000
G01 Z0.5 F300
G01 X84.77 Y6.01 M03 S255 F130
G01 X83.88 Y3.36 M03 S0 F2000
G01 Z0.5 F300
G01 X84.43 Y4.63 M03 S255 F130
G01 X83.15 Y2.28 M03 S0 F2000
G01 Z0.5 F300
G01 X83.88 Y3.36 M03 S255 F130
G01 X82.26 Y1.36 M03 S0 F2000
G01 Z0.5 F300
G01 X83.15 Y2.28 M03 S255 F130
G01 X81.25 Y0.69 M03 S0 F2000
G01 Z0.5 F300
G01 X82.26 Y1.36 M03 S255 F130
G01 X80.13 Y0.25 M03 S0 F2000
G01 Z0.5 F300
G01 X81.25 Y0.69 M03 S255 F130
G01 X79.52 Y0.14 M03 S0 F2000
G01 Z0.5 F300
G01 X80.13 Y0.25 M03 S255 F130
G01 X78.91 Y0.1 M03 S0 F2000
G01 Z0.5 F300
G01 X79.52 Y0.14 M03 S255 F130
G01 X78.84 Y0.1 M03 S0 F2000
G01 Z0.5 F300
G01 X78.91 Y0.1 M03 S255 F130
G01 X78.64 Y0.13 M03 S0 F2000
G01 Z0.5 F300
G01 X78.84 Y0.1 M03 S255 F130
G01 X78.31 Y0.15 M03 S0 F2000
G01 Z0.5 F300
G01 X78.64 Y0.13 M03 S255 F130
G01 X77.85 Y0.19 M03 S0 F2000
G01 Z0.5 F300
G01 X78.31 Y0.15 M03 S255 F130
G01 X77.29 Y0.23 M03 S0 F2000
G01 Z0.5 F300
G01 X77.85 Y0.19 M03 S255 F130
G01 X76.61 Y0.28 M03 S0 F2000
G01 Z0.5 F300
G01 X77.29 Y0.23 M03 S255 F130
G01 X75.83 Y0.34 M03 S0 F2000
G01 Z0.5 F300
G01 X76.61 Y0.28 M03 S255 F130
G01 X74.95 Y0.4 M03 S0 F2000
G01 Z0.5 F300
G01 X75.83 Y0.34 M03 S255 F130
G01 X74 Y0.46 M03 S0 F2000
G01 Z0.5 F300
G01 X74.95 Y0.4 M03 S255 F130
G01 X72.95 Y0.54 M03 S0 F2000
G01 Z0.5 F300
G01 X74 Y0.46 M03 S255 F130
G01 X71.84 Y0.63 M03 S0 F2000
G01 Z0.5 F300
G01 X72.95 Y0.54 M03 S255 F130
G01 X70.65 Y0.7 M03 S0 F2000
G01 Z0.5 F300
G01 X71.84 Y0.63 M03 S255 F130
G01 X68.1 Y0.88 M03 S0 F2000
G01 Z0.5 F300
G01 X70.65 Y0.7 M03 S255 F130
G01 X65.35 Y1.05 M03 S0 F2000
G01 Z0.5 F300
G01 X68.1 Y0.88 M03 S255 F130
G01 X62.46 Y1.23 M03 S0 F2000
G01 Z0.5 F300
G01 X65.35 Y1.05 M03 S255 F130
G01 X59.49 Y1.4 M03 S0 F2000
G01 Z0.5 F300
G01 X62.46 Y1.23 M03 S255 F130
G01 X53.48 Y1.71 M03 S0 F2000
G01 Z0.5 F300
G01 X59.49 Y1.4 M03 S255 F130
G01 X50.55 Y1.83 M03 S0 F2000
G01 Z0.5 F300
G01 X53.48 Y1.71 M03 S255 F130
G01 X47.75 Y1.93 M03 S0 F2000
G01 Z0.5 F300
G01 X50.55 Y1.83 M03 S255 F130
G01 X45.13 Y1.99 M03 S0 F2000
G01 Z0.5 F300
G01 X47.75 Y1.93 M03 S255 F130
G01 X42.73 Y2.01 M03 S0 F2000
G01 Z0.5 F300
G01 X45.13 Y1.99 M03 S255 F130
G01 X40.3 Y1.99 M03 S0 F2000
G01 Z0.5 F300
G01 X42.73 Y2.01 M03 S255 F130
G01 X37.65 Y1.93 M03 S0 F2000
G01 Z0.5 F300
G01 X40.3 Y1.99 M03 S255 F130
G01 X34.81 Y1.84 M03 S0 F2000
G01 Z0.5 F300
G01 X37.65 Y1.93 M03 S255 F130
G01 X31.85 Y1.71 M03 S0 F2000
G01 Z0.5 F300
G01 X34.81 Y1.84 M03 S255 F130
G01 X25.76 Y1.41 M03 S0 F2000
G01 Z0.5 F300
G01 X31.85 Y1.71 M03 S255 F130
G01 X22.75 Y1.24 M03 S0 F2000
G01 Z0.5 F300
G01 X25.76 Y1.41 M03 S255 F130
G01 X19.83 Y1.05 M03 S0 F2000
G01 Z0.5 F300
G01 X22.75 Y1.24 M03 S255 F130
G01 X17.05 Y0.88 M03 S0 F2000
G01 Z0.5 F300
G01 X19.83 Y1.05 M03 S255 F130
G01 X14.46 Y0.7 M03 S0 F2000
G01 Z0.5 F300
G01 X17.05 Y0.88 M03 S255 F130
G01 X13.26 Y0.63 M03 S0 F2000
G01 Z0.5 F300
G01 X14.46 Y0.7 M03 S255 F130
G01 X12.13 Y0.54 M03 S0 F2000
G01 Z0.5 F300
G01 X13.26 Y0.63 M03 S255 F130
G01 X11.06 Y0.46 M03 S0 F2000
G01 Z0.5 F300
G01 X12.13 Y0.54 M03 S255 F130
G01 X10.1 Y0.4 M03 S0 F2000
G01 Z0.5 F300
G01 X11.06 Y0.46 M03 S255 F130
G01 X9.21 Y0.34 M03 S0 F2000
G01 Z0.5 F300
G01 X10.1 Y0.4 M03 S255 F130
G01 X8.42 Y0.28 M03 S0 F2000
G01 Z0.5 F300
G01 X9.21 Y0.34 M03 S255 F130
G01 X7.74 Y0.23 M03 S0 F2000
G01 Z0.5 F300
G01 X8.42 Y0.28 M03 S255 F130
G01 X7.16 Y0.19 M03 S0 F2000
G01 Z0.5 F300
G01 X7.74 Y0.23 M03 S255 F130
G01 X6.7 Y0.15 M03 S0 F2000
G01 Z0.5 F300
G01 X7.16 Y0.19 M03 S255 F130
G01 X6.36 Y0.13 M03 S0 F2000
G01 Z0.5 F300
G01 X6.7 Y0.15 M03 S255 F130
G01 X6.16 Y0.1 M03 S0 F2000
G01 Z0.5 F300
G01 X6.36 Y0.13 M03 S255 F130
G01 X6.09 Y0.1 M03 S0 F2000
G01 Z0.5 F300
G01 X6.16 Y0.1 M03 S255 F130
G01 X5.48 Y0.14 M03 S0 F2000
G01 Z0.5 F300
G01 X6.09 Y0.1 M03 S255 F130
G01 X4.89 Y0.25 M03 S0 F2000
G01 Z0.5 F300
G01 X5.48 Y0.14 M03 S255 F130
G01 X3.76 Y0.69 M03 S0 F2000
G01 Z0.5 F300
G01 X4.89 Y0.25 M03 S255 F130
G01 X2.74 Y1.36 M03 S0 F2000
G01 Z0.5 F300
G01 X3.76 Y0.69 M03 S255 F130
G01 X1.85 Y2.28 M03 S0 F2000
G01 Z0.5 F300
G01 X2.74 Y1.36 M03 S255 F130
G01 X1.13 Y3.36 M03 S0 F2000
G01 Z0.5 F300
G01 X1.85 Y2.28 M03 S255 F130
G01 X0.58 Y4.63 M03 S0 F2000
G01 Z0.5 F300
G01 X1.13 Y3.36 M03 S255 F130
G01 X0.23 Y6.01 M03 S0 F2000
G01 Z0.5 F300
G01 X0.58 Y4.63 M03 S255 F130
G01 X0.1 Y7.5 M03 S0 F2000
G01 Z0.5 F300
G01 X0.23 Y6.01 M03 S255 F130
G01 X0.23 Y8.99 M03 S0 F2000
G01 Z0.5 F300
G01 X0.1 Y7.5 M03 S255 F130
G01 X0.58 Y10.38 M03 S0 F2000
G01 Z0.5 F300
G01 X0.23 Y8.99 M03 S255 F130
G01 X1.13 Y11.64 M03 S0 F2000
G01 Z0.5 F300
G01 X0.58 Y10.38 M03 S255 F130
G01 X1.86 Y12.74 M03 S0 F2000
G01 Z0.5 F300
G01 X1.13 Y11.64 M03 S255 F130
G01 X2.74 Y13.64 M03 S0 F2000
G01 Z0.5 F300
G01 X1.86 Y12.74 M03 S255 F130
G01 X3.76 Y14.31 M03 S0 F2000
G01 Z0.5 F300
G01 X2.74 Y13.64 M03 S255 F130
G01 X4.89 Y14.75 M03 S0 F2000
G01 Z0.5 F300
G01 X3.76 Y14.31 M03 S255 F130
G01 X5.48 Y14.86 M03 S0 F2000
G01 Z0.5 F300
G01 X4.89 Y14.75 M03 S255 F130
G01 X6.09 Y14.9 M03 S0 F2000
G01 Z0.5 F300
G01 X5.48 Y14.86 M03 S255 F130
G01 X6.16 Y14.9 M03 S0 F2000
G01 Z0.5 F300
G01 X6.09 Y14.9 M03 S255 F130
G01 X6.36 Y14.88 M03 S0 F2000
G01 Z0.5 F300
G01 X6.16 Y14.9 M03 S255 F130
G01 X6.7 Y14.85 M03 S0 F2000
G01 Z0.5 F300
G01 X6.36 Y14.88 M03 S255 F130
G01 X7.16 Y14.81 M03 S0 F2000
G01 Z0.5 F300
G01 X6.7 Y14.85 M03 S255 F130
G01 X7.74 Y14.76 M03 S0 F2000
G01 Z0.5 F300
G01 X7.16 Y14.81 M03 S255 F130
G01 X8.42 Y14.7 M03 S0 F2000
G01 Z0.5 F300
G01 X7.74 Y14.76 M03 S255 F130
G01 X9.21 Y14.64 M03 S0 F2000
G01 Z0.5 F300
G01 X8.42 Y14.7 M03 S255 F130
G01 X10.09 Y14.58 M03 S0 F2000
G01 Z0.5 F300
G01 X9.21 Y14.64 M03 S255 F130
G01 X11.06 Y14.5 M03 S0 F2000
G01 Z0.5 F300
G01 X10.09 Y14.58 M03 S255 F130
G01 X12.13 Y14.41 M03 S0 F2000
G01 Z0.5 F300
G01 X11.06 Y14.5 M03 S255 F130
G01 X13.25 Y14.33 M03 S0 F2000
G01 Z0.5 F300
G01 X12.13 Y14.41 M03 S255 F130
G01 X14.46 Y14.24 M03 S0 F2000
G01 Z0.5 F300
G01 X13.25 Y14.33 M03 S255 F130
G01 X17.04 Y14.04 M03 S0 F2000
G01 Z0.5 F300
G01 X14.46 Y14.24 M03 S255 F130
G01 X19.83 Y13.85 M03 S0 F2000
G01 Z0.5 F300
G01 X17.04 Y14.04 M03 S255 F130
G01 X22.75 Y13.65 M03 S0 F2000
G01 Z0.5 F300
G01 X19.83 Y13.85 M03 S255 F130
G01 X25.76 Y13.46 M03 S0 F2000
G01 Z0.5 F300
G01 X22.75 Y13.65 M03 S255 F130
G01 X31.84 Y13.11 M03 S0 F2000
G01 Z0.5 F300
G01 X25.76 Y13.46 M03 S255 F130
G01 X34.8 Y12.98 M03 S0 F2000
G01 Z0.5 F300
G01 X31.84 Y13.11 M03 S255 F130
G01 X37.64 Y12.88 M03 S0 F2000
G01 Z0.5 F300
G01 X34.8 Y12.98 M03 S255 F130
G01 X40.3 Y12.8 M03 S0 F2000
G01 Z0.5 F300
G01 X37.64 Y12.88 M03 S255 F130
G01 X42.73 Y12.78 M03 S0 F2000
G01 Z0.5 F300
G01 X40.3 Y12.8 M03 S255 F130
G01 X45.13 Y12.79 M03 S0 F2000
G01 Z0.5 F300
G01 X42.73 Y12.78 M03 S255 F130
G01 X47.75 Y12.85 M03 S0 F2000
G01 Z0.5 F300
G01 X45.13 Y12.79 M03 S255 F130
G01 X50.55 Y12.94 M03 S0 F2000
G01 Z0.5 F300
G01 X47.75 Y12.85 M03 S255 F130
G01 X53.48 Y13.05 M03 S0 F2000
G01 Z0.5 F300
G01 X50.55 Y12.94 M03 S255 F130
G01 X59.49 Y13.36 M03 S0 F2000
G01 Z0.5 F300
G01 X53.48 Y13.05 M03 S255 F130
G01 X62.46 Y13.54 M03 S0 F2000
G01 Z0.5 F300
G01 X59.49 Y13.36 M03 S255 F130
G01 X65.35 Y13.71 M03 S0 F2000
G01 Z0.5 F300
G01 X62.46 Y13.54 M03 S255 F130
G01 X68.1 Y13.89 M03 S0 F2000
G01 Z0.5 F300
G01 X65.35 Y13.71 M03 S255 F130
G01 X70.65 Y14.06 M03 S0 F2000
G01 Z0.5 F300
G01 X68.1 Y13.89 M03 S255 F130
G01 X71.84 Y14.15 M03 S0 F2000
G01 Z0.5 F300
G01 X70.65 Y14.06 M03 S255 F130
G01 X72.95 Y14.23 M03 S0 F2000
G01 Z0.5 F300
G01 X71.84 Y14.15 M03 S255 F130
G01 X74 Y14.3 M03 S0 F2000
G01 Z0.5 F300
G01 X72.95 Y14.23 M03 S255 F130
G01 X74.96 Y14.38 M03 S0 F2000
G01 Z0.5 F300
G01 X74 Y14.3 M03 S255 F130
G01 X75.83 Y14.44 M03 S0 F2000
G01 Z0.5 F300
G01 X74.96 Y14.38 M03 S255 F130
G01 X76.61 Y14.5 M03 S0 F2000
G01 Z0.5 F300
G01 X75.83 Y14.44 M03 S255 F130
G01 X77.29 Y14.55 M03 S0 F2000
G01 Z0.5 F300
G01 X76.61 Y14.5 M03 S255 F130
G01 X77.85 Y14.59 M03 S0 F2000
G01 Z0.5 F300
G01 X77.29 Y14.55 M03 S255 F130
G01 X78.31 Y14.63 M03 S0 F2000
G01 Z0.5 F300
G01 X77.85 Y14.59 M03 S255 F130
G01 X78.64 Y14.65 M03 S0 F2000
G01 Z0.5 F300
G01 X78.31 Y14.63 M03 S255 F130
G01 X78.84 Y14.68 M03 S0 F2000
G01 Z0.5 F300
G01 X78.64 Y14.65 M03 S255 F130
G01 X78.91 Y14.68 M03 S0 F2000
G01 Z0.5 F300
G01 X78.84 Y14.68 M03 S255 F130
G01 X80.13 Y14.54 M03 S0 F2000
G01 Z0.5 F300
G01 X78.91 Y14.68 M03 S255 F130
G01 X81.25 Y14.13 M03 S0 F2000
G01 Z0.5 F300
G01 X80.13 Y14.54 M03 S255 F130
G01 X82.26 Y13.49 M03 S0 F2000
G01 Z0.5 F300
G01 X81.25 Y14.13 M03 S255 F130
G01 X83.15 Y12.63 M03 S0 F2000
G01 Z0.5 F300
G01 X82.26 Y13.49 M03 S255 F130
G01 X83.88 Y11.56 M03 S0 F2000
G01 Z0.5 F300
G01 X83.15 Y12.63 M03 S255 F130
G01 X84.43 Y10.35 M03 S0 F2000
G01 Z0.5 F300
G01 X83.88 Y11.56 M03 S255 F130
G01 X84.77 Y8.99 M03 S0 F2000
G01 Z0.5 F300
G01 X84.43 Y10.35 M03 S255 F130
G01 X84.9 Y7.5 M03 S0 F2000
G01 Z0.5 F300
G01 X84.77 Y8.99 M03 S255 F130
G01 X84.9 Y7.5 M03 S0 F2000
G01 Z0.5 F300
G01 X84.9 Y7.5 M03 S255 F130
G00 M03 S0
M05
G01 X5.39 Y7.93 M03 S0 F2000
M03 S0
G01 Z1 F300
G01 X5.35 Y7.5 M03 S255 F130
G01 X5.53 Y8.33 M03 S0 F2000
G01 Z1 F300
G01 X5.39 Y7.93 M03 S255 F130
G01 X5.99 Y9.03 M03 S0 F2000
G01 Z1 F300
G01 X5.53 Y8.33 M03 S255 F130
G01 X6.69 Y9.49 M03 S0 F2000
G01 Z1 F300
G01 X5.99 Y9.03 M03 S255 F130
G01 X7.09 Y9.61 M03 S0 F2000
G01 Z1 F300
G01 X6.69 Y9.49 M03 S255 F130
G01 X7.5 Y9.65 M03 S0 F2000
G01 Z1 F300
G01 X7.09 Y9.61 M03 S255 F130
G01 X7.93 Y9.61 M03 S0 F2000
G01 Z1 F300
G01 X7.5 Y9.65 M03 S255 F130
G01 X8.33 Y9.49 M03 S0 F2000
G01 Z1 F300
G01 X7.93 Y9.61 M03 S255 F130
G01 X9.03 Y9.03 M03 S0 F2000
G01 Z1 F300
G01 X8.33 Y9.49 M03 S255 F130
G01 X9.49 Y8.33 M03 S0 F2000
G01 Z1 F300
G01 X9.03 Y9.03 M03 S255 F130
G01 X9.61 Y7.93 M03 S0 F2000
G01 Z1 F300
G01 X9.49 Y8.33 M03 S255 F130
G01 X9.65 Y7.5 M03 S0 F2000
G01 Z1 F300
G01 X9.61 Y7.93 M03 S255 F130
G01 X9.61 Y7.06 M03 S0 F2000
G01 Z1 F300
G01 X9.65 Y7.5 M03 S255 F130
G01 X9.47 Y6.66 M03 S0 F2000
G01 Z1 F300
G01 X9.61 Y7.06 M03 S255 F130
G01 X9.03 Y5.98 M03 S0 F2000
G01 Z1 F300
G01 X9.47 Y6.66 M03 S255 F130
G01 X8.34 Y5.53 M03 S0 F2000
G01 Z1 F300
G01 X9.03 Y5.98 M03 S255 F130
G01 X7.94 Y5.39 M03 S0 F2000
G01 Z1 F300
G01 X8.34 Y5.53 M03 S255 F130
G01 X7.5 Y5.35 M03 S0 F2000
G01 Z1 F300
G01 X7.94 Y5.39 M03 S255 F130
G01 X7.06 Y5.39 M03 S0 F2000
G01 Z1 F300
G01 X7.5 Y5.35 M03 S255 F130
G01 X6.66 Y5.53 M03 S0 F2000
G01 Z1 F300
G01 X7.06 Y5.39 M03 S255 F130
G01 X5.98 Y5.98 M03 S0 F2000
G01 Z1 F300
G01 X6.66 Y5.53 M03 S255 F130
G01 X5.53 Y6.66 M03 S0 F2000
G01 Z1 F300
G01 X5.98 Y5.98 M03 S255 F130
G01 X5.39 Y7.06 M03 S0 F2000
G01 Z1 F300
G01 X5.53 Y6.66 M03 S255 F130
G01 X5.35 Y7.5 M03 S0 F2000
G01 Z1 F300
G01 X5.39 Y7.06 M03 S255 F130
G01 X5.35 Y7.5 M03 S0 F2000
G01 Z1 F300
G01 X5.35 Y7.5 M03 S255 F130
G01 X75.89 Y8.24 M03 S0 F2000
G01 Z1 F300
G01 X75.74 Y7.5 M03 S255 F130
G01 X76.29 Y8.85 M03 S0 F2000
G01 Z1 F300
G01 X75.89 Y8.24 M03 S255 F130
G01 X76.91 Y9.26 M03 S0 F2000
G01 Z1 F300
G01 X76.29 Y8.85 M03 S255 F130
G01 X77.64 Y9.4 M03 S0 F2000
G01 Z1 F300
G01 X76.91 Y9.26 M03 S255 F130
G01 X78.36 Y9.26 M03 S0 F2000
G01 Z1 F300
G01 X77.64 Y9.4 M03 S255 F130
G01 X78.98 Y8.85 M03 S0 F2000
G01 Z1 F300
G01 X78.36 Y9.26 M03 S255 F130
G01 X79.39 Y8.24 M03 S0 F2000
G01 Z1 F300
G01 X78.98 Y8.85 M03 S255 F130
G01 X79.54 Y7.5 M03 S0 F2000
G01 Z1 F300
G01 X79.39 Y8.24 M03 S255 F130
G01 X79.5 Y7.13 M03 S0 F2000
G01 Z1 F300
G01 X79.54 Y7.5 M03 S255 F130
G01 X79.39 Y6.76 M03 S0 F2000
G01 Z1 F300
G01 X79.5 Y7.13 M03 S255 F130
G01 X78.99 Y6.16 M03 S0 F2000
G01 Z1 F300
G01 X79.39 Y6.76 M03 S255 F130
G01 X78.38 Y5.75 M03 S0 F2000
G01 Z1 F300
G01 X78.99 Y6.16 M03 S255 F130
G01 X78.02 Y5.64 M03 S0 F2000
G01 Z1 F300
G01 X78.38 Y5.75 M03 S255 F130
G01 X77.64 Y5.6 M03 S0 F2000
G01 Z1 F300
G01 X78.02 Y5.64 M03 S255 F130
G01 X77.25 Y5.64 M03 S0 F2000
G01 Z1 F300
G01 X77.64 Y5.6 M03 S255 F130
G01 X76.9 Y5.75 M03 S0 F2000
G01 Z1 F300
G01 X77.25 Y5.64 M03 S255 F130
G01 X76.3 Y6.16 M03 S0 F2000
G01 Z1 F300
G01 X76.9 Y5.75 M03 S255 F130
G01 X75.89 Y6.76 M03 S0 F2000
G01 Z1 F300
G01 X76.3 Y6.16 M03 S255 F130
G01 X75.77 Y7.13 M03 S0 F2000
G01 Z1 F300
G01 X75.89 Y6.76 M03 S255 F130
G01 X75.74 Y7.5 M03 S0 F2000
G01 Z1 F300
G01 X75.77 Y7.13 M03 S255 F130
G01 X75.73 Y7.5 M03 S0 F2000
G01 Z1 F300
G01 X75.73 Y7.5 M03 S255 F130
G01 X84.77 Y6.01 M03 S0 F2000
G01 Z1 F300
G01 X84.9 Y7.5 M03 S255 F130
G01 X84.43 Y4.63 M03 S0 F2000
G01 Z1 F300
G01 X84.77 Y6.01 M03 S255 F130
G01 X83.88 Y3.36 M03 S0 F2000
G01 Z1 F300
G01 X84.43 Y4.63 M03 S255 F130
G01 X83.15 Y2.28 M03 S0 F2000
G01 Z1 F300
G01 X83.88 Y3.36 M03 S255 F130
G01 X82.26 Y1.36 M03 S0 F2000
G01 Z1 F300
G01 X83.15 Y2.28 M03 S255 F130
G01 X81.25 Y0.69 M03 S0 F2000
G01 Z1 F300
G01 X82.26 Y1.36 M03 S255 F130
G01 X80.13 Y0.25 M03 S0 F2000
G01 Z1 F300
G01 X81.25 Y0.69 M03 S255 F130
G01 X79.52 Y0.14 M03 S0 F2000
G01 Z1 F300
G01 X80.13 Y0.25 M03 S255 F130
G01 X78.91 Y0.1 M03 S0 F2000
G01 Z1 F300
G01 X79.52 Y0.14 M03 S255 F130
G01 X78.84 Y0.1 M03 S0 F2000
G01 Z1 F300
G01 X78.91 Y0.1 M03 S255 F130
G01 X78.64 Y0.13 M03 S0 F2000
G01 Z1 F300
G01 X78.84 Y0.1 M03 S255 F130
G01 X78.31 Y0.15 M03 S0 F2000
G01 Z1 F300
G01 X78.64 Y0.13 M03 S255 F130
G01 X77.85 Y0.19 M03 S0 F2000
G01 Z1 F300
G01 X78.31 Y0.15 M03 S255 F130
G01 X77.29 Y0.23 M03 S0 F2000
G01 Z1 F300
G01 X77.85 Y0.19 M03 S255 F130
G01 X76.61 Y0.28 M03 S0 F2000
G01 Z1 F300
G01 X77.29 Y0.23 M03 S255 F130
G01 X75.83 Y0.34 M03 S0 F2000
G01 Z1 F300
G01 X76.61 Y0.28 M03 S255 F130
G01 X74.95 Y0.4 M03 S0 F2000
G01 Z1 F300
G01 X75.83 Y0.34 M03 S255 F130
G01 X74 Y0.46 M03 S0 F2000
G01 Z1 F300
G01 X74.95 Y0.4 M03 S255 F130
G01 X72.95 Y0.54 M03 S0 F2000
G01 Z1 F300
G01 X74 Y0.46 M03 S255 F130
G01 X71.84 Y0.63 M03 S0 F2000
G01 Z1 F300
G01 X72.95 Y0.54 M03 S255 F130
G01 X70.65 Y0.7 M03 S0 F2000
G01 Z1 F300
G01 X71.84 Y0.63 M03 S255 F130
G01 X68.1 Y0.88 M03 S0 F2000
G01 Z1 F300
G01 X70.65 Y0.7 M03 S255 F130
G01 X65.35 Y1.05 M03 S0 F2000
G01 Z1 F300
G01 X68.1 Y0.88 M03 S255 F130
G01 X62.46 Y1.23 M03 S0 F2000
G01 Z1 F300
G01 X65.35 Y1.05 M03 S255 F130
G01 X59.49 Y1.4 M03 S0 F2000
G01 Z1 F300
G01 X62.46 Y1.23 M03 S255 F130
G01 X53.48 Y1.71 M03 S0 F2000
G01 Z1 F300
G01 X59.49 Y1.4 M03 S255 F130
G01 X50.55 Y1.83 M03 S0 F2000
G01 Z1 F300
G01 X53.48 Y1.71 M03 S255 F130
G01 X47.75 Y1.93 M03 S0 F2000
G01 Z1 F300
G01 X50.55 Y1.83 M03 S255 F130
G01 X45.13 Y1.99 M03 S0 F2000
G01 Z1 F300
G01 X47.75 Y1.93 M03 S255 F130
G01 X42.73 Y2.01 M03 S0 F2000
G01 Z1 F300
G01 X45.13 Y1.99 M03 S255 F130
G01 X40.3 Y1.99 M03 S0 F2000
G01 Z1 F300
G01 X42.73 Y2.01 M03 S255 F130
G01 X37.65 Y1.93 M03 S0 F2000
G01 Z1 F300
G01 X40.3 Y1.99 M03 S255 F130
G01 X34.81 Y1.84 M03 S0 F2000
G01 Z1 F300
G01 X37.65 Y1.93 M03 S255 F130
G01 X31.85 Y1.71 M03 S0 F2000
G01 Z1 F300
G01 X34.81 Y1.84 M03 S255 F130
G01 X25.76 Y1.41 M03 S0 F2000
G01 Z1 F300
G01 X31.85 Y1.71 M03 S255 F130
G01 X22.75 Y1.24 M03 S0 F2000
G01 Z1 F300
G01 X25.76 Y1.41 M03 S255 F130
G01 X19.83 Y1.05 M03 S0 F2000
G01 Z1 F300
G01 X22.75 Y1.24 M03 S255 F130
G01 X17.05 Y0.88 M03 S0 F2000
G01 Z1 F300
G01 X19.83 Y1.05 M03 S255 F130
G01 X14.46 Y0.7 M03 S0 F2000
G01 Z1 F300
G01 X17.05 Y0.88 M03 S255 F130
G01 X13.26 Y0.63 M03 S0 F2000
G01 Z1 F300
G01 X14.46 Y0.7 M03 S255 F130
G01 X12.13 Y0.54 M03 S0 F2000
G01 Z1 F300
G01 X13.26 Y0.63 M03 S255 F130
G01 X11.06 Y0.46 M03 S0 F2000
G01 Z1 F300
G01 X12.13 Y0.54 M03 S255 F130
G01 X10.1 Y0.4 M03 S0 F2000
G01 Z1 F300
G01 X11.06 Y0.46 M03 S255 F130
G01 X9.21 Y0.34 M03 S0 F2000
G01 Z1 F300
G01 X10.1 Y0.4 M03 S255 F130
G01 X8.42 Y0.28 M03 S0 F2000
G01 Z1 F300
G01 X9.21 Y0.34 M03 S255 F130
G01 X7.74 Y0.23 M03 S0 F2000
G01 Z1 F300
G01 X8.42 Y0.28 M03 S255 F130
G01 X7.16 Y0.19 M03 S0 F2000
G01 Z1 F300
G01 X7.74 Y0.23 M03 S255 F130
G01 X6.7 Y0.15 M03 S0 F2000
G01 Z1 F300
G01 X7.16 Y0.19 M03 S255 F130
G01 X6.36 Y0.13 M03 S0 F2000
G01 Z1 F300
G01 X6.7 Y0.15 M03 S255 F130
G01 X6.16 Y0.1 M03 S0 F2000
G01 Z1 F300
G01 X6.36 Y0.13 M03 S255 F130
G01 X6.09 Y0.1 M03 S0 F2000
G01 Z1 F300
G01 X6.16 Y0.1 M03 S255 F130
G01 X5.48 Y0.14 M03 S0 F2000
G01 Z1 F300
G01 X6.09 Y0.1 M03 S255 F130
G01 X4.89 Y0.25 M03 S0 F2000
G01 Z1 F300
G01 X5.48 Y0.14 M03 S255 F130
G01 X3.76 Y0.69 M03 S0 F2000
G01 Z1 F300
G01 X4.89 Y0.25 M03 S255 F130
G01 X2.74 Y1.36 M03 S0 F2000
G01 Z1 F300
G01 X3.76 Y0.69 M03 S255 F130
G01 X1.85 Y2.28 M03 S0 F2000
G01 Z1 F300
G01 X2.74 Y1.36 M03 S255 F130
G01 X1.13 Y3.36 M03 S0 F2000
G01 Z1 F300
G01 X1.85 Y2.28 M03 S255 F130
G01 X0.58 Y4.63 M03 S0 F2000
G01 Z1 F300
G01 X1.13 Y3.36 M03 S255 F130
G01 X0.23 Y6.01 M03 S0 F2000
G01 Z1 F300
G01 X0.58 Y4.63 M03 S255 F130
G01 X0.1 Y7.5 M03 S0 F2000
G01 Z1 F300
G01 X0.23 Y6.01 M03 S255 F130
G01 X0.23 Y8.99 M03 S0 F2000
G01 Z1 F300
G01 X0.1 Y7.5 M03 S255 F130
G01 X0.58 Y10.38 M03 S0 F2000
G01 Z1 F300
G01 X0.23 Y8.99 M03 S255 F130
G01 X1.13 Y11.64 M03 S0 F2000
G01 Z1 F300
G01 X0.58 Y10.38 M03 S255 F130
G01 X1.86 Y12.74 M03 S0 F2000
G01 Z1 F300
G01 X1.13 Y11.64 M03 S255 F130
G01 X2.74 Y13.64 M03 S0 F2000
G01 Z1 F300
G01 X1.86 Y12.74 M03 S255 F130
G01 X3.76 Y14.31 M03 S0 F2000
G01 Z1 F300
G01 X2.74 Y13.64 M03 S255 F130
G01 X4.89 Y14.75 M03 S0 F2000
G01 Z1 F300
G01 X3.76 Y14.31 M03 S255 F130
G01 X5.48 Y14.86 M03 S0 F2000
G01 Z1 F300
G01 X4.89 Y14.75 M03 S255 F130
G01 X6.09 Y14.9 M03 S0 F2000
G01 Z1 F300
G01 X5.48 Y14.86 M03 S255 F130
G01 X6.16 Y14.9 M03 S0 F2000
G01 Z1 F300
G01 X6.09 Y14.9 M03 S255 F130
G01 X6.36 Y14.88 M03 S0 F2000
G01 Z1 F300
G01 X6.16 Y14.9 M03 S255 F130
G01 X6.7 Y14.85 M03 S0 F2000
G01 Z1 F300
G01 X6.36 Y14.88 M03 S255 F130
G01 X7.16 Y14.81 M03 S0 F2000
G01 Z1 F300
G01 X6.7 Y14.85 M03 S255 F130
G01 X7.74 Y14.76 M03 S0 F2000
G01 Z1 F300
G01 X7.16 Y14.81 M03 S255 F130
G01 X8.42 Y14.7 M03 S0 F2000
G01 Z1 F300
G01 X7.74 Y14.76 M03 S255 F130
G01 X9.21 Y14.64 M03 S0 F2000
G01 Z1 F300
G01 X8.42 Y14.7 M03 S255 F130
G01 X10.09 Y14.58 M03 S0 F2000
G01 Z1 F300
G01 X9.21 Y14.64 M03 S255 F130
G01 X11.06 Y14.5 M03 S0 F2000
G01 Z1 F300
G01 X10.09 Y14.58 M03 S255 F130
G01 X12.13 Y14.41 M03 S0 F2000
G01 Z1 F300
G01 X11.06 Y14.5 M03 S255 F130
G01 X13.25 Y14.33 M03 S0 F2000
G01 Z1 F300
G01 X12.13 Y14.41 M03 S255 F130
G01 X14.46 Y14.24 M03 S0 F2000
G01 Z1 F300
G01 X13.25 Y14.33 M03 S255 F130
G01 X17.04 Y14.04 M03 S0 F2000
G01 Z1 F300
G01 X14.46 Y14.24 M03 S255 F130
G01 X19.83 Y13.85 M03 S0 F2000
G01 Z1 F300
G01 X17.04 Y14.04 M03 S255 F130
G01 X22.75 Y13.65 M03 S0 F2000
G01 Z1 F300
G01 X19.83 Y13.85 M03 S255 F130
G01 X25.76 Y13.46 M03 S0 F2000
G01 Z1 F300
G01 X22.75 Y13.65 M03 S255 F130
G01 X31.84 Y13.11 M03 S0 F2000
G01 Z1 F300
G01 X25.76 Y13.46 M03 S255 F130
G01 X34.8 Y12.98 M03 S0 F2000
G01 Z1 F300
G01 X31.84 Y13.11 M03 S255 F130
G01 X37.64 Y12.88 M03 S0 F2000
G01 Z1 F300
G01 X34.8 Y12.98 M03 S255 F130
G01 X40.3 Y12.8 M03 S0 F2000
G01 Z1 F300
G01 X37.64 Y12.88 M03 S255 F130
G01 X42.73 Y12.78 M03 S0 F2000
G01 Z1 F300
G01 X40.3 Y12.8 M03 S255 F130
G01 X45.13 Y12.79 M03 S0 F2000
G01 Z1 F300
G01 X42.73 Y12.78 M03 S255 F130
G01 X47.75 Y12.85 M03 S0 F2000
G01 Z1 F300
G01 X45.13 Y12.79 M03 S255 F130
G01 X50.55 Y12.94 M03 S0 F2000
G01 Z1 F300
G01 X47.75 Y12.85 M03 S255 F130
G01 X53.48 Y13.05 M03 S0 F2000
G01 Z1 F300
G01 X50.55 Y12.94 M03 S255 F130
G01 X59.49 Y13.36 M03 S0 F2000
G01 Z1 F300
G01 X53.48 Y13.05 M03 S255 F130
G01 X62.46 Y13.54 M03 S0 F2000
G01 Z1 F300
G01 X59.49 Y13.36 M03 S255 F130
G01 X65.35 Y13.71 M03 S0 F2000
G01 Z1 F300
G01 X62.46 Y13.54 M03 S255 F130
G01 X68.1 Y13.89 M03 S0 F2000
G01 Z1 F300
G01 X65.35 Y13.71 M03 S255 F130
G01 X70.65 Y14.06 M03 S0 F2000
G01 Z1 F300
G01 X68.1 Y13.89 M03 S255 F130
G01 X71.84 Y14.15 M03 S0 F2000
G01 Z1 F300
G01 X70.65 Y14.06 M03 S255 F130
G01 X72.95 Y14.23 M03 S0 F2000
G01 Z1 F300
G01 X71.84 Y14.15 M03 S255 F130
G01 X74 Y14.3 M03 S0 F2000
G01 Z1 F300
G01 X72.95 Y14.23 M03 S255 F130
G01 X74.96 Y14.38 M03 S0 F2000
G01 Z1 F300
G01 X74 Y14.3 M03 S255 F130
G01 X75.83 Y14.44 M03 S0 F2000
G01 Z1 F300
G01 X74.96 Y14.38 M03 S255 F130
G01 X76.61 Y14.5 M03 S0 F2000
G01 Z1 F300
G01 X75.83 Y14.44 M03 S255 F130
G01 X77.29 Y14.55 M03 S0 F2000
G01 Z1 F300
G01 X76.61 Y14.5 M03 S255 F130
G01 X77.85 Y14.59 M03 S0 F2000
G01 Z1 F300
G01 X77.29 Y14.55 M03 S255 F130
G01 X78.31 Y14.63 M03 S0 F2000
G01 Z1 F300
G01 X77.85 Y14.59 M03 S255 F130
G01 X78.64 Y14.65 M03 S0 F2000
G01 Z1 F300
G01 X78.31 Y14.63 M03 S255 F130
G01 X78.84 Y14.68 M03 S0 F2000
G01 Z1 F300
G01 X78.64 Y14.65 M03 S255 F130
G01 X78.91 Y14.68 M03 S0 F2000
G01 Z1 F300
G01 X78.84 Y14.68 M03 S255 F130
G01 X80.13 Y14.54 M03 S0 F2000
G01 Z1 F300
G01 X78.91 Y14.68 M03 S255 F130
G01 X81.25 Y14.13 M03 S0 F2000
G01 Z1 F300
G01 X80.13 Y14.54 M03 S255 F130
G01 X82.26 Y13.49 M03 S0 F2000
G01 Z1 F300
G01 X81.25 Y14.13 M03 S255 F130
G01 X83.15 Y12.63 M03 S0 F2000
G01 Z1 F300
G01 X82.26 Y13.49 M03 S255 F130
G01 X83.88 Y11.56 M03 S0 F2000
G01 Z1 F300
G01 X83.15 Y12.63 M03 S255 F130
G01 X84.43 Y10.35 M03 S0 F2000
G01 Z1 F300
G01 X83.88 Y11.56 M03 S255 F130
G01 X84.77 Y8.99 M03 S0 F2000
G01 Z1 F300
G01 X84.43 Y10.35 M03 S255 F130
G01 X84.9 Y7.5 M03 S0 F2000
G01 Z1 F300
G01 X84.77 Y8.99 M03 S255 F130
G01 X84.9 Y7.5 M03 S0 F2000
G01 Z1 F300
G01 X84.9 Y7.5 M03 S255 F130
G00 M03 S0
M05
G01 X5.39 Y7.93 M03 S0 F2000
M03 S0
G01 Z1.5 F300
G01 X5.35 Y7.5 M03 S255 F130
G01 X5.53 Y8.33 M03 S0 F2000
G01 Z1.5 F300
G01 X5.39 Y7.93 M03 S255 F130
G01 X5.99 Y9.03 M03 S0 F2000
G01 Z1.5 F300
G01 X5.53 Y8.33 M03 S255 F130
G01 X6.69 Y9.49 M03 S0 F2000
G01 Z1.5 F300
G01 X5.99 Y9.03 M03 S255 F130
G01 X7.09 Y9.61 M03 S0 F2000
G01 Z1.5 F300
G01 X6.69 Y9.49 M03 S255 F130
G01 X7.5 Y9.65 M03 S0 F2000
G01 Z1.5 F300
G01 X7.09 Y9.61 M03 S255 F130
G01 X7.93 Y9.61 M03 S0 F2000
G01 Z1.5 F300
G01 X7.5 Y9.65 M03 S255 F130
G01 X8.33 Y9.49 M03 S0 F2000
G01 Z1.5 F300
G01 X7.93 Y9.61 M03 S255 F130
G01 X9.03 Y9.03 M03 S0 F2000
G01 Z1.5 F300
G01 X8.33 Y9.49 M03 S255 F130
G01 X9.49 Y8.33 M03 S0 F2000
G01 Z1.5 F300
G01 X9.03 Y9.03 M03 S255 F130
G01 X9.61 Y7.93 M03 S0 F2000
G01 Z1.5 F300
G01 X9.49 Y8.33 M03 S255 F130
G01 X9.65 Y7.5 M03 S0 F2000
G01 Z1.5 F300
G01 X9.61 Y7.93 M03 S255 F130
G01 X9.61 Y7.06 M03 S0 F2000
G01 Z1.5 F300
G01 X9.65 Y7.5 M03 S255 F130
G01 X9.47 Y6.66 M03 S0 F2000
G01 Z1.5 F300
G01 X9.61 Y7.06 M03 S255 F130
G01 X9.03 Y5.98 M03 S0 F2000
G01 Z1.5 F300
G01 X9.47 Y6.66 M03 S255 F130
G01 X8.34 Y5.53 M03 S0 F2000
G01 Z1.5 F300
G01 X9.03 Y5.98 M03 S255 F130
G01 X7.94 Y5.39 M03 S0 F2000
G01 Z1.5 F300
G01 X8.34 Y5.53 M03 S255 F130
G01 X7.5 Y5.35 M03 S0 F2000
G01 Z1.5 F300
G01 X7.94 Y5.39 M03 S255 F130
G01 X7.06 Y5.39 M03 S0 F2000
G01 Z1.5 F300
G01 X7.5 Y5.35 M03 S255 F130
G01 X6.66 Y5.53 M03 S0 F2000
G01 Z1.5 F300
G01 X7.06 Y5.39 M03 S255 F130
G01 X5.98 Y5.98 M03 S0 F2000
G01 Z1.5 F300
G01 X6.66 Y5.53 M03 S255 F130
G01 X5.53 Y6.66 M03 S0 F2000
G01 Z1.5 F300
G01 X5.98 Y5.98 M03 S255 F130
G01 X5.39 Y7.06 M03 S0 F2000
G01 Z1.5 F300
G01 X5.53 Y6.66 M03 S255 F130
G01 X5.35 Y7.5 M03 S0 F2000
G01 Z1.5 F300
G01 X5.39 Y7.06 M03 S255 F130
G01 X5.35 Y7.5 M03 S0 F2000
G01 Z1.5 F300
G01 X5.35 Y7.5 M03 S255 F130
G01 X75.89 Y8.24 M03 S0 F2000
G01 Z1.5 F300
G01 X75.74 Y7.5 M03 S255 F130
G01 X76.29 Y8.85 M03 S0 F2000
G01 Z1.5 F300
G01 X75.89 Y8.24 M03 S255 F130
G01 X76.91 Y9.26 M03 S0 F2000
G01 Z1.5 F300
G01 X76.29 Y8.85 M03 S255 F130
G01 X77.64 Y9.4 M03 S0 F2000
G01 Z1.5 F300
G01 X76.91 Y9.26 M03 S255 F130
G01 X78.36 Y9.26 M03 S0 F2000
G01 Z1.5 F300
G01 X77.64 Y9.4 M03 S255 F130
G01 X78.98 Y8.85 M03 S0 F2000
G01 Z1.5 F300
G01 X78.36 Y9.26 M03 S255 F130
G01 X79.39 Y8.24 M03 S0 F2000
G01 Z1.5 F300
G01 X78.98 Y8.85 M03 S255 F130
G01 X79.54 Y7.5 M03 S0 F2000
G01 Z1.5 F300
G01 X79.39 Y8.24 M03 S255 F130
G01 X79.5 Y7.13 M03 S0 F2000
G01 Z1.5 F300
G01 X79.54 Y7.5 M03 S255 F130
G01 X79.39 Y6.76 M03 S0 F2000
G01 Z1.5 F300
G01 X79.5 Y7.13 M03 S255 F130
G01 X78.99 Y6.16 M03 S0 F2000
G01 Z1.5 F300
G01 X79.39 Y6.76 M03 S255 F130
G01 X78.38 Y5.75 M03 S0 F2000
G01 Z1.5 F300
G01 X78.99 Y6.16 M03 S255 F130
G01 X78.02 Y5.64 M03 S0 F2000
G01 Z1.5 F300
G01 X78.38 Y5.75 M03 S255 F130
G01 X77.64 Y5.6 M03 S0 F2000
G01 Z1.5 F300
G01 X78.02 Y5.64 M03 S255 F130
G01 X77.25 Y5.64 M03 S0 F2000
G01 Z1.5 F300
G01 X77.64 Y5.6 M03 S255 F130
G01 X76.9 Y5.75 M03 S0 F2000
G01 Z1.5 F300
G01 X77.25 Y5.64 M03 S255 F130
G01 X76.3 Y6.16 M03 S0 F2000
G01 Z1.5 F300
G01 X76.9 Y5.75 M03 S255 F130
G01 X75.89 Y6.76 M03 S0 F2000
G01 Z1.5 F300
G01 X76.3 Y6.16 M03 S255 F130
G01 X75.77 Y7.13 M03 S0 F2000
G01 Z1.5 F300
G01 X75.89 Y6.76 M03 S255 F130
G01 X75.74 Y7.5 M03 S0 F2000
G01 Z1.5 F300
G01 X75.77 Y7.13 M03 S255 F130
G01 X75.73 Y7.5 M03 S0 F2000
G01 Z1.5 F300
G01 X75.73 Y7.5 M03 S255 F130
G01 X84.77 Y6.01 M03 S0 F2000
G01 Z1.5 F300
G01 X84.9 Y7.5 M03 S255 F130
G01 X84.43 Y4.63 M03 S0 F2000
G01 Z1.5 F300
G01 X84.77 Y6.01 M03 S255 F130
G01 X83.88 Y3.36 M03 S0 F2000
G01 Z1.5 F300
G01 X84.43 Y4.63 M03 S255 F130
G01 X83.15 Y2.28 M03 S0 F2000
G01 Z1.5 F300
G01 X83.88 Y3.36 M03 S255 F130
G01 X82.26 Y1.36 M03 S0 F2000
G01 Z1.5 F300
G01 X83.15 Y2.28 M03 S255 F130
G01 X81.25 Y0.69 M03 S0 F2000
G01 Z1.5 F300
G01 X82.26 Y1.36 M03 S255 F130
G01 X80.13 Y0.25 M03 S0 F2000
G01 Z1.5 F300
G01 X81.25 Y0.69 M03 S255 F130
G01 X79.52 Y0.14 M03 S0 F2000
G01 Z1.5 F300
G01 X80.13 Y0.25 M03 S255 F130
G01 X78.91 Y0.1 M03 S0 F2000
G01 Z1.5 F300
G01 X79.52 Y0.14 M03 S255 F130
G01 X78.84 Y0.1 M03 S0 F2000
G01 Z1.5 F300
G01 X78.91 Y0.1 M03 S255 F130
G01 X78.64 Y0.13 M03 S0 F2000
G01 Z1.5 F300
G01 X78.84 Y0.1 M03 S255 F130
G01 X78.31 Y0.15 M03 S0 F2000
G01 Z1.5 F300
G01 X78.64 Y0.13 M03 S255 F130
G01 X77.85 Y0.19 M03 S0 F2000
G01 Z1.5 F300
G01 X78.31 Y0.15 M03 S255 F130
G01 X77.29 Y0.23 M03 S0 F2000
G01 Z1.5 F300
G01 X77.85 Y0.19 M03 S255 F130
G01 X76.61 Y0.28 M03 S0 F2000
G01 Z1.5 F300
G01 X77.29 Y0.23 M03 S255 F130
G01 X75.83 Y0.34 M03 S0 F2000
G01 Z1.5 F300
G01 X76.61 Y0.28 M03 S255 F130
G01 X74.95 Y0.4 M03 S0 F2000
G01 Z1.5 F300
G01 X75.83 Y0.34 M03 S255 F130
G01 X74 Y0.46 M03 S0 F2000
G01 Z1.5 F300
G01 X74.95 Y0.4 M03 S255 F130
G01 X72.95 Y0.54 M03 S0 F2000
G01 Z1.5 F300
G01 X74 Y0.46 M03 S255 F130
G01 X71.84 Y0.63 M03 S0 F2000
G01 Z1.5 F300
G01 X72.95 Y0.54 M03 S255 F130
G01 X70.65 Y0.7 M03 S0 F2000
G01 Z1.5 F300
G01 X71.84 Y0.63 M03 S255 F130
G01 X68.1 Y0.88 M03 S0 F2000
G01 Z1.5 F300
G01 X70.65 Y0.7 M03 S255 F130
G01 X65.35 Y1.05 M03 S0 F2000
G01 Z1.5 F300
G01 X68.1 Y0.88 M03 S255 F130
G01 X62.46 Y1.23 M03 S0 F2000
G01 Z1.5 F300
G01 X65.35 Y1.05 M03 S255 F130
G01 X59.49 Y1.4 M03 S0 F2000
G01 Z1.5 F300
G01 X62.46 Y1.23 M03 S255 F130
G01 X53.48 Y1.71 M03 S0 F2000
G01 Z1.5 F300
G01 X59.49 Y1.4 M03 S255 F130
G01 X50.55 Y1.83 M03 S0 F2000
G01 Z1.5 F300
G01 X53.48 Y1.71 M03 S255 F130
G01 X47.75 Y1.93 M03 S0 F2000
G01 Z1.5 F300
G01 X50.55 Y1.83 M03 S255 F130
G01 X45.13 Y1.99 M03 S0 F2000
G01 Z1.5 F300
G01 X47.75 Y1.93 M03 S255 F130
G01 X42.73 Y2.01 M03 S0 F2000
G01 Z1.5 F300
G01 X45.13 Y1.99 M03 S255 F130
G01 X40.3 Y1.99 M03 S0 F2000
G01 Z1.5 F300
G01 X42.73 Y2.01 M03 S255 F130
G01 X37.65 Y1.93 M03 S0 F2000
G01 Z1.5 F300
G01 X40.3 Y1.99 M03 S255 F130
G01 X34.81 Y1.84 M03 S0 F2000
G01 Z1.5 F300
G01 X37.65 Y1.93 M03 S255 F130
G01 X31.85 Y1.71 M03 S0 F2000
G01 Z1.5 F300
G01 X34.81 Y1.84 M03 S255 F130
G01 X25.76 Y1.41 M03 S0 F2000
G01 Z1.5 F300
G01 X31.85 Y1.71 M03 S255 F130
G01 X22.75 Y1.24 M03 S0 F2000
G01 Z1.5 F300
G01 X25.76 Y1.41 M03 S255 F130
G01 X19.83 Y1.05 M03 S0 F2000
G01 Z1.5 F300
G01 X22.75 Y1.24 M03 S255 F130
G01 X17.05 Y0.88 M03 S0 F2000
G01 Z1.5 F300
G01 X19.83 Y1.05 M03 S255 F130
G01 X14.46 Y0.7 M03 S0 F2000
G01 Z1.5 F300
G01 X17.05 Y0.88 M03 S255 F130
G01 X13.26 Y0.63 M03 S0 F2000
G01 Z1.5 F300
G01 X14.46 Y0.7 M03 S255 F130
G01 X12.13 Y0.54 M03 S0 F2000
G01 Z1.5 F300
G01 X13.26 Y0.63 M03 S255 F130
G01 X11.06 Y0.46 M03 S0 F2000
G01 Z1.5 F300
G01 X12.13 Y0.54 M03 S255 F130
G01 X10.1 Y0.4 M03 S0 F2000
G01 Z1.5 F300
G01 X11.06 Y0.46 M03 S255 F130
G01 X9.21 Y0.34 M03 S0 F2000
G01 Z1.5 F300
G01 X10.1 Y0.4 M03 S255 F130
G01 X8.42 Y0.28 M03 S0 F2000
G01 Z1.5 F300
G01 X9.21 Y0.34 M03 S255 F130
G01 X7.74 Y0.23 M03 S0 F2000
G01 Z1.5 F300
G01 X8.42 Y0.28 M03 S255 F130
G01 X7.16 Y0.19 M03 S0 F2000
G01 Z1.5 F300
G01 X7.74 Y0.23 M03 S255 F130
G01 X6.7 Y0.15 M03 S0 F2000
G01 Z1.5 F300
G01 X7.16 Y0.19 M03 S255 F130
G01 X6.36 Y0.13 M03 S0 F2000
G01 Z1.5 F300
G01 X6.7 Y0.15 M03 S255 F130
G01 X6.16 Y0.1 M03 S0 F2000
G01 Z1.5 F300
G01 X6.36 Y0.13 M03 S255 F130
G01 X6.09 Y0.1 M03 S0 F2000
G01 Z1.5 F300
G01 X6.16 Y0.1 M03 S255 F130
G01 X5.48 Y0.14 M03 S0 F2000
G01 Z1.5 F300
G01 X6.09 Y0.1 M03 S255 F130
G01 X4.89 Y0.25 M03 S0 F2000
G01 Z1.5 F300
G01 X5.48 Y0.14 M03 S255 F130
G01 X3.76 Y0.69 M03 S0 F2000
G01 Z1.5 F300
G01 X4.89 Y0.25 M03 S255 F130
G01 X2.74 Y1.36 M03 S0 F2000
G01 Z1.5 F300
G01 X3.76 Y0.69 M03 S255 F130
G01 X1.85 Y2.28 M03 S0 F2000
G01 Z1.5 F300
G01 X2.74 Y1.36 M03 S255 F130
G01 X1.13 Y3.36 M03 S0 F2000
G01 Z1.5 F300
G01 X1.85 Y2.28 M03 S255 F130
G01 X0.58 Y4.63 M03 S0 F2000
G01 Z1.5 F300
G01 X1.13 Y3.36 M03 S255 F130
G01 X0.23 Y6.01 M03 S0 F2000
G01 Z1.5 F300
G01 X0.58 Y4.63 M03 S255 F130
G01 X0.1 Y7.5 M03 S0 F2000
G01 Z1.5 F300
G01 X0.23 Y6.01 M03 S255 F130
G01 X0.23 Y8.99 M03 S0 F2000
G01 Z1.5 F300
G01 X0.1 Y7.5 M03 S255 F130
G01 X0.58 Y10.38 M03 S0 F2000
G01 Z1.5 F300
G01 X0.23 Y8.99 M03 S255 F130
G01 X1.13 Y11.64 M03 S0 F2000
G01 Z1.5 F300
G01 X0.58 Y10.38 M03 S255 F130
G01 X1.86 Y12.74 M03 S0 F2000
G01 Z1.5 F300
G01 X1.13 Y11.64 M03 S255 F130
G01 X2.74 Y13.64 M03 S0 F2000
G01 Z1.5 F300
G01 X1.86 Y12.74 M03 S255 F130
G01 X3.76 Y14.31 M03 S0 F2000
G01 Z1.5 F300
G01 X2.74 Y13.64 M03 S255 F130
G01 X4.89 Y14.75 M03 S0 F2000
G01 Z1.5 F300
G01 X3.76 Y14.31 M03 S255 F130
G01 X5.48 Y14.86 M03 S0 F2000
G01 Z1.5 F300
G01 X4.89 Y14.75 M03 S255 F130
G01 X6.09 Y14.9 M03 S0 F2000
G01 Z1.5 F300
G01 X5.48 Y14.86 M03 S255 F130
G01 X6.16 Y14.9 M03 S0 F2000
G01 Z1.5 F300
G01 X6.09 Y14.9 M03 S255 F130
G01 X6.36 Y14.88 M03 S0 F2000
G01 Z1.5 F300
G01 X6.16 Y14.9 M03 S255 F130
G01 X6.7 Y14.85 M03 S0 F2000
G01 Z1.5 F300
G01 X6.36 Y14.88 M03 S255 F130
G01 X7.16 Y14.81 M03 S0 F2000
G01 Z1.5 F300
G01 X6.7 Y14.85 M03 S255 F130
G01 X7.74 Y14.76 M03 S0 F2000
G01 Z1.5 F300
G01 X7.16 Y14.81 M03 S255 F130
G01 X8.42 Y14.7 M03 S0 F2000
G01 Z1.5 F300
G01 X7.74 Y14.76 M03 S255 F130
G01 X9.21 Y14.64 M03 S0 F2000
G01 Z1.5 F300
G01 X8.42 Y14.7 M03 S255 F130
G01 X10.09 Y14.58 M03 S0 F2000
G01 Z1.5 F300
G01 X9.21 Y14.64 M03 S255 F130
G01 X11.06 Y14.5 M03 S0 F2000
G01 Z1.5 F300
G01 X10.09 Y14.58 M03 S255 F130
G01 X12.13 Y14.41 M03 S0 F2000
G01 Z1.5 F300
G01 X11.06 Y14.5 M03 S255 F130
G01 X13.25 Y14.33 M03 S0 F2000
G01 Z1.5 F300
G01 X12.13 Y14.41 M03 S255 F130
G01 X14.46 Y14.24 M03 S0 F2000
G01 Z1.5 F300
G01 X13.25 Y14.33 M03 S255 F130
G01 X17.04 Y14.04 M03 S0 F2000
G01 Z1.5 F300
G01 X14.46 Y14.24 M03 S255 F130
G01 X19.83 Y13.85 M03 S0 F2000
G01 Z1.5 F300
G01 X17.04 Y14.04 M03 S255 F130
G01 X22.75 Y13.65 M03 S0 F2000
G01 Z1.5 F300
G01 X19.83 Y13.85 M03 S255 F130
G01 X25.76 Y13.46 M03 S0 F2000
G01 Z1.5 F300
G01 X22.75 Y13.65 M03 S255 F130
G01 X31.84 Y13.11 M03 S0 F2000
G01 Z1.5 F300
G01 X25.76 Y13.46 M03 S255 F130
G01 X34.8 Y12.98 M03 S0 F2000
G01 Z1.5 F300
G01 X31.84 Y13.11 M03 S255 F130
G01 X37.64 Y12.88 M03 S0 F2000
G01 Z1.5 F300
G01 X34.8 Y12.98 M03 S255 F130
G01 X40.3 Y12.8 M03 S0 F2000
G01 Z1.5 F300
G01 X37.64 Y12.88 M03 S255 F130
G01 X42.73 Y12.78 M03 S0 F2000
G01 Z1.5 F300
G01 X40.3 Y12.8 M03 S255 F130
G01 X45.13 Y12.79 M03 S0 F2000
G01 Z1.5 F300
G01 X42.73 Y12.78 M03 S255 F130
G01 X47.75 Y12.85 M03 S0 F2000
G01 Z1.5 F300
G01 X45.13 Y12.79 M03 S255 F130
G01 X50.55 Y12.94 M03 S0 F2000
G01 Z1.5 F300
G01 X47.75 Y12.85 M03 S255 F130
G01 X53.48 Y13.05 M03 S0 F2000
G01 Z1.5 F300
G01 X50.55 Y12.94 M03 S255 F130
G01 X59.49 Y13.36 M03 S0 F2000
G01 Z1.5 F300
G01 X53.48 Y13.05 M03 S255 F130
G01 X62.46 Y13.54 M03 S0 F2000
G01 Z1.5 F300
G01 X59.49 Y13.36 M03 S255 F130
G01 X65.35 Y13.71 M03 S0 F2000
G01 Z1.5 F300
G01 X62.46 Y13.54 M03 S255 F130
G01 X68.1 Y13.89 M03 S0 F2000
G01 Z1.5 F300
G01 X65.35 Y13.71 M03 S255 F130
G01 X70.65 Y14.06 M03 S0 F2000
G01 Z1.5 F300
G01 X68.1 Y13.89 M03 S255 F130
G01 X71.84 Y14.15 M03 S0 F2000
G01 Z1.5 F300
G01 X70.65 Y14.06 M03 S255 F130
G01 X72.95 Y14.23 M03 S0 F2000
G01 Z1.5 F300
G01 X71.84 Y14.15 M03 S255 F130
G01 X74 Y14.3 M03 S0 F2000
G01 Z1.5 F300
G01 X72.95 Y14.23 M03 S255 F130
G01 X74.96 Y14.38 M03 S0 F2000
G01 Z1.5 F300
G01 X74 Y14.3 M03 S255 F130
G01 X75.83 Y14.44 M03 S0 F2000
G01 Z1.5 F300
G01 X74.96 Y14.38 M03 S255 F130
G01 X76.61 Y14.5 M03 S0 F2000
G01 Z1.5 F300
G01 X75.83 Y14.44 M03 S255 F130
G01 X77.29 Y14.55 M03 S0 F2000
G01 Z1.5 F300
G01 X76.61 Y14.5 M03 S255 F130
G01 X77.85 Y14.59 M03 S0 F2000
G01 Z1.5 F300
G01 X77.29 Y14.55 M03 S255 F130
G01 X78.31 Y14.63 M03 S0 F2000
G01 Z1.5 F300
G01 X77.85 Y14.59 M03 S255 F130
G01 X78.64 Y14.65 M03 S0 F2000
G01 Z1.5 F300
G01 X78.31 Y14.63 M03 S255 F130
G01 X78.84 Y14.68 M03 S0 F2000
G01 Z1.5 F300
G01 X78.64 Y14.65 M03 S255 F130
G01 X78.91 Y14.68 M03 S0 F2000
G01 Z1.5 F300
G01 X78.84 Y14.68 M03 S255 F130
G01 X80.13 Y14.54 M03 S0 F2000
G01 Z1.5 F300
G01 X78.91 Y14.68 M03 S255 F130
G01 X81.25 Y14.13 M03 S0 F2000
G01 Z1.5 F300
G01 X80.13 Y14.54 M03 S255 F130
G01 X82.26 Y13.49 M03 S0 F2000
G01 Z1.5 F300
G01 X81.25 Y14.13 M03 S255 F130
G01 X83.15 Y12.63 M03 S0 F2000
G01 Z1.5 F300
G01 X82.26 Y13.49 M03 S255 F130
G01 X83.88 Y11.56 M03 S0 F2000
G01 Z1.5 F300
G01 X83.15 Y12.63 M03 S255 F130
G01 X84.43 Y10.35 M03 S0 F2000
G01 Z1.5 F300
G01 X83.88 Y11.56 M03 S255 F130
G01 X84.77 Y8.99 M03 S0 F2000
G01 Z1.5 F300
G01 X84.43 Y10.35 M03 S255 F130
G01 X84.9 Y7.5 M03 S0 F2000
G01 Z1.5 F300
G01 X84.77 Y8.99 M03 S255 F130
G01 X84.9 Y7.5 M03 S0 F2000
G01 Z1.5 F300
G01 X84.9 Y7.5 M03 S255 F130
G00 M03 S0
M05
G01 X5.39 Y7.93 M03 S0 F2000
M03 S0
G01 Z2 F300
G01 X5.35 Y7.5 M03 S255 F130
G01 X5.53 Y8.33 M03 S0 F2000
G01 Z2 F300
G01 X5.39 Y7.93 M03 S255 F130
G01 X5.99 Y9.03 M03 S0 F2000
G01 Z2 F300
G01 X5.53 Y8.33 M03 S255 F130
G01 X6.69 Y9.49 M03 S0 F2000
G01 Z2 F300
G01 X5.99 Y9.03 M03 S255 F130
G01 X7.09 Y9.61 M03 S0 F2000
G01 Z2 F300
G01 X6.69 Y9.49 M03 S255 F130
G01 X7.5 Y9.65 M03 S0 F2000
G01 Z2 F300
G01 X7.09 Y9.61 M03 S255 F130
G01 X7.93 Y9.61 M03 S0 F2000
G01 Z2 F300
G01 X7.5 Y9.65 M03 S255 F130
G01 X8.33 Y9.49 M03 S0 F2000
G01 Z2 F300
G01 X7.93 Y9.61 M03 S255 F130
G01 X9.03 Y9.03 M03 S0 F2000
G01 Z2 F300
G01 X8.33 Y9.49 M03 S255 F130
G01 X9.49 Y8.33 M03 S0 F2000
G01 Z2 F300
G01 X9.03 Y9.03 M03 S255 F130
G01 X9.61 Y7.93 M03 S0 F2000
G01 Z2 F300
G01 X9.49 Y8.33 M03 S255 F130
G01 X9.65 Y7.5 M03 S0 F2000
G01 Z2 F300
G01 X9.61 Y7.93 M03 S255 F130
G01 X9.61 Y7.06 M03 S0 F2000
G01 Z2 F300
G01 X9.65 Y7.5 M03 S255 F130
G01 X9.47 Y6.66 M03 S0 F2000
G01 Z2 F300
G01 X9.61 Y7.06 M03 S255 F130
G01 X9.03 Y5.98 M03 S0 F2000
G01 Z2 F300
G01 X9.47 Y6.66 M03 S255 F130
G01 X8.34 Y5.53 M03 S0 F2000
G01 Z2 F300
G01 X9.03 Y5.98 M03 S255 F130
G01 X7.94 Y5.39 M03 S0 F2000
G01 Z2 F300
G01 X8.34 Y5.53 M03 S255 F130
G01 X7.5 Y5.35 M03 S0 F2000
G01 Z2 F300
G01 X7.94 Y5.39 M03 S255 F130
G01 X7.06 Y5.39 M03 S0 F2000
G01 Z2 F300
G01 X7.5 Y5.35 M03 S255 F130
G01 X6.66 Y5.53 M03 S0 F2000
G01 Z2 F300
G01 X7.06 Y5.39 M03 S255 F130
G01 X5.98 Y5.98 M03 S0 F2000
G01 Z2 F300
G01 X6.66 Y5.53 M03 S255 F130
G01 X5.53 Y6.66 M03 S0 F2000
G01 Z2 F300
G01 X5.98 Y5.98 M03 S255 F130
G01 X5.39 Y7.06 M03 S0 F2000
G01 Z2 F300
G01 X5.53 Y6.66 M03 S255 F130
G01 X5.35 Y7.5 M03 S0 F2000
G01 Z2 F300
G01 X5.39 Y7.06 M03 S255 F130
G01 X5.35 Y7.5 M03 S0 F2000
G01 Z2 F300
G01 X5.35 Y7.5 M03 S255 F130
G01 X75.89 Y8.24 M03 S0 F2000
G01 Z2 F300
G01 X75.74 Y7.5 M03 S255 F130
G01 X76.29 Y8.85 M03 S0 F2000
G01 Z2 F300
G01 X75.89 Y8.24 M03 S255 F130
G01 X76.91 Y9.26 M03 S0 F2000
G01 Z2 F300
G01 X76.29 Y8.85 M03 S255 F130
G01 X77.64 Y9.4 M03 S0 F2000
G01 Z2 F300
G01 X76.91 Y9.26 M03 S255 F130
G01 X78.36 Y9.26 M03 S0 F2000
G01 Z2 F300
G01 X77.64 Y9.4 M03 S255 F130
G01 X78.98 Y8.85 M03 S0 F2000
G01 Z2 F300
G01 X78.36 Y9.26 M03 S255 F130
G01 X79.39 Y8.24 M03 S0 F2000
G01 Z2 F300
G01 X78.98 Y8.85 M03 S255 F130
G01 X79.54 Y7.5 M03 S0 F2000
G01 Z2 F300
G01 X79.39 Y8.24 M03 S255 F130
G01 X79.5 Y7.13 M03 S0 F2000
G01 Z2 F300
G01 X79.54 Y7.5 M03 S255 F130
G01 X79.39 Y6.76 M03 S0 F2000
G01 Z2 F300
G01 X79.5 Y7.13 M03 S255 F130
G01 X78.99 Y6.16 M03 S0 F2000
G01 Z2 F300
G01 X79.39 Y6.76 M03 S255 F130
G01 X78.38 Y5.75 M03 S0 F2000
G01 Z2 F300
G01 X78.99 Y6.16 M03 S255 F130
G01 X78.02 Y5.64 M03 S0 F2000
G01 Z2 F300
G01 X78.38 Y5.75 M03 S255 F130
G01 X77.64 Y5.6 M03 S0 F2000
G01 Z2 F300
G01 X78.02 Y5.64 M03 S255 F130
G01 X77.25 Y5.64 M03 S0 F2000
G01 Z2 F300
G01 X77.64 Y5.6 M03 S255 F130
G01 X76.9 Y5.75 M03 S0 F2000
G01 Z2 F300
G01 X77.25 Y5.64 M03 S255 F130
G01 X76.3 Y6.16 M03 S0 F2000
G01 Z2 F300
G01 X76.9 Y5.75 M03 S255 F130
G01 X75.89 Y6.76 M03 S0 F2000
G01 Z2 F300
G01 X76.3 Y6.16 M03 S255 F130
G01 X75.77 Y7.13 M03 S0 F2000
G01 Z2 F300
G01 X75.89 Y6.76 M03 S255 F130
G01 X75.74 Y7.5 M03 S0 F2000
G01 Z2 F300
G01 X75.77 Y7.13 M03 S255 F130
G01 X75.73 Y7.5 M03 S0 F2000
G01 Z2 F300
G01 X75.73 Y7.5 M03 S255 F130
G01 X84.77 Y6.01 M03 S0 F2000
G01 Z2 F300
G01 X84.9 Y7.5 M03 S255 F130
G01 X84.43 Y4.63 M03 S0 F2000
G01 Z2 F300
G01 X84.77 Y6.01 M03 S255 F130
G01 X83.88 Y3.36 M03 S0 F2000
G01 Z2 F300
G01 X84.43 Y4.63 M03 S255 F130
G01 X83.15 Y2.28 M03 S0 F2000
G01 Z2 F300
G01 X83.88 Y3.36 M03 S255 F130
G01 X82.26 Y1.36 M03 S0 F2000
G01 Z2 F300
G01 X83.15 Y2.28 M03 S255 F130
G01 X81.25 Y0.69 M03 S0 F2000
G01 Z2 F300
G01 X82.26 Y1.36 M03 S255 F130
G01 X80.13 Y0.25 M03 S0 F2000
G01 Z2 F300
G01 X81.25 Y0.69 M03 S255 F130
G01 X79.52 Y0.14 M03 S0 F2000
G01 Z2 F300
G01 X80.13 Y0.25 M03 S255 F130
G01 X78.91 Y0.1 M03 S0 F2000
G01 Z2 F300
G01 X79.52 Y0.14 M03 S255 F130
G01 X78.84 Y0.1 M03 S0 F2000
G01 Z2 F300
G01 X78.91 Y0.1 M03 S255 F130
G01 X78.64 Y0.13 M03 S0 F2000
G01 Z2 F300
G01 X78.84 Y0.1 M03 S255 F130
G01 X78.31 Y0.15 M03 S0 F2000
G01 Z2 F300
G01 X78.64 Y0.13 M03 S255 F130
G01 X77.85 Y0.19 M03 S0 F2000
G01 Z2 F300
G01 X78.31 Y0.15 M03 S255 F130
G01 X77.29 Y0.23 M03 S0 F2000
G01 Z2 F300
G01 X77.85 Y0.19 M03 S255 F130
G01 X76.61 Y0.28 M03 S0 F2000
G01 Z2 F300
G01 X77.29 Y0.23 M03 S255 F130
G01 X75.83 Y0.34 M03 S0 F2000
G01 Z2 F300
G01 X76.61 Y0.28 M03 S255 F130
G01 X74.95 Y0.4 M03 S0 F2000
G01 Z2 F300
G01 X75.83 Y0.34 M03 S255 F130
G01 X74 Y0.46 M03 S0 F2000
G01 Z2 F300
G01 X74.95 Y0.4 M03 S255 F130
G01 X72.95 Y0.54 M03 S0 F2000
G01 Z2 F300
G01 X74 Y0.46 M03 S255 F130
G01 X71.84 Y0.63 M03 S0 F2000
G01 Z2 F300
G01 X72.95 Y0.54 M03 S255 F130
G01 X70.65 Y0.7 M03 S0 F2000
G01 Z2 F300
G01 X71.84 Y0.63 M03 S255 F130
G01 X68.1 Y0.88 M03 S0 F2000
G01 Z2 F300
G01 X70.65 Y0.7 M03 S255 F130
G01 X65.35 Y1.05 M03 S0 F2000
G01 Z2 F300
G01 X68.1 Y0.88 M03 S255 F130
G01 X62.46 Y1.23 M03 S0 F2000
G01 Z2 F300
G01 X65.35 Y1.05 M03 S255 F130
G01 X59.49 Y1.4 M03 S0 F2000
G01 Z2 F300
G01 X62.46 Y1.23 M03 S255 F130
G01 X53.48 Y1.71 M03 S0 F2000
G01 Z2 F300
G01 X59.49 Y1.4 M03 S255 F130
G01 X50.55 Y1.83 M03 S0 F2000
G01 Z2 F300
G01 X53.48 Y1.71 M03 S255 F130
G01 X47.75 Y1.93 M03 S0 F2000
G01 Z2 F300
G01 X50.55 Y1.83 M03 S255 F130
G01 X45.13 Y1.99 M03 S0 F2000
G01 Z2 F300
G01 X47.75 Y1.93 M03 S255 F130
G01 X42.73 Y2.01 M03 S0 F2000
G01 Z2 F300
G01 X45.13 Y1.99 M03 S255 F130
G01 X40.3 Y1.99 M03 S0 F2000
G01 Z2 F300
G01 X42.73 Y2.01 M03 S255 F130
G01 X37.65 Y1.93 M03 S0 F2000
G01 Z2 F300
G01 X40.3 Y1.99 M03 S255 F130
G01 X34.81 Y1.84 M03 S0 F2000
G01 Z2 F300
G01 X37.65 Y1.93 M03 S255 F130
G01 X31.85 Y1.71 M03 S0 F2000
G01 Z2 F300
G01 X34.81 Y1.84 M03 S255 F130
G01 X25.76 Y1.41 M03 S0 F2000
G01 Z2 F300
G01 X31.85 Y1.71 M03 S255 F130
G01 X22.75 Y1.24 M03 S0 F2000
G01 Z2 F300
G01 X25.76 Y1.41 M03 S255 F130
G01 X19.83 Y1.05 M03 S0 F2000
G01 Z2 F300
G01 X22.75 Y1.24 M03 S255 F130
G01 X17.05 Y0.88 M03 S0 F2000
G01 Z2 F300
G01 X19.83 Y1.05 M03 S255 F130
G01 X14.46 Y0.7 M03 S0 F2000
G01 Z2 F300
G01 X17.05 Y0.88 M03 S255 F130
G01 X13.26 Y0.63 M03 S0 F2000
G01 Z2 F300
G01 X14.46 Y0.7 M03 S255 F130
G01 X12.13 Y0.54 M03 S0 F2000
G01 Z2 F300
G01 X13.26 Y0.63 M03 S255 F130
G01 X11.06 Y0.46 M03 S0 F2000
G01 Z2 F300
G01 X12.13 Y0.54 M03 S255 F130
G01 X10.1 Y0.4 M03 S0 F2000
G01 Z2 F300
G01 X11.06 Y0.46 M03 S255 F130
G01 X9.21 Y0.34 M03 S0 F2000
G01 Z2 F300
G01 X10.1 Y0.4 M03 S255 F130
G01 X8.42 Y0.28 M03 S0 F2000
G01 Z2 F300
G01 X9.21 Y0.34 M03 S255 F130
G01 X7.74 Y0.23 M03 S0 F2000
G01 Z2 F300
G01 X8.42 Y0.28 M03 S255 F130
G01 X7.16 Y0.19 M03 S0 F2000
G01 Z2 F300
G01 X7.74 Y0.23 M03 S255 F130
G01 X6.7 Y0.15 M03 S0 F2000
G01 Z2 F300
G01 X7.16 Y0.19 M03 S255 F130
G01 X6.36 Y0.13 M03 S0 F2000
G01 Z2 F300
G01 X6.7 Y0.15 M03 S255 F130
G01 X6.16 Y0.1 M03 S0 F2000
G01 Z2 F300
G01 X6.36 Y0.13 M03 S255 F130
G01 X6.09 Y0.1 M03 S0 F2000
G01 Z2 F300
G01 X6.16 Y0.1 M03 S255 F130
G01 X5.48 Y0.14 M03 S0 F2000
G01 Z2 F300
G01 X6.09 Y0.1 M03 S255 F130
G01 X4.89 Y0.25 M03 S0 F2000
G01 Z2 F300
G01 X5.48 Y0.14 M03 S255 F130
G01 X3.76 Y0.69 M03 S0 F2000
G01 Z2 F300
G01 X4.89 Y0.25 M03 S255 F130
G01 X2.74 Y1.36 M03 S0 F2000
G01 Z2 F300
G01 X3.76 Y0.69 M03 S255 F130
G01 X1.85 Y2.28 M03 S0 F2000
G01 Z2 F300
G01 X2.74 Y1.36 M03 S255 F130
G01 X1.13 Y3.36 M03 S0 F2000
G01 Z2 F300
G01 X1.85 Y2.28 M03 S255 F130
G01 X0.58 Y4.63 M03 S0 F2000
G01 Z2 F300
G01 X1.13 Y3.36 M03 S255 F130
G01 X0.23 Y6.01 M03 S0 F2000
G01 Z2 F300
G01 X0.58 Y4.63 M03 S255 F130
G01 X0.1 Y7.5 M03 S0 F2000
G01 Z2 F300
G01 X0.23 Y6.01 M03 S255 F130
G01 X0.23 Y8.99 M03 S0 F2000
G01 Z2 F300
G01 X0.1 Y7.5 M03 S255 F130
G01 X0.58 Y10.38 M03 S0 F2000
G01 Z2 F300
G01 X0.23 Y8.99 M03 S255 F130
G01 X1.13 Y11.64 M03 S0 F2000
G01 Z2 F300
G01 X0.58 Y10.38 M03 S255 F130
G01 X1.86 Y12.74 M03 S0 F2000
G01 Z2 F300
G01 X1.13 Y11.64 M03 S255 F130
G01 X2.74 Y13.64 M03 S0 F2000
G01 Z2 F300
G01 X1.86 Y12.74 M03 S255 F130
G01 X3.76 Y14.31 M03 S0 F2000
G01 Z2 F300
G01 X2.74 Y13.64 M03 S255 F130
G01 X4.89 Y14.75 M03 S0 F2000
G01 Z2 F300
G01 X3.76 Y14.31 M03 S255 F130
G01 X5.48 Y14.86 M03 S0 F2000
G01 Z2 F300
G01 X4.89 Y14.75 M03 S255 F130
G01 X6.09 Y14.9 M03 S0 F2000
G01 Z2 F300
G01 X5.48 Y14.86 M03 S255 F130
G01 X6.16 Y14.9 M03 S0 F2000
G01 Z2 F300
G01 X6.09 Y14.9 M03 S255 F130
G01 X6.36 Y14.88 M03 S0 F2000
G01 Z2 F300
G01 X6.16 Y14.9 M03 S255 F130
G01 X6.7 Y14.85 M03 S0 F2000
G01 Z2 F300
G01 X6.36 Y14.88 M03 S255 F130
G01 X7.16 Y14.81 M03 S0 F2000
G01 Z2 F300
G01 X6.7 Y14.85 M03 S255 F130
G01 X7.74 Y14.76 M03 S0 F2000
G01 Z2 F300
G01 X7.16 Y14.81 M03 S255 F130
G01 X8.42 Y14.7 M03 S0 F2000
G01 Z2 F300
G01 X7.74 Y14.76 M03 S255 F130
G01 X9.21 Y14.64 M03 S0 F2000
G01 Z2 F300
G01 X8.42 Y14.7 M03 S255 F130
G01 X10.09 Y14.58 M03 S0 F2000
G01 Z2 F300
G01 X9.21 Y14.64 M03 S255 F130
G01 X11.06 Y14.5 M03 S0 F2000
G01 Z2 F300
G01 X10.09 Y14.58 M03 S255 F130
G01 X12.13 Y14.41 M03 S0 F2000
G01 Z2 F300
G01 X11.06 Y14.5 M03 S255 F130
G01 X13.25 Y14.33 M03 S0 F2000
G01 Z2 F300
G01 X12.13 Y14.41 M03 S255 F130
G01 X14.46 Y14.24 M03 S0 F2000
G01 Z2 F300
G01 X13.25 Y14.33 M03 S255 F130
G01 X17.04 Y14.04 M03 S0 F2000
G01 Z2 F300
G01 X14.46 Y14.24 M03 S255 F130
G01 X19.83 Y13.85 M03 S0 F2000
G01 Z2 F300
G01 X17.04 Y14.04 M03 S255 F130
G01 X22.75 Y13.65 M03 S0 F2000
G01 Z2 F300
G01 X19.83 Y13.85 M03 S255 F130
G01 X25.76 Y13.46 M03 S0 F2000
G01 Z2 F300
G01 X22.75 Y13.65 M03 S255 F130
G01 X31.84 Y13.11 M03 S0 F2000
G01 Z2 F300
G01 X25.76 Y13.46 M03 S255 F130
G01 X34.8 Y12.98 M03 S0 F2000
G01 Z2 F300
G01 X31.84 Y13.11 M03 S255 F130
G01 X37.64 Y12.88 M03 S0 F2000
G01 Z2 F300
G01 X34.8 Y12.98 M03 S255 F130
G01 X40.3 Y12.8 M03 S0 F2000
G01 Z2 F300
G01 X37.64 Y12.88 M03 S255 F130
G01 X42.73 Y12.78 M03 S0 F2000
G01 Z2 F300
G01 X40.3 Y12.8 M03 S255 F130
G01 X45.13 Y12.79 M03 S0 F2000
G01 Z2 F300
G01 X42.73 Y12.78 M03 S255 F130
G01 X47.75 Y12.85 M03 S0 F2000
G01 Z2 F300
G01 X45.13 Y12.79 M03 S255 F130
G01 X50.55 Y12.94 M03 S0 F2000
G01 Z2 F300
G01 X47.75 Y12.85 M03 S255 F130
G01 X53.48 Y13.05 M03 S0 F2000
G01 Z2 F300
G01 X50.55 Y12.94 M03 S255 F130
G01 X59.49 Y13.36 M03 S0 F2000
G01 Z2 F300
G01 X53.48 Y13.05 M03 S255 F130
G01 X62.46 Y13.54 M03 S0 F2000
G01 Z2 F300
G01 X59.49 Y13.36 M03 S255 F130
G01 X65.35 Y13.71 M03 S0 F2000
G01 Z2 F300
G01 X62.46 Y13.54 M03 S255 F130
G01 X68.1 Y13.89 M03 S0 F2000
G01 Z2 F300
G01 X65.35 Y13.71 M03 S255 F130
G01 X70.65 Y14.06 M03 S0 F2000
G01 Z2 F300
G01 X68.1 Y13.89 M03 S255 F130
G01 X71.84 Y14.15 M03 S0 F2000
G01 Z2 F300
G01 X70.65 Y14.06 M03 S255 F130
G01 X72.95 Y14.23 M03 S0 F2000
G01 Z2 F300
G01 X71.84 Y14.15 M03 S255 F130
G01 X74 Y14.3 M03 S0 F2000
G01 Z2 F300
G01 X72.95 Y14.23 M03 S255 F130
G01 X74.96 Y14.38 M03 S0 F2000
G01 Z2 F300
G01 X74 Y14.3 M03 S255 F130
G01 X75.83 Y14.44 M03 S0 F2000
G01 Z2 F300
G01 X74.96 Y14.38 M03 S255 F130
G01 X76.61 Y14.5 M03 S0 F2000
G01 Z2 F300
G01 X75.83 Y14.44 M03 S255 F130
G01 X77.29 Y14.55 M03 S0 F2000
G01 Z2 F300
G01 X76.61 Y14.5 M03 S255 F130
G01 X77.85 Y14.59 M03 S0 F2000
G01 Z2 F300
G01 X77.29 Y14.55 M03 S255 F130
G01 X78.31 Y14.63 M03 S0 F2000
G01 Z2 F300
G01 X77.85 Y14.59 M03 S255 F130
G01 X78.64 Y14.65 M03 S0 F2000
G01 Z2 F300
G01 X78.31 Y14.63 M03 S255 F130
G01 X78.84 Y14.68 M03 S0 F2000
G01 Z2 F300
G01 X78.64 Y14.65 M03 S255 F130
G01 X78.91 Y14.68 M03 S0 F2000
G01 Z2 F300
G01 X78.84 Y14.68 M03 S255 F130
G01 X80.13 Y14.54 M03 S0 F2000
G01 Z2 F300
G01 X78.91 Y14.68 M03 S255 F130
G01 X81.25 Y14.13 M03 S0 F2000
G01 Z2 F300
G01 X80.13 Y14.54 M03 S255 F130
G01 X82.26 Y13.49 M03 S0 F2000
G01 Z2 F300
G01 X81.25 Y14.13 M03 S255 F130
G01 X83.15 Y12.63 M03 S0 F2000
G01 Z2 F300
G01 X82.26 Y13.49 M03 S255 F130
G01 X83.88 Y11.56 M03 S0 F2000
G01 Z2 F300
G01 X83.15 Y12.63 M03 S255 F130
G01 X84.43 Y10.35 M03 S0 F2000
G01 Z2 F300
G01 X83.88 Y11.56 M03 S255 F130
G01 X84.77 Y8.99 M03 S0 F2000
G01 Z2 F300
G01 X84.43 Y10.35 M03 S255 F130
G01 X84.9 Y7.5 M03 S0 F2000
G01 Z2 F300
G01 X84.77 Y8.99 M03 S255 F130
G01 X84.9 Y7.5 M03 S0 F2000
G01 Z2 F300
G01 X84.9 Y7.5 M03 S255 F130
G00 M03 S0
M05
G01 X5.39 Y7.93 M03 S0 F2000
M03 S0
G01 Z2.5 F300
G01 X5.35 Y7.5 M03 S255 F130
G01 X5.53 Y8.33 M03 S0 F2000
G01 Z2.5 F300
G01 X5.39 Y7.93 M03 S255 F130
G01 X5.99 Y9.03 M03 S0 F2000
G01 Z2.5 F300
G01 X5.53 Y8.33 M03 S255 F130
G01 X6.69 Y9.49 M03 S0 F2000
G01 Z2.5 F300
G01 X5.99 Y9.03 M03 S255 F130
G01 X7.09 Y9.61 M03 S0 F2000
G01 Z2.5 F300
G01 X6.69 Y9.49 M03 S255 F130
G01 X7.5 Y9.65 M03 S0 F2000
G01 Z2.5 F300
G01 X7.09 Y9.61 M03 S255 F130
G01 X7.93 Y9.61 M03 S0 F2000
G01 Z2.5 F300
G01 X7.5 Y9.65 M03 S255 F130
G01 X8.33 Y9.49 M03 S0 F2000
G01 Z2.5 F300
G01 X7.93 Y9.61 M03 S255 F130
G01 X9.03 Y9.03 M03 S0 F2000
G01 Z2.5 F300
G01 X8.33 Y9.49 M03 S255 F130
G01 X9.49 Y8.33 M03 S0 F2000
G01 Z2.5 F300
G01 X9.03 Y9.03 M03 S255 F130
G01 X9.61 Y7.93 M03 S0 F2000
G01 Z2.5 F300
G01 X9.49 Y8.33 M03 S255 F130
G01 X9.65 Y7.5 M03 S0 F2000
G01 Z2.5 F300
G01 X9.61 Y7.93 M03 S255 F130
G01 X9.61 Y7.06 M03 S0 F2000
G01 Z2.5 F300
G01 X9.65 Y7.5 M03 S255 F130
G01 X9.47 Y6.66 M03 S0 F2000
G01 Z2.5 F300
G01 X9.61 Y7.06 M03 S255 F130
G01 X9.03 Y5.98 M03 S0 F2000
G01 Z2.5 F300
G01 X9.47 Y6.66 M03 S255 F130
G01 X8.34 Y5.53 M03 S0 F2000
G01 Z2.5 F300
G01 X9.03 Y5.98 M03 S255 F130
G01 X7.94 Y5.39 M03 S0 F2000
G01 Z2.5 F300
G01 X8.34 Y5.53 M03 S255 F130
G01 X7.5 Y5.35 M03 S0 F2000
G01 Z2.5 F300
G01 X7.94 Y5.39 M03 S255 F130
G01 X7.06 Y5.39 M03 S0 F2000
G01 Z2.5 F300
G01 X7.5 Y5.35 M03 S255 F130
G01 X6.66 Y5.53 M03 S0 F2000
G01 Z2.5 F300
G01 X7.06 Y5.39 M03 S255 F130
G01 X5.98 Y5.98 M03 S0 F2000
G01 Z2.5 F300
G01 X6.66 Y5.53 M03 S255 F130
G01 X5.53 Y6.66 M03 S0 F2000
G01 Z2.5 F300
G01 X5.98 Y5.98 M03 S255 F130
G01 X5.39 Y7.06 M03 S0 F2000
G01 Z2.5 F300
G01 X5.53 Y6.66 M03 S255 F130
G01 X5.35 Y7.5 M03 S0 F2000
G01 Z2.5 F300
G01 X5.39 Y7.06 M03 S255 F130
G01 X5.35 Y7.5 M03 S0 F2000
G01 Z2.5 F300
G01 X5.35 Y7.5 M03 S255 F130
G01 X75.89 Y8.24 M03 S0 F2000
G01 Z2.5 F300
G01 X75.74 Y7.5 M03 S255 F130
G01 X76.29 Y8.85 M03 S0 F2000
G01 Z2.5 F300
G01 X75.89 Y8.24 M03 S255 F130
G01 X76.91 Y9.26 M03 S0 F2000
G01 Z2.5 F300
G01 X76.29 Y8.85 M03 S255 F130
G01 X77.64 Y9.4 M03 S0 F2000
G01 Z2.5 F300
G01 X76.91 Y9.26 M03 S255 F130
G01 X78.36 Y9.26 M03 S0 F2000
G01 Z2.5 F300
G01 X77.64 Y9.4 M03 S255 F130
G01 X78.98 Y8.85 M03 S0 F2000
G01 Z2.5 F300
G01 X78.36 Y9.26 M03 S255 F130
G01 X79.39 Y8.24 M03 S0 F2000
G01 Z2.5 F300
G01 X78.98 Y8.85 M03 S255 F130
G01 X79.54 Y7.5 M03 S0 F2000
G01 Z2.5 F300
G01 X79.39 Y8.24 M03 S255 F130
G01 X79.5 Y7.13 M03 S0 F2000
G01 Z2.5 F300
G01 X79.54 Y7.5 M03 S255 F130
G01 X79.39 Y6.76 M03 S0 F2000
G01 Z2.5 F300
G01 X79.5 Y7.13 M03 S255 F130
G01 X78.99 Y6.16 M03 S0 F2000
G01 Z2.5 F300
G01 X79.39 Y6.76 M03 S255 F130
G01 X78.38 Y5.75 M03 S0 F2000
G01 Z2.5 F300
G01 X78.99 Y6.16 M03 S255 F130
G01 X78.02 Y5.64 M03 S0 F2000
G01 Z2.5 F300
G01 X78.38 Y5.75 M03 S255 F130
G01 X77.64 Y5.6 M03 S0 F2000
G01 Z2.5 F300
G01 X78.02 Y5.64 M03 S255 F130
G01 X77.25 Y5.64 M03 S0 F2000
G01 Z2.5 F300
G01 X77.64 Y5.6 M03 S255 F130
G01 X76.9 Y5.75 M03 S0 F2000
G01 Z2.5 F300
G01 X77.25 Y5.64 M03 S255 F130
G01 X76.3 Y6.16 M03 S0 F2000
G01 Z2.5 F300
G01 X76.9 Y5.75 M03 S255 F130
G01 X75.89 Y6.76 M03 S0 F2000
G01 Z2.5 F300
G01 X76.3 Y6.16 M03 S255 F130
G01 X75.77 Y7.13 M03 S0 F2000
G01 Z2.5 F300
G01 X75.89 Y6.76 M03 S255 F130
G01 X75.74 Y7.5 M03 S0 F2000
G01 Z2.5 F300
G01 X75.77 Y7.13 M03 S255 F130
G01 X75.73 Y7.5 M03 S0 F2000
G01 Z2.5 F300
G01 X75.73 Y7.5 M03 S255 F130
G01 X84.77 Y6.01 M03 S0 F2000
G01 Z2.5 F300
G01 X84.9 Y7.5 M03 S255 F130
G01 X84.43 Y4.63 M03 S0 F2000
G01 Z2.5 F300
G01 X84.77 Y6.01 M03 S255 F130
G01 X83.88 Y3.36 M03 S0 F2000
G01 Z2.5 F300
G01 X84.43 Y4.63 M03 S255 F130
G01 X83.15 Y2.28 M03 S0 F2000
G01 Z2.5 F300
G01 X83.88 Y3.36 M03 S255 F130
G01 X82.26 Y1.36 M03 S0 F2000
G01 Z2.5 F300
G01 X83.15 Y2.28 M03 S255 F130
G01 X81.25 Y0.69 M03 S0 F2000
G01 Z2.5 F300
G01 X82.26 Y1.36 M03 S255 F130
G01 X80.13 Y0.25 M03 S0 F2000
G01 Z2.5 F300
G01 X81.25 Y0.69 M03 S255 F130
G01 X79.52 Y0.14 M03 S0 F2000
G01 Z2.5 F300
G01 X80.13 Y0.25 M03 S255 F130
G01 X78.91 Y0.1 M03 S0 F2000
G01 Z2.5 F300
G01 X79.52 Y0.14 M03 S255 F130
G01 X78.84 Y0.1 M03 S0 F2000
G01 Z2.5 F300
G01 X78.91 Y0.1 M03 S255 F130
G01 X78.64 Y0.13 M03 S0 F2000
G01 Z2.5 F300
G01 X78.84 Y0.1 M03 S255 F130
G01 X78.31 Y0.15 M03 S0 F2000
G01 Z2.5 F300
G01 X78.64 Y0.13 M03 S255 F130
G01 X77.85 Y0.19 M03 S0 F2000
G01 Z2.5 F300
G01 X78.31 Y0.15 M03 S255 F130
G01 X77.29 Y0.23 M03 S0 F2000
G01 Z2.5 F300
G01 X77.85 Y0.19 M03 S255 F130
G01 X76.61 Y0.28 M03 S0 F2000
G01 Z2.5 F300
G01 X77.29 Y0.23 M03 S255 F130
G01 X75.83 Y0.34 M03 S0 F2000
G01 Z2.5 F300
G01 X76.61 Y0.28 M03 S255 F130
G01 X74.95 Y0.4 M03 S0 F2000
G01 Z2.5 F300
G01 X75.83 Y0.34 M03 S255 F130
G01 X74 Y0.46 M03 S0 F2000
G01 Z2.5 F300
G01 X74.95 Y0.4 M03 S255 F130
G01 X72.95 Y0.54 M03 S0 F2000
G01 Z2.5 F300
G01 X74 Y0.46 M03 S255 F130
G01 X71.84 Y0.63 M03 S0 F2000
G01 Z2.5 F300
G01 X72.95 Y0.54 M03 S255 F130
G01 X70.65 Y0.7 M03 S0 F2000
G01 Z2.5 F300
G01 X71.84 Y0.63 M03 S255 F130
G01 X68.1 Y0.88 M03 S0 F2000
G01 Z2.5 F300
G01 X70.65 Y0.7 M03 S255 F130
G01 X65.35 Y1.05 M03 S0 F2000
G01 Z2.5 F300
G01 X68.1 Y0.88 M03 S255 F130
G01 X62.46 Y1.23 M03 S0 F2000
G01 Z2.5 F300
G01 X65.35 Y1.05 M03 S255 F130
G01 X59.49 Y1.4 M03 S0 F2000
G01 Z2.5 F300
G01 X62.46 Y1.23 M03 S255 F130
G01 X53.48 Y1.71 M03 S0 F2000
G01 Z2.5 F300
G01 X59.49 Y1.4 M03 S255 F130
G01 X50.55 Y1.83 M03 S0 F2000
G01 Z2.5 F300
G01 X53.48 Y1.71 M03 S255 F130
G01 X47.75 Y1.93 M03 S0 F2000
G01 Z2.5 F300
G01 X50.55 Y1.83 M03 S255 F130
G01 X45.13 Y1.99 M03 S0 F2000
G01 Z2.5 F300
G01 X47.75 Y1.93 M03 S255 F130
G01 X42.73 Y2.01 M03 S0 F2000
G01 Z2.5 F300
G01 X45.13 Y1.99 M03 S255 F130
G01 X40.3 Y1.99 M03 S0 F2000
G01 Z2.5 F300
G01 X42.73 Y2.01 M03 S255 F130
G01 X37.65 Y1.93 M03 S0 F2000
G01 Z2.5 F300
G01 X40.3 Y1.99 M03 S255 F130
G01 X34.81 Y1.84 M03 S0 F2000
G01 Z2.5 F300
G01 X37.65 Y1.93 M03 S255 F130
G01 X31.85 Y1.71 M03 S0 F2000
G01 Z2.5 F300
G01 X34.81 Y1.84 M03 S255 F130
G01 X25.76 Y1.41 M03 S0 F2000
G01 Z2.5 F300
G01 X31.85 Y1.71 M03 S255 F130
G01 X22.75 Y1.24 M03 S0 F2000
G01 Z2.5 F300
G01 X25.76 Y1.41 M03 S255 F130
G01 X19.83 Y1.05 M03 S0 F2000
G01 Z2.5 F300
G01 X22.75 Y1.24 M03 S255 F130
G01 X17.05 Y0.88 M03 S0 F2000
G01 Z2.5 F300
G01 X19.83 Y1.05 M03 S255 F130
G01 X14.46 Y0.7 M03 S0 F2000
G01 Z2.5 F300
G01 X17.05 Y0.88 M03 S255 F130
G01 X13.26 Y0.63 M03 S0 F2000
G01 Z2.5 F300
G01 X14.46 Y0.7 M03 S255 F130
G01 X12.13 Y0.54 M03 S0 F2000
G01 Z2.5 F300
G01 X13.26 Y0.63 M03 S255 F130
G01 X11.06 Y0.46 M03 S0 F2000
G01 Z2.5 F300
G01 X12.13 Y0.54 M03 S255 F130
G01 X10.1 Y0.4 M03 S0 F2000
G01 Z2.5 F300
G01 X11.06 Y0.46 M03 S255 F130
G01 X9.21 Y0.34 M03 S0 F2000
G01 Z2.5 F300
G01 X10.1 Y0.4 M03 S255 F130
G01 X8.42 Y0.28 M03 S0 F2000
G01 Z2.5 F300
G01 X9.21 Y0.34 M03 S255 F130
G01 X7.74 Y0.23 M03 S0 F2000
G01 Z2.5 F300
G01 X8.42 Y0.28 M03 S255 F130
G01 X7.16 Y0.19 M03 S0 F2000
G01 Z2.5 F300
G01 X7.74 Y0.23 M03 S255 F130
G01 X6.7 Y0.15 M03 S0 F2000
G01 Z2.5 F300
G01 X7.16 Y0.19 M03 S255 F130
G01 X6.36 Y0.13 M03 S0 F2000
G01 Z2.5 F300
G01 X6.7 Y0.15 M03 S255 F130
G01 X6.16 Y0.1 M03 S0 F2000
G01 Z2.5 F300
G01 X6.36 Y0.13 M03 S255 F130
G01 X6.09 Y0.1 M03 S0 F2000
G01 Z2.5 F300
G01 X6.16 Y0.1 M03 S255 F130
G01 X5.48 Y0.14 M03 S0 F2000
G01 Z2.5 F300
G01 X6.09 Y0.1 M03 S255 F130
G01 X4.89 Y0.25 M03 S0 F2000
G01 Z2.5 F300
G01 X5.48 Y0.14 M03 S255 F130
G01 X3.76 Y0.69 M03 S0 F2000
G01 Z2.5 F300
G01 X4.89 Y0.25 M03 S255 F130
G01 X2.74 Y1.36 M03 S0 F2000
G01 Z2.5 F300
G01 X3.76 Y0.69 M03 S255 F130
G01 X1.85 Y2.28 M03 S0 F2000
G01 Z2.5 F300
G01 X2.74 Y1.36 M03 S255 F130
G01 X1.13 Y3.36 M03 S0 F2000
G01 Z2.5 F300
G01 X1.85 Y2.28 M03 S255 F130
G01 X0.58 Y4.63 M03 S0 F2000
G01 Z2.5 F300
G01 X1.13 Y3.36 M03 S255 F130
G01 X0.23 Y6.01 M03 S0 F2000
G01 Z2.5 F300
G01 X0.58 Y4.63 M03 S255 F130
G01 X0.1 Y7.5 M03 S0 F2000
G01 Z2.5 F300
G01 X0.23 Y6.01 M03 S255 F130
G01 X0.23 Y8.99 M03 S0 F2000
G01 Z2.5 F300
G01 X0.1 Y7.5 M03 S255 F130
G01 X0.58 Y10.38 M03 S0 F2000
G01 Z2.5 F300
G01 X0.23 Y8.99 M03 S255 F130
G01 X1.13 Y11.64 M03 S0 F2000
G01 Z2.5 F300
G01 X0.58 Y10.38 M03 S255 F130
G01 X1.86 Y12.74 M03 S0 F2000
G01 Z2.5 F300
G01 X1.13 Y11.64 M03 S255 F130
G01 X2.74 Y13.64 M03 S0 F2000
G01 Z2.5 F300
G01 X1.86 Y12.74 M03 S255 F130
G01 X3.76 Y14.31 M03 S0 F2000
G01 Z2.5 F300
G01 X2.74 Y13.64 M03 S255 F130
G01 X4.89 Y14.75 M03 S0 F2000
G01 Z2.5 F300
G01 X3.76 Y14.31 M03 S255 F130
G01 X5.48 Y14.86 M03 S0 F2000
G01 Z2.5 F300
G01 X4.89 Y14.75 M03 S255 F130
G01 X6.09 Y14.9 M03 S0 F2000
G01 Z2.5 F300
G01 X5.48 Y14.86 M03 S255 F130
G01 X6.16 Y14.9 M03 S0 F2000
G01 Z2.5 F300
G01 X6.09 Y14.9 M03 S255 F130
G01 X6.36 Y14.88 M03 S0 F2000
G01 Z2.5 F300
G01 X6.16 Y14.9 M03 S255 F130
G01 X6.7 Y14.85 M03 S0 F2000
G01 Z2.5 F300
G01 X6.36 Y14.88 M03 S255 F130
G01 X7.16 Y14.81 M03 S0 F2000
G01 Z2.5 F300
G01 X6.7 Y14.85 M03 S255 F130
G01 X7.74 Y14.76 M03 S0 F2000
G01 Z2.5 F300
G01 X7.16 Y14.81 M03 S255 F130
G01 X8.42 Y14.7 M03 S0 F2000
G01 Z2.5 F300
G01 X7.74 Y14.76 M03 S255 F130
G01 X9.21 Y14.64 M03 S0 F2000
G01 Z2.5 F300
G01 X8.42 Y14.7 M03 S255 F130
G01 X10.09 Y14.58 M03 S0 F2000
G01 Z2.5 F300
G01 X9.21 Y14.64 M03 S255 F130
G01 X11.06 Y14.5 M03 S0 F2000
G01 Z2.5 F300
G01 X10.09 Y14.58 M03 S255 F130
G01 X12.13 Y14.41 M03 S0 F2000
G01 Z2.5 F300
G01 X11.06 Y14.5 M03 S255 F130
G01 X13.25 Y14.33 M03 S0 F2000
G01 Z2.5 F300
G01 X12.13 Y14.41 M03 S255 F130
G01 X14.46 Y14.24 M03 S0 F2000
G01 Z2.5 F300
G01 X13.25 Y14.33 M03 S255 F130
G01 X17.04 Y14.04 M03 S0 F2000
G01 Z2.5 F300
G01 X14.46 Y14.24 M03 S255 F130
G01 X19.83 Y13.85 M03 S0 F2000
G01 Z2.5 F300
G01 X17.04 Y14.04 M03 S255 F130
G01 X22.75 Y13.65 M03 S0 F2000
G01 Z2.5 F300
G01 X19.83 Y13.85 M03 S255 F130
G01 X25.76 Y13.46 M03 S0 F2000
G01 Z2.5 F300
G01 X22.75 Y13.65 M03 S255 F130
G01 X31.84 Y13.11 M03 S0 F2000
G01 Z2.5 F300
G01 X25.76 Y13.46 M03 S255 F130
G01 X34.8 Y12.98 M03 S0 F2000
G01 Z2.5 F300
G01 X31.84 Y13.11 M03 S255 F130
G01 X37.64 Y12.88 M03 S0 F2000
G01 Z2.5 F300
G01 X34.8 Y12.98 M03 S255 F130
G01 X40.3 Y12.8 M03 S0 F2000
G01 Z2.5 F300
G01 X37.64 Y12.88 M03 S255 F130
G01 X42.73 Y12.78 M03 S0 F2000
G01 Z2.5 F300
G01 X40.3 Y12.8 M03 S255 F130
G01 X45.13 Y12.79 M03 S0 F2000
G01 Z2.5 F300
G01 X42.73 Y12.78 M03 S255 F130
G01 X47.75 Y12.85 M03 S0 F2000
G01 Z2.5 F300
G01 X45.13 Y12.79 M03 S255 F130
G01 X50.55 Y12.94 M03 S0 F2000
G01 Z2.5 F300
G01 X47.75 Y12.85 M03 S255 F130
G01 X53.48 Y13.05 M03 S0 F2000
G01 Z2.5 F300
G01 X50.55 Y12.94 M03 S255 F130
G01 X59.49 Y13.36 M03 S0 F2000
G01 Z2.5 F300
G01 X53.48 Y13.05 M03 S255 F130
G01 X62.46 Y13.54 M03 S0 F2000
G01 Z2.5 F300
G01 X59.49 Y13.36 M03 S255 F130
G01 X65.35 Y13.71 M03 S0 F2000
G01 Z2.5 F300
G01 X62.46 Y13.54 M03 S255 F130
G01 X68.1 Y13.89 M03 S0 F2000
G01 Z2.5 F300
G01 X65.35 Y13.71 M03 S255 F130
G01 X70.65 Y14.06 M03 S0 F2000
G01 Z2.5 F300
G01 X68.1 Y13.89 M03 S255 F130
G01 X71.84 Y14.15 M03 S0 F2000
G01 Z2.5 F300
G01 X70.65 Y14.06 M03 S255 F130
G01 X72.95 Y14.23 M03 S0 F2000
G01 Z2.5 F300
G01 X71.84 Y14.15 M03 S255 F130
G01 X74 Y14.3 M03 S0 F2000
G01 Z2.5 F300
G01 X72.95 Y14.23 M03 S255 F130
G01 X74.96 Y14.38 M03 S0 F2000
G01 Z2.5 F300
G01 X74 Y14.3 M03 S255 F130
G01 X75.83 Y14.44 M03 S0 F2000
G01 Z2.5 F300
G01 X74.96 Y14.38 M03 S255 F130
G01 X76.61 Y14.5 M03 S0 F2000
G01 Z2.5 F300
G01 X75.83 Y14.44 M03 S255 F130
G01 X77.29 Y14.55 M03 S0 F2000
G01 Z2.5 F300
G01 X76.61 Y14.5 M03 S255 F130
G01 X77.85 Y14.59 M03 S0 F2000
G01 Z2.5 F300
G01 X77.29 Y14.55 M03 S255 F130
G01 X78.31 Y14.63 M03 S0 F2000
G01 Z2.5 F300
G01 X77.85 Y14.59 M03 S255 F130
G01 X78.64 Y14.65 M03 S0 F2000
G01 Z2.5 F300
G01 X78.31 Y14.63 M03 S255 F130
G01 X78.84 Y14.68 M03 S0 F2000
G01 Z2.5 F300
G01 X78.64 Y14.65 M03 S255 F130
G01 X78.91 Y14.68 M03 S0 F2000
G01 Z2.5 F300
G01 X78.84 Y14.68 M03 S255 F130
G01 X80.13 Y14.54 M03 S0 F2000
G01 Z2.5 F300
G01 X78.91 Y14.68 M03 S255 F130
G01 X81.25 Y14.13 M03 S0 F2000
G01 Z2.5 F300
G01 X80.13 Y14.54 M03 S255 F130
G01 X82.26 Y13.49 M03 S0 F2000
G01 Z2.5 F300
G01 X81.25 Y14.13 M03 S255 F130
G01 X83.15 Y12.63 M03 S0 F2000
G01 Z2.5 F300
G01 X82.26 Y13.49 M03 S255 F130
G01 X83.88 Y11.56 M03 S0 F2000
G01 Z2.5 F300
G01 X83.15 Y12.63 M03 S255 F130
G01 X84.43 Y10.35 M03 S0 F2000
G01 Z2.5 F300
G01 X83.88 Y11.56 M03 S255 F130
G01 X84.77 Y8.99 M03 S0 F2000
G01 Z2.5 F300
G01 X84.43 Y10.35 M03 S255 F130
G01 X84.9 Y7.5 M03 S0 F2000
G01 Z2.5 F300
G01 X84.77 Y8.99 M03 S255 F130
G01 X84.9 Y7.5 M03 S0 F2000
G01 Z2.5 F300
G01 X84.9 Y7.5 M03 S255 F130
G00 Z0 M03 S0
M05
G00 X0 Y0 
