( Generated by T2Laser ) 
(  DXF2Gcode for Grbl  )
( Start Point: LL      )
( Frame Mode : Extents )
( X Maximum  : 134.1   )
( Y Maximum  : 19.9    )
( Laser Power: 255     )
( Vector Rate: 150     )
( Rapid Feed : 2000    )
( Vector Name: BirdPiston.dxf )
G21
G90
F150
M05
G00 Z0 
G01 X5.39 Y11.33 F2000
M03 S0
G01 Z0 F300
G01 X5.35 Y10.9 M03 S255 F150
G01 X5.53 Y11.73 M03 S0 F2000
G01 Z0 F300
G01 X5.39 Y11.33 M03 S255 F150
G01 X5.99 Y12.43 M03 S0 F2000
G01 Z0 F300
G01 X5.53 Y11.73 M03 S255 F150
G01 X6.69 Y12.89 M03 S0 F2000
G01 Z0 F300
G01 X5.99 Y12.43 M03 S255 F150
G01 X7.09 Y13.01 M03 S0 F2000
G01 Z0 F300
G01 X6.69 Y12.89 M03 S255 F150
G01 X7.5 Y13.05 M03 S0 F2000
G01 Z0 F300
G01 X7.09 Y13.01 M03 S255 F150
G01 X7.93 Y13.01 M03 S0 F2000
G01 Z0 F300
G01 X7.5 Y13.05 M03 S255 F150
G01 X8.33 Y12.89 M03 S0 F2000
G01 Z0 F300
G01 X7.93 Y13.01 M03 S255 F150
G01 X9.03 Y12.43 M03 S0 F2000
G01 Z0 F300
G01 X8.33 Y12.89 M03 S255 F150
G01 X9.49 Y11.73 M03 S0 F2000
G01 Z0 F300
G01 X9.03 Y12.43 M03 S255 F150
G01 X9.61 Y11.33 M03 S0 F2000
G01 Z0 F300
G01 X9.49 Y11.73 M03 S255 F150
G01 X9.65 Y10.9 M03 S0 F2000
G01 Z0 F300
G01 X9.61 Y11.33 M03 S255 F150
G01 X9.61 Y10.46 M03 S0 F2000
G01 Z0 F300
G01 X9.65 Y10.9 M03 S255 F150
G01 X9.47 Y10.06 M03 S0 F2000
G01 Z0 F300
G01 X9.61 Y10.46 M03 S255 F150
G01 X9.03 Y9.38 M03 S0 F2000
G01 Z0 F300
G01 X9.47 Y10.06 M03 S255 F150
G01 X8.34 Y8.92 M03 S0 F2000
G01 Z0 F300
G01 X9.03 Y9.38 M03 S255 F150
G01 X7.94 Y8.79 M03 S0 F2000
G01 Z0 F300
G01 X8.34 Y8.92 M03 S255 F150
G01 X7.5 Y8.75 M03 S0 F2000
G01 Z0 F300
G01 X7.94 Y8.79 M03 S255 F150
G01 X7.06 Y8.79 M03 S0 F2000
G01 Z0 F300
G01 X7.5 Y8.75 M03 S255 F150
G01 X6.66 Y8.92 M03 S0 F2000
G01 Z0 F300
G01 X7.06 Y8.79 M03 S255 F150
G01 X5.98 Y9.38 M03 S0 F2000
G01 Z0 F300
G01 X6.66 Y8.92 M03 S255 F150
G01 X5.53 Y10.06 M03 S0 F2000
G01 Z0 F300
G01 X5.98 Y9.38 M03 S255 F150
G01 X5.39 Y10.46 M03 S0 F2000
G01 Z0 F300
G01 X5.53 Y10.06 M03 S255 F150
G01 X5.35 Y10.9 M03 S0 F2000
G01 Z0 F300
G01 X5.39 Y10.46 M03 S255 F150
G01 X5.35 Y10.9 M03 S0 F2000
G01 Z0 F300
G01 X5.35 Y10.9 M03 S255 F150
G01 X95.75 Y11.63 M03 S0 F2000
G01 Z0 F300
G01 X95.6 Y10.9 M03 S255 F150
G01 X96.16 Y12.25 M03 S0 F2000
G01 Z0 F300
G01 X95.75 Y11.63 M03 S255 F150
G01 X96.77 Y12.66 M03 S0 F2000
G01 Z0 F300
G01 X96.16 Y12.25 M03 S255 F150
G01 X97.5 Y12.8 M03 S0 F2000
G01 Z0 F300
G01 X96.77 Y12.66 M03 S255 F150
G01 X98.24 Y12.66 M03 S0 F2000
G01 Z0 F300
G01 X97.5 Y12.8 M03 S255 F150
G01 X98.85 Y12.25 M03 S0 F2000
G01 Z0 F300
G01 X98.24 Y12.66 M03 S255 F150
G01 X99.26 Y11.63 M03 S0 F2000
G01 Z0 F300
G01 X98.85 Y12.25 M03 S255 F150
G01 X99.4 Y10.9 M03 S0 F2000
G01 Z0 F300
G01 X99.26 Y11.63 M03 S255 F150
G01 X99.36 Y10.51 M03 S0 F2000
G01 Z0 F300
G01 X99.4 Y10.9 M03 S255 F150
G01 X99.25 Y10.16 M03 S0 F2000
G01 Z0 F300
G01 X99.36 Y10.51 M03 S255 F150
G01 X98.85 Y9.56 M03 S0 F2000
G01 Z0 F300
G01 X99.25 Y10.16 M03 S255 F150
G01 X98.24 Y9.15 M03 S0 F2000
G01 Z0 F300
G01 X98.85 Y9.56 M03 S255 F150
G01 X97.89 Y9.04 M03 S0 F2000
G01 Z0 F300
G01 X98.24 Y9.15 M03 S255 F150
G01 X97.5 Y9 M03 S0 F2000
G01 Z0 F300
G01 X97.89 Y9.04 M03 S255 F150
G01 X97.13 Y9.04 M03 S0 F2000
G01 Z0 F300
G01 X97.5 Y9 M03 S255 F150
G01 X96.76 Y9.15 M03 S0 F2000
G01 Z0 F300
G01 X97.13 Y9.04 M03 S255 F150
G01 X96.16 Y9.56 M03 S0 F2000
G01 Z0 F300
G01 X96.76 Y9.15 M03 S255 F150
G01 X95.75 Y10.16 M03 S0 F2000
G01 Z0 F300
G01 X96.16 Y9.56 M03 S255 F150
G01 X95.64 Y10.51 M03 S0 F2000
G01 Z0 F300
G01 X95.75 Y10.16 M03 S255 F150
G01 X95.6 Y10.9 M03 S0 F2000
G01 Z0 F300
G01 X95.64 Y10.51 M03 S255 F150
G01 X95.6 Y10.9 M03 S0 F2000
G01 Z0 F300
G01 X95.6 Y10.9 M03 S255 F150
G01 X104.86 Y10.14 M03 S0 F2000
G01 Z0 F300
G01 X104.9 Y10.9 M03 S255 F150
G01 X104.75 Y9.41 M03 S0 F2000
G01 Z0 F300
G01 X104.86 Y10.14 M03 S255 F150
G01 X104.31 Y8.03 M03 S0 F2000
G01 Z0 F300
G01 X104.75 Y9.41 M03 S255 F150
G01 X103.64 Y6.76 M03 S0 F2000
G01 Z0 F300
G01 X104.31 Y8.03 M03 S255 F150
G01 X102.74 Y5.66 M03 S0 F2000
G01 Z0 F300
G01 X103.64 Y6.76 M03 S255 F150
G01 X101.64 Y4.76 M03 S0 F2000
G01 Z0 F300
G01 X102.74 Y5.66 M03 S255 F150
G01 X100.38 Y4.09 M03 S0 F2000
G01 Z0 F300
G01 X101.64 Y4.76 M03 S255 F150
G01 X98.99 Y3.65 M03 S0 F2000
G01 Z0 F300
G01 X100.38 Y4.09 M03 S255 F150
G01 X98.26 Y3.54 M03 S0 F2000
G01 Z0 F300
G01 X98.99 Y3.65 M03 S255 F150
G01 X97.5 Y3.5 M03 S0 F2000
G01 Z0 F300
G01 X98.26 Y3.54 M03 S255 F150
G01 X97.41 Y3.5 M03 S0 F2000
G01 Z0 F300
G01 X97.5 Y3.5 M03 S255 F150
G01 X97.16 Y3.53 M03 S0 F2000
G01 Z0 F300
G01 X97.41 Y3.5 M03 S255 F150
G01 X96.75 Y3.55 M03 S0 F2000
G01 Z0 F300
G01 X97.16 Y3.53 M03 S255 F150
G01 X96.19 Y3.59 M03 S0 F2000
G01 Z0 F300
G01 X96.75 Y3.55 M03 S255 F150
G01 X95.49 Y3.63 M03 S0 F2000
G01 Z0 F300
G01 X96.19 Y3.59 M03 S255 F150
G01 X94.65 Y3.68 M03 S0 F2000
G01 Z0 F300
G01 X95.49 Y3.63 M03 S255 F150
G01 X93.69 Y3.74 M03 S0 F2000
G01 Z0 F300
G01 X94.65 Y3.68 M03 S255 F150
G01 X92.61 Y3.8 M03 S0 F2000
G01 Z0 F300
G01 X93.69 Y3.74 M03 S255 F150
G01 X91.43 Y3.86 M03 S0 F2000
G01 Z0 F300
G01 X92.61 Y3.8 M03 S255 F150
G01 X90.14 Y3.94 M03 S0 F2000
G01 Z0 F300
G01 X91.43 Y3.86 M03 S255 F150
G01 X88.75 Y4.03 M03 S0 F2000
G01 Z0 F300
G01 X90.14 Y3.94 M03 S255 F150
G01 X87.29 Y4.1 M03 S0 F2000
G01 Z0 F300
G01 X88.75 Y4.03 M03 S255 F150
G01 X85.74 Y4.19 M03 S0 F2000
G01 Z0 F300
G01 X87.29 Y4.1 M03 S255 F150
G01 X84.13 Y4.28 M03 S0 F2000
G01 Z0 F300
G01 X85.74 Y4.19 M03 S255 F150
G01 X80.74 Y4.45 M03 S0 F2000
G01 Z0 F300
G01 X84.13 Y4.28 M03 S255 F150
G01 X77.16 Y4.63 M03 S0 F2000
G01 Z0 F300
G01 X80.74 Y4.45 M03 S255 F150
G01 X73.49 Y4.8 M03 S0 F2000
G01 Z0 F300
G01 X77.16 Y4.63 M03 S255 F150
G01 X69.76 Y4.96 M03 S0 F2000
G01 Z0 F300
G01 X73.49 Y4.8 M03 S255 F150
G01 X66.06 Y5.1 M03 S0 F2000
G01 Z0 F300
G01 X69.76 Y4.96 M03 S255 F150
G01 X62.45 Y5.23 M03 S0 F2000
G01 Z0 F300
G01 X66.06 Y5.1 M03 S255 F150
G01 X58.99 Y5.31 M03 S0 F2000
G01 Z0 F300
G01 X62.45 Y5.23 M03 S255 F150
G01 X55.75 Y5.38 M03 S0 F2000
G01 Z0 F300
G01 X58.99 Y5.31 M03 S255 F150
G01 X54.23 Y5.4 M03 S0 F2000
G01 Z0 F300
G01 X55.75 Y5.38 M03 S255 F150
G01 X52.79 Y5.4 M03 S0 F2000
G01 Z0 F300
G01 X54.23 Y5.4 M03 S255 F150
G01 X51.33 Y5.4 M03 S0 F2000
G01 Z0 F300
G01 X52.79 Y5.4 M03 S255 F150
G01 X49.79 Y5.38 M03 S0 F2000
G01 Z0 F300
G01 X51.33 Y5.4 M03 S255 F150
G01 X46.5 Y5.33 M03 S0 F2000
G01 Z0 F300
G01 X49.79 Y5.38 M03 S255 F150
G01 X43 Y5.23 M03 S0 F2000
G01 Z0 F300
G01 X46.5 Y5.33 M03 S255 F150
G01 X39.34 Y5.11 M03 S0 F2000
G01 Z0 F300
G01 X43 Y5.23 M03 S255 F150
G01 X35.59 Y4.96 M03 S0 F2000
G01 Z0 F300
G01 X39.34 Y5.11 M03 S255 F150
G01 X31.81 Y4.8 M03 S0 F2000
G01 Z0 F300
G01 X35.59 Y4.96 M03 S255 F150
G01 X28.09 Y4.64 M03 S0 F2000
G01 Z0 F300
G01 X31.81 Y4.8 M03 S255 F150
G01 X24.48 Y4.45 M03 S0 F2000
G01 Z0 F300
G01 X28.09 Y4.64 M03 S255 F150
G01 X21.04 Y4.28 M03 S0 F2000
G01 Z0 F300
G01 X24.48 Y4.45 M03 S255 F150
G01 X19.4 Y4.19 M03 S0 F2000
G01 Z0 F300
G01 X21.04 Y4.28 M03 S255 F150
G01 X17.84 Y4.1 M03 S0 F2000
G01 Z0 F300
G01 X19.4 Y4.19 M03 S255 F150
G01 X16.36 Y4.03 M03 S0 F2000
G01 Z0 F300
G01 X17.84 Y4.1 M03 S255 F150
G01 X14.96 Y3.94 M03 S0 F2000
G01 Z0 F300
G01 X16.36 Y4.03 M03 S255 F150
G01 X13.65 Y3.86 M03 S0 F2000
G01 Z0 F300
G01 X14.96 Y3.94 M03 S255 F150
G01 X12.45 Y3.8 M03 S0 F2000
G01 Z0 F300
G01 X13.65 Y3.86 M03 S255 F150
G01 X11.35 Y3.74 M03 S0 F2000
G01 Z0 F300
G01 X12.45 Y3.8 M03 S255 F150
G01 X10.39 Y3.68 M03 S0 F2000
G01 Z0 F300
G01 X11.35 Y3.74 M03 S255 F150
G01 X9.54 Y3.63 M03 S0 F2000
G01 Z0 F300
G01 X10.39 Y3.68 M03 S255 F150
G01 X8.83 Y3.58 M03 S0 F2000
G01 Z0 F300
G01 X9.54 Y3.63 M03 S255 F150
G01 X8.25 Y3.55 M03 S0 F2000
G01 Z0 F300
G01 X8.83 Y3.58 M03 S255 F150
G01 X7.84 Y3.51 M03 S0 F2000
G01 Z0 F300
G01 X8.25 Y3.55 M03 S255 F150
G01 X7.59 Y3.5 M03 S0 F2000
G01 Z0 F300
G01 X7.84 Y3.51 M03 S255 F150
G01 X7.5 Y3.5 M03 S0 F2000
G01 Z0 F300
G01 X7.59 Y3.5 M03 S255 F150
G01 X6.75 Y3.54 M03 S0 F2000
G01 Z0 F300
G01 X7.5 Y3.5 M03 S255 F150
G01 X6.01 Y3.65 M03 S0 F2000
G01 Z0 F300
G01 X6.75 Y3.54 M03 S255 F150
G01 X4.63 Y4.09 M03 S0 F2000
G01 Z0 F300
G01 X6.01 Y3.65 M03 S255 F150
G01 X3.36 Y4.76 M03 S0 F2000
G01 Z0 F300
G01 X4.63 Y4.09 M03 S255 F150
G01 X2.28 Y5.66 M03 S0 F2000
G01 Z0 F300
G01 X3.36 Y4.76 M03 S255 F150
G01 X1.36 Y6.76 M03 S0 F2000
G01 Z0 F300
G01 X2.28 Y5.66 M03 S255 F150
G01 X0.69 Y8.03 M03 S0 F2000
G01 Z0 F300
G01 X1.36 Y6.76 M03 S255 F150
G01 X0.25 Y9.41 M03 S0 F2000
G01 Z0 F300
G01 X0.69 Y8.03 M03 S255 F150
G01 X0.14 Y10.14 M03 S0 F2000
G01 Z0 F300
G01 X0.25 Y9.41 M03 S255 F150
G01 X0.1 Y10.9 M03 S0 F2000
G01 Z0 F300
G01 X0.14 Y10.14 M03 S255 F150
G01 X0.14 Y11.66 M03 S0 F2000
G01 Z0 F300
G01 X0.1 Y10.9 M03 S255 F150
G01 X0.25 Y12.39 M03 S0 F2000
G01 Z0 F300
G01 X0.14 Y11.66 M03 S255 F150
G01 X0.69 Y13.78 M03 S0 F2000
G01 Z0 F300
G01 X0.25 Y12.39 M03 S255 F150
G01 X1.36 Y15.04 M03 S0 F2000
G01 Z0 F300
G01 X0.69 Y13.78 M03 S255 F150
G01 X2.28 Y16.14 M03 S0 F2000
G01 Z0 F300
G01 X1.36 Y15.04 M03 S255 F150
G01 X3.36 Y17.04 M03 S0 F2000
G01 Z0 F300
G01 X2.28 Y16.14 M03 S255 F150
G01 X4.63 Y17.71 M03 S0 F2000
G01 Z0 F300
G01 X3.36 Y17.04 M03 S255 F150
G01 X6.01 Y18.15 M03 S0 F2000
G01 Z0 F300
G01 X4.63 Y17.71 M03 S255 F150
G01 X6.75 Y18.26 M03 S0 F2000
G01 Z0 F300
G01 X6.01 Y18.15 M03 S255 F150
G01 X7.5 Y18.3 M03 S0 F2000
G01 Z0 F300
G01 X6.75 Y18.26 M03 S255 F150
G01 X7.59 Y18.3 M03 S0 F2000
G01 Z0 F300
G01 X7.5 Y18.3 M03 S255 F150
G01 X7.84 Y18.28 M03 S0 F2000
G01 Z0 F300
G01 X7.59 Y18.3 M03 S255 F150
G01 X8.26 Y18.25 M03 S0 F2000
G01 Z0 F300
G01 X7.84 Y18.28 M03 S255 F150
G01 X8.83 Y18.21 M03 S0 F2000
G01 Z0 F300
G01 X8.26 Y18.25 M03 S255 F150
G01 X9.54 Y18.16 M03 S0 F2000
G01 Z0 F300
G01 X8.83 Y18.21 M03 S255 F150
G01 X10.39 Y18.1 M03 S0 F2000
G01 Z0 F300
G01 X9.54 Y18.16 M03 S255 F150
G01 X11.36 Y18.04 M03 S0 F2000
G01 Z0 F300
G01 X10.39 Y18.1 M03 S255 F150
G01 X12.45 Y17.98 M03 S0 F2000
G01 Z0 F300
G01 X11.36 Y18.04 M03 S255 F150
G01 X13.65 Y17.9 M03 S0 F2000
G01 Z0 F300
G01 X12.45 Y17.98 M03 S255 F150
G01 X14.96 Y17.81 M03 S0 F2000
G01 Z0 F300
G01 X13.65 Y17.9 M03 S255 F150
G01 X16.36 Y17.73 M03 S0 F2000
G01 Z0 F300
G01 X14.96 Y17.81 M03 S255 F150
G01 X17.85 Y17.64 M03 S0 F2000
G01 Z0 F300
G01 X16.36 Y17.73 M03 S255 F150
G01 X19.41 Y17.54 M03 S0 F2000
G01 Z0 F300
G01 X17.85 Y17.64 M03 S255 F150
G01 X21.04 Y17.44 M03 S0 F2000
G01 Z0 F300
G01 X19.41 Y17.54 M03 S255 F150
G01 X24.48 Y17.25 M03 S0 F2000
G01 Z0 F300
G01 X21.04 Y17.44 M03 S255 F150
G01 X28.09 Y17.05 M03 S0 F2000
G01 Z0 F300
G01 X24.48 Y17.25 M03 S255 F150
G01 X31.81 Y16.85 M03 S0 F2000
G01 Z0 F300
G01 X28.09 Y17.05 M03 S255 F150
G01 X35.59 Y16.68 M03 S0 F2000
G01 Z0 F300
G01 X31.81 Y16.85 M03 S255 F150
G01 X39.33 Y16.51 M03 S0 F2000
G01 Z0 F300
G01 X35.59 Y16.68 M03 S255 F150
G01 X42.99 Y16.38 M03 S0 F2000
G01 Z0 F300
G01 X39.33 Y16.51 M03 S255 F150
G01 X46.5 Y16.26 M03 S0 F2000
G01 Z0 F300
G01 X42.99 Y16.38 M03 S255 F150
G01 X49.78 Y16.19 M03 S0 F2000
G01 Z0 F300
G01 X46.5 Y16.26 M03 S255 F150
G01 X51.31 Y16.16 M03 S0 F2000
G01 Z0 F300
G01 X49.78 Y16.19 M03 S255 F150
G01 X52.78 Y16.16 M03 S0 F2000
G01 Z0 F300
G01 X51.31 Y16.16 M03 S255 F150
G01 X54.21 Y16.16 M03 S0 F2000
G01 Z0 F300
G01 X52.78 Y16.16 M03 S255 F150
G01 X55.74 Y16.18 M03 S0 F2000
G01 Z0 F300
G01 X54.21 Y16.16 M03 S255 F150
G01 X58.99 Y16.24 M03 S0 F2000
G01 Z0 F300
G01 X55.74 Y16.18 M03 S255 F150
G01 X62.45 Y16.33 M03 S0 F2000
G01 Z0 F300
G01 X58.99 Y16.24 M03 S255 F150
G01 X66.06 Y16.45 M03 S0 F2000
G01 Z0 F300
G01 X62.45 Y16.33 M03 S255 F150
G01 X69.76 Y16.6 M03 S0 F2000
G01 Z0 F300
G01 X66.06 Y16.45 M03 S255 F150
G01 X73.49 Y16.76 M03 S0 F2000
G01 Z0 F300
G01 X69.76 Y16.6 M03 S255 F150
G01 X77.16 Y16.93 M03 S0 F2000
G01 Z0 F300
G01 X73.49 Y16.76 M03 S255 F150
G01 X80.74 Y17.11 M03 S0 F2000
G01 Z0 F300
G01 X77.16 Y16.93 M03 S255 F150
G01 X84.13 Y17.29 M03 S0 F2000
G01 Z0 F300
G01 X80.74 Y17.11 M03 S255 F150
G01 X85.74 Y17.38 M03 S0 F2000
G01 Z0 F300
G01 X84.13 Y17.29 M03 S255 F150
G01 X87.29 Y17.46 M03 S0 F2000
G01 Z0 F300
G01 X85.74 Y17.38 M03 S255 F150
G01 X88.75 Y17.55 M03 S0 F2000
G01 Z0 F300
G01 X87.29 Y17.46 M03 S255 F150
G01 X90.14 Y17.63 M03 S0 F2000
G01 Z0 F300
G01 X88.75 Y17.55 M03 S255 F150
G01 X91.43 Y17.7 M03 S0 F2000
G01 Z0 F300
G01 X90.14 Y17.63 M03 S255 F150
G01 X92.61 Y17.78 M03 S0 F2000
G01 Z0 F300
G01 X91.43 Y17.7 M03 S255 F150
G01 X93.69 Y17.84 M03 S0 F2000
G01 Z0 F300
G01 X92.61 Y17.78 M03 S255 F150
G01 X94.65 Y17.9 M03 S0 F2000
G01 Z0 F300
G01 X93.69 Y17.84 M03 S255 F150
G01 X95.49 Y17.95 M03 S0 F2000
G01 Z0 F300
G01 X94.65 Y17.9 M03 S255 F150
G01 X96.19 Y17.99 M03 S0 F2000
G01 Z0 F300
G01 X95.49 Y17.95 M03 S255 F150
G01 X96.75 Y18.03 M03 S0 F2000
G01 Z0 F300
G01 X96.19 Y17.99 M03 S255 F150
G01 X97.16 Y18.05 M03 S0 F2000
G01 Z0 F300
G01 X96.75 Y18.03 M03 S255 F150
G01 X97.41 Y18.08 M03 S0 F2000
G01 Z0 F300
G01 X97.16 Y18.05 M03 S255 F150
G01 X97.5 Y18.08 M03 S0 F2000
G01 Z0 F300
G01 X97.41 Y18.08 M03 S255 F150
G01 X98.99 Y17.94 M03 S0 F2000
G01 Z0 F300
G01 X97.5 Y18.08 M03 S255 F150
G01 X100.38 Y17.53 M03 S0 F2000
G01 Z0 F300
G01 X98.99 Y17.94 M03 S255 F150
G01 X101.64 Y16.89 M03 S0 F2000
G01 Z0 F300
G01 X100.38 Y17.53 M03 S255 F150
G01 X102.74 Y16.03 M03 S0 F2000
G01 Z0 F300
G01 X101.64 Y16.89 M03 S255 F150
G01 X103.64 Y14.96 M03 S0 F2000
G01 Z0 F300
G01 X102.74 Y16.03 M03 S255 F150
G01 X104.31 Y13.75 M03 S0 F2000
G01 Z0 F300
G01 X103.64 Y14.96 M03 S255 F150
G01 X104.75 Y12.39 M03 S0 F2000
G01 Z0 F300
G01 X104.31 Y13.75 M03 S255 F150
G01 X104.86 Y11.65 M03 S0 F2000
G01 Z0 F300
G01 X104.75 Y12.39 M03 S255 F150
G01 X104.9 Y10.9 M03 S0 F2000
G01 Z0 F300
G01 X104.86 Y11.65 M03 S255 F150
G01 X104.9 Y10.9 M03 S0 F2000
G01 Z0 F300
G01 X104.9 Y10.9 M03 S255 F150
G01 X120.51 Y9.28 M03 S0 F2000
G01 Z0 F300
G01 X120.65 Y10 M03 S255 F150
G01 X120.1 Y8.66 M03 S0 F2000
G01 Z0 F300
G01 X120.51 Y9.28 M03 S255 F150
G01 X119.49 Y8.25 M03 S0 F2000
G01 Z0 F300
G01 X120.1 Y8.66 M03 S255 F150
G01 X118.75 Y8.1 M03 S0 F2000
G01 Z0 F300
G01 X119.49 Y8.25 M03 S255 F150
G01 X118.03 Y8.25 M03 S0 F2000
G01 Z0 F300
G01 X118.75 Y8.1 M03 S255 F150
G01 X117.41 Y8.66 M03 S0 F2000
G01 Z0 F300
G01 X118.03 Y8.25 M03 S255 F150
G01 X117 Y9.28 M03 S0 F2000
G01 Z0 F300
G01 X117.41 Y8.66 M03 S255 F150
G01 X116.85 Y10 M03 S0 F2000
G01 Z0 F300
G01 X117 Y9.28 M03 S255 F150
G01 X116.89 Y10.39 M03 S0 F2000
G01 Z0 F300
G01 X116.85 Y10 M03 S255 F150
G01 X117 Y10.74 M03 S0 F2000
G01 Z0 F300
G01 X116.89 Y10.39 M03 S255 F150
G01 X117.41 Y11.35 M03 S0 F2000
G01 Z0 F300
G01 X117 Y10.74 M03 S255 F150
G01 X118.01 Y11.75 M03 S0 F2000
G01 Z0 F300
G01 X117.41 Y11.35 M03 S255 F150
G01 X118.36 Y11.86 M03 S0 F2000
G01 Z0 F300
G01 X118.01 Y11.75 M03 S255 F150
G01 X118.75 Y11.9 M03 S0 F2000
G01 Z0 F300
G01 X118.36 Y11.86 M03 S255 F150
G01 X119.14 Y11.86 M03 S0 F2000
G01 Z0 F300
G01 X118.75 Y11.9 M03 S255 F150
G01 X119.49 Y11.75 M03 S0 F2000
G01 Z0 F300
G01 X119.14 Y11.86 M03 S255 F150
G01 X120.1 Y11.35 M03 S0 F2000
G01 Z0 F300
G01 X119.49 Y11.75 M03 S255 F150
G01 X120.5 Y10.74 M03 S0 F2000
G01 Z0 F300
G01 X120.1 Y11.35 M03 S255 F150
G01 X120.61 Y10.39 M03 S0 F2000
G01 Z0 F300
G01 X120.5 Y10.74 M03 S255 F150
G01 X120.65 Y10 M03 S0 F2000
G01 Z0 F300
G01 X120.61 Y10.39 M03 S255 F150
G01 X120.65 Y10 M03 S0 F2000
G01 Z0 F300
G01 X120.65 Y10 M03 S255 F150
G01 X134.13 Y0.1 M03 S0 F2000
G01 Z0 F300
G01 X134.13 Y19.9 M03 S255 F150
G01 Z0 F300
G01 X129.63 Y19.9 M03 S255 F150
G01 Z0 F300
G01 X129.63 Y17.28 M03 S255 F150
G01 X129.48 Y17.4 M03 S0 F2000
G01 Z0 F300
G01 X129.64 Y17.29 M03 S255 F150
G01 X129.43 Y17.38 M03 S0 F2000
G01 Z0 F300
G01 X129.48 Y17.4 M03 S255 F150
G01 X129.29 Y17.31 M03 S0 F2000
G01 Z0 F300
G01 X129.43 Y17.38 M03 S255 F150
G01 X129.08 Y17.23 M03 S0 F2000
G01 Z0 F300
G01 X129.29 Y17.31 M03 S255 F150
G01 X128.8 Y17.1 M03 S0 F2000
G01 Z0 F300
G01 X129.08 Y17.23 M03 S255 F150
G01 X128.06 Y16.8 M03 S0 F2000
G01 Z0 F300
G01 X128.8 Y17.1 M03 S255 F150
G01 X127.15 Y16.45 M03 S0 F2000
G01 Z0 F300
G01 X128.06 Y16.8 M03 S255 F150
G01 X126.14 Y16.1 M03 S0 F2000
G01 Z0 F300
G01 X127.15 Y16.45 M03 S255 F150
G01 X125.11 Y15.8 M03 S0 F2000
G01 Z0 F300
G01 X126.14 Y16.1 M03 S255 F150
G01 X124.13 Y15.59 M03 S0 F2000
G01 Z0 F300
G01 X125.11 Y15.8 M03 S255 F150
G01 X123.26 Y15.5 M03 S0 F2000
G01 Z0 F300
G01 X124.13 Y15.59 M03 S255 F150
G01 X122.41 Y15.59 M03 S0 F2000
G01 Z0 F300
G01 X123.26 Y15.5 M03 S255 F150
G01 X121.44 Y15.8 M03 S0 F2000
G01 Z0 F300
G01 X122.41 Y15.59 M03 S255 F150
G01 X120.43 Y16.11 M03 S0 F2000
G01 Z0 F300
G01 X121.44 Y15.8 M03 S255 F150
G01 X119.44 Y16.45 M03 S0 F2000
G01 Z0 F300
G01 X120.43 Y16.11 M03 S255 F150
G01 X118.54 Y16.8 M03 S0 F2000
G01 Z0 F300
G01 X119.44 Y16.45 M03 S255 F150
G01 X117.81 Y17.1 M03 S0 F2000
G01 Z0 F300
G01 X118.54 Y16.8 M03 S255 F150
G01 X117.53 Y17.23 M03 S0 F2000
G01 Z0 F300
G01 X117.81 Y17.1 M03 S255 F150
G01 X117.31 Y17.33 M03 S0 F2000
G01 Z0 F300
G01 X117.53 Y17.23 M03 S255 F150
G01 X117.19 Y17.38 M03 S0 F2000
G01 Z0 F300
G01 X117.31 Y17.33 M03 S255 F150
G01 X117.14 Y17.4 M03 S0 F2000
G01 Z0 F300
G01 X117.19 Y17.38 M03 S255 F150
G01 X116.98 Y17.36 M03 S0 F2000
G01 Z0 F300
G01 X117.14 Y17.4 M03 S255 F150
G01 X116.73 Y17.24 M03 S0 F2000
G01 Z0 F300
G01 X116.98 Y17.36 M03 S255 F150
G01 X116.4 Y17.05 M03 S0 F2000
G01 Z0 F300
G01 X116.73 Y17.24 M03 S255 F150
G01 X116 Y16.78 M03 S0 F2000
G01 Z0 F300
G01 X116.4 Y17.05 M03 S255 F150
G01 X115.06 Y16.06 M03 S0 F2000
G01 Z0 F300
G01 X116 Y16.78 M03 S255 F150
G01 X114.04 Y15.11 M03 S0 F2000
G01 Z0 F300
G01 X115.06 Y16.06 M03 S255 F150
G01 X113.04 Y13.96 M03 S0 F2000
G01 Z0 F300
G01 X114.04 Y15.11 M03 S255 F150
G01 X112.19 Y12.68 M03 S0 F2000
G01 Z0 F300
G01 X113.04 Y13.96 M03 S255 F150
G01 X111.85 Y11.98 M03 S0 F2000
G01 Z0 F300
G01 X112.19 Y12.68 M03 S255 F150
G01 X111.59 Y11.25 M03 S0 F2000
G01 Z0 F300
G01 X111.85 Y11.98 M03 S255 F150
G01 X111.43 Y10.51 M03 S0 F2000
G01 Z0 F300
G01 X111.59 Y11.25 M03 S255 F150
G01 X111.36 Y9.75 M03 S0 F2000
G01 Z0 F300
G01 X111.43 Y10.51 M03 S255 F150
G01 X111.43 Y9 M03 S0 F2000
G01 Z0 F300
G01 X111.36 Y9.75 M03 S255 F150
G01 X111.59 Y8.28 M03 S0 F2000
G01 Z0 F300
G01 X111.43 Y9 M03 S255 F150
G01 X111.85 Y7.6 M03 S0 F2000
G01 Z0 F300
G01 X111.59 Y8.28 M03 S255 F150
G01 X112.19 Y6.95 M03 S0 F2000
G01 Z0 F300
G01 X111.85 Y7.6 M03 S255 F150
G01 X113.04 Y5.76 M03 S0 F2000
G01 Z0 F300
G01 X112.19 Y6.95 M03 S255 F150
G01 X114.04 Y4.76 M03 S0 F2000
G01 Z0 F300
G01 X113.04 Y5.76 M03 S255 F150
G01 X115.06 Y3.95 M03 S0 F2000
G01 Z0 F300
G01 X114.04 Y4.76 M03 S255 F150
G01 X116 Y3.34 M03 S0 F2000
G01 Z0 F300
G01 X115.06 Y3.95 M03 S255 F150
G01 X116.4 Y3.13 M03 S0 F2000
G01 Z0 F300
G01 X116 Y3.34 M03 S255 F150
G01 X116.73 Y2.96 M03 S0 F2000
G01 Z0 F300
G01 X116.4 Y3.13 M03 S255 F150
G01 X116.98 Y2.88 M03 S0 F2000
G01 Z0 F300
G01 X116.73 Y2.96 M03 S255 F150
G01 X117.14 Y2.84 M03 S0 F2000
G01 Z0 F300
G01 X116.98 Y2.88 M03 S255 F150
G01 X117.19 Y2.86 M03 S0 F2000
G01 Z0 F300
G01 X117.14 Y2.84 M03 S255 F150
G01 X117.31 Y2.93 M03 S0 F2000
G01 Z0 F300
G01 X117.19 Y2.86 M03 S255 F150
G01 X117.53 Y3.01 M03 S0 F2000
G01 Z0 F300
G01 X117.31 Y2.93 M03 S255 F150
G01 X117.81 Y3.14 M03 S0 F2000
G01 Z0 F300
G01 X117.53 Y3.01 M03 S255 F150
G01 X118.54 Y3.45 M03 S0 F2000
G01 Z0 F300
G01 X117.81 Y3.14 M03 S255 F150
G01 X119.44 Y3.8 M03 S0 F2000
G01 Z0 F300
G01 X118.54 Y3.45 M03 S255 F150
G01 X120.43 Y4.15 M03 S0 F2000
G01 Z0 F300
G01 X119.44 Y3.8 M03 S255 F150
G01 X121.45 Y4.46 M03 S0 F2000
G01 Z0 F300
G01 X120.43 Y4.15 M03 S255 F150
G01 X122.41 Y4.66 M03 S0 F2000
G01 Z0 F300
G01 X121.45 Y4.46 M03 S255 F150
G01 X123.26 Y4.74 M03 S0 F2000
G01 Z0 F300
G01 X122.41 Y4.66 M03 S255 F150
G01 X124.13 Y4.64 M03 S0 F2000
G01 Z0 F300
G01 X123.26 Y4.74 M03 S255 F150
G01 X125.11 Y4.39 M03 S0 F2000
G01 Z0 F300
G01 X124.13 Y4.64 M03 S255 F150
G01 X126.14 Y4.05 M03 S0 F2000
G01 Z0 F300
G01 X125.11 Y4.39 M03 S255 F150
G01 X127.15 Y3.65 M03 S0 F2000
G01 Z0 F300
G01 X126.14 Y4.05 M03 S255 F150
G01 X128.06 Y3.26 M03 S0 F2000
G01 Z0 F300
G01 X127.15 Y3.65 M03 S255 F150
G01 X128.8 Y2.93 M03 S0 F2000
G01 Z0 F300
G01 X128.06 Y3.26 M03 S255 F150
G01 X129.08 Y2.8 M03 S0 F2000
G01 Z0 F300
G01 X128.8 Y2.93 M03 S255 F150
G01 X129.29 Y2.69 M03 S0 F2000
G01 Z0 F300
G01 X129.08 Y2.8 M03 S255 F150
G01 X129.43 Y2.63 M03 S0 F2000
G01 Z0 F300
G01 X129.29 Y2.69 M03 S255 F150
G01 X129.48 Y2.6 M03 S0 F2000
G01 Z0 F300
G01 X129.43 Y2.63 M03 S255 F150
G01 X129.64 Y2.73 M03 S0 F2000
G01 Z0 F300
G01 X129.48 Y2.6 M03 S255 F150
G01 X129.63 Y2.72 M03 S0 F2000
G01 Z0 F300
G01 X129.63 Y0.1 M03 S255 F150
G01 Z0 F300
G01 X134.13 Y0.1 M03 S255 F150
G00 M03 S0
M05
G01 X5.39 Y11.33 M03 S0 F2000
M03 S0
G01 Z0.5 F300
G01 X5.35 Y10.9 M03 S255 F150
G01 X5.53 Y11.73 M03 S0 F2000
G01 Z0.5 F300
G01 X5.39 Y11.33 M03 S255 F150
G01 X5.99 Y12.43 M03 S0 F2000
G01 Z0.5 F300
G01 X5.53 Y11.73 M03 S255 F150
G01 X6.69 Y12.89 M03 S0 F2000
G01 Z0.5 F300
G01 X5.99 Y12.43 M03 S255 F150
G01 X7.09 Y13.01 M03 S0 F2000
G01 Z0.5 F300
G01 X6.69 Y12.89 M03 S255 F150
G01 X7.5 Y13.05 M03 S0 F2000
G01 Z0.5 F300
G01 X7.09 Y13.01 M03 S255 F150
G01 X7.93 Y13.01 M03 S0 F2000
G01 Z0.5 F300
G01 X7.5 Y13.05 M03 S255 F150
G01 X8.33 Y12.89 M03 S0 F2000
G01 Z0.5 F300
G01 X7.93 Y13.01 M03 S255 F150
G01 X9.03 Y12.43 M03 S0 F2000
G01 Z0.5 F300
G01 X8.33 Y12.89 M03 S255 F150
G01 X9.49 Y11.73 M03 S0 F2000
G01 Z0.5 F300
G01 X9.03 Y12.43 M03 S255 F150
G01 X9.61 Y11.33 M03 S0 F2000
G01 Z0.5 F300
G01 X9.49 Y11.73 M03 S255 F150
G01 X9.65 Y10.9 M03 S0 F2000
G01 Z0.5 F300
G01 X9.61 Y11.33 M03 S255 F150
G01 X9.61 Y10.46 M03 S0 F2000
G01 Z0.5 F300
G01 X9.65 Y10.9 M03 S255 F150
G01 X9.47 Y10.06 M03 S0 F2000
G01 Z0.5 F300
G01 X9.61 Y10.46 M03 S255 F150
G01 X9.03 Y9.38 M03 S0 F2000
G01 Z0.5 F300
G01 X9.47 Y10.06 M03 S255 F150
G01 X8.34 Y8.92 M03 S0 F2000
G01 Z0.5 F300
G01 X9.03 Y9.38 M03 S255 F150
G01 X7.94 Y8.79 M03 S0 F2000
G01 Z0.5 F300
G01 X8.34 Y8.92 M03 S255 F150
G01 X7.5 Y8.75 M03 S0 F2000
G01 Z0.5 F300
G01 X7.94 Y8.79 M03 S255 F150
G01 X7.06 Y8.79 M03 S0 F2000
G01 Z0.5 F300
G01 X7.5 Y8.75 M03 S255 F150
G01 X6.66 Y8.92 M03 S0 F2000
G01 Z0.5 F300
G01 X7.06 Y8.79 M03 S255 F150
G01 X5.98 Y9.38 M03 S0 F2000
G01 Z0.5 F300
G01 X6.66 Y8.92 M03 S255 F150
G01 X5.53 Y10.06 M03 S0 F2000
G01 Z0.5 F300
G01 X5.98 Y9.38 M03 S255 F150
G01 X5.39 Y10.46 M03 S0 F2000
G01 Z0.5 F300
G01 X5.53 Y10.06 M03 S255 F150
G01 X5.35 Y10.9 M03 S0 F2000
G01 Z0.5 F300
G01 X5.39 Y10.46 M03 S255 F150
G01 X5.35 Y10.9 M03 S0 F2000
G01 Z0.5 F300
G01 X5.35 Y10.9 M03 S255 F150
G01 X95.75 Y11.63 M03 S0 F2000
G01 Z0.5 F300
G01 X95.6 Y10.9 M03 S255 F150
G01 X96.16 Y12.25 M03 S0 F2000
G01 Z0.5 F300
G01 X95.75 Y11.63 M03 S255 F150
G01 X96.77 Y12.66 M03 S0 F2000
G01 Z0.5 F300
G01 X96.16 Y12.25 M03 S255 F150
G01 X97.5 Y12.8 M03 S0 F2000
G01 Z0.5 F300
G01 X96.77 Y12.66 M03 S255 F150
G01 X98.24 Y12.66 M03 S0 F2000
G01 Z0.5 F300
G01 X97.5 Y12.8 M03 S255 F150
G01 X98.85 Y12.25 M03 S0 F2000
G01 Z0.5 F300
G01 X98.24 Y12.66 M03 S255 F150
G01 X99.26 Y11.63 M03 S0 F2000
G01 Z0.5 F300
G01 X98.85 Y12.25 M03 S255 F150
G01 X99.4 Y10.9 M03 S0 F2000
G01 Z0.5 F300
G01 X99.26 Y11.63 M03 S255 F150
G01 X99.36 Y10.51 M03 S0 F2000
G01 Z0.5 F300
G01 X99.4 Y10.9 M03 S255 F150
G01 X99.25 Y10.16 M03 S0 F2000
G01 Z0.5 F300
G01 X99.36 Y10.51 M03 S255 F150
G01 X98.85 Y9.56 M03 S0 F2000
G01 Z0.5 F300
G01 X99.25 Y10.16 M03 S255 F150
G01 X98.24 Y9.15 M03 S0 F2000
G01 Z0.5 F300
G01 X98.85 Y9.56 M03 S255 F150
G01 X97.89 Y9.04 M03 S0 F2000
G01 Z0.5 F300
G01 X98.24 Y9.15 M03 S255 F150
G01 X97.5 Y9 M03 S0 F2000
G01 Z0.5 F300
G01 X97.89 Y9.04 M03 S255 F150
G01 X97.13 Y9.04 M03 S0 F2000
G01 Z0.5 F300
G01 X97.5 Y9 M03 S255 F150
G01 X96.76 Y9.15 M03 S0 F2000
G01 Z0.5 F300
G01 X97.13 Y9.04 M03 S255 F150
G01 X96.16 Y9.56 M03 S0 F2000
G01 Z0.5 F300
G01 X96.76 Y9.15 M03 S255 F150
G01 X95.75 Y10.16 M03 S0 F2000
G01 Z0.5 F300
G01 X96.16 Y9.56 M03 S255 F150
G01 X95.64 Y10.51 M03 S0 F2000
G01 Z0.5 F300
G01 X95.75 Y10.16 M03 S255 F150
G01 X95.6 Y10.9 M03 S0 F2000
G01 Z0.5 F300
G01 X95.64 Y10.51 M03 S255 F150
G01 X95.6 Y10.9 M03 S0 F2000
G01 Z0.5 F300
G01 X95.6 Y10.9 M03 S255 F150
G01 X104.86 Y10.14 M03 S0 F2000
G01 Z0.5 F300
G01 X104.9 Y10.9 M03 S255 F150
G01 X104.75 Y9.41 M03 S0 F2000
G01 Z0.5 F300
G01 X104.86 Y10.14 M03 S255 F150
G01 X104.31 Y8.03 M03 S0 F2000
G01 Z0.5 F300
G01 X104.75 Y9.41 M03 S255 F150
G01 X103.64 Y6.76 M03 S0 F2000
G01 Z0.5 F300
G01 X104.31 Y8.03 M03 S255 F150
G01 X102.74 Y5.66 M03 S0 F2000
G01 Z0.5 F300
G01 X103.64 Y6.76 M03 S255 F150
G01 X101.64 Y4.76 M03 S0 F2000
G01 Z0.5 F300
G01 X102.74 Y5.66 M03 S255 F150
G01 X100.38 Y4.09 M03 S0 F2000
G01 Z0.5 F300
G01 X101.64 Y4.76 M03 S255 F150
G01 X98.99 Y3.65 M03 S0 F2000
G01 Z0.5 F300
G01 X100.38 Y4.09 M03 S255 F150
G01 X98.26 Y3.54 M03 S0 F2000
G01 Z0.5 F300
G01 X98.99 Y3.65 M03 S255 F150
G01 X97.5 Y3.5 M03 S0 F2000
G01 Z0.5 F300
G01 X98.26 Y3.54 M03 S255 F150
G01 X97.41 Y3.5 M03 S0 F2000
G01 Z0.5 F300
G01 X97.5 Y3.5 M03 S255 F150
G01 X97.16 Y3.53 M03 S0 F2000
G01 Z0.5 F300
G01 X97.41 Y3.5 M03 S255 F150
G01 X96.75 Y3.55 M03 S0 F2000
G01 Z0.5 F300
G01 X97.16 Y3.53 M03 S255 F150
G01 X96.19 Y3.59 M03 S0 F2000
G01 Z0.5 F300
G01 X96.75 Y3.55 M03 S255 F150
G01 X95.49 Y3.63 M03 S0 F2000
G01 Z0.5 F300
G01 X96.19 Y3.59 M03 S255 F150
G01 X94.65 Y3.68 M03 S0 F2000
G01 Z0.5 F300
G01 X95.49 Y3.63 M03 S255 F150
G01 X93.69 Y3.74 M03 S0 F2000
G01 Z0.5 F300
G01 X94.65 Y3.68 M03 S255 F150
G01 X92.61 Y3.8 M03 S0 F2000
G01 Z0.5 F300
G01 X93.69 Y3.74 M03 S255 F150
G01 X91.43 Y3.86 M03 S0 F2000
G01 Z0.5 F300
G01 X92.61 Y3.8 M03 S255 F150
G01 X90.14 Y3.94 M03 S0 F2000
G01 Z0.5 F300
G01 X91.43 Y3.86 M03 S255 F150
G01 X88.75 Y4.03 M03 S0 F2000
G01 Z0.5 F300
G01 X90.14 Y3.94 M03 S255 F150
G01 X87.29 Y4.1 M03 S0 F2000
G01 Z0.5 F300
G01 X88.75 Y4.03 M03 S255 F150
G01 X85.74 Y4.19 M03 S0 F2000
G01 Z0.5 F300
G01 X87.29 Y4.1 M03 S255 F150
G01 X84.13 Y4.28 M03 S0 F2000
G01 Z0.5 F300
G01 X85.74 Y4.19 M03 S255 F150
G01 X80.74 Y4.45 M03 S0 F2000
G01 Z0.5 F300
G01 X84.13 Y4.28 M03 S255 F150
G01 X77.16 Y4.63 M03 S0 F2000
G01 Z0.5 F300
G01 X80.74 Y4.45 M03 S255 F150
G01 X73.49 Y4.8 M03 S0 F2000
G01 Z0.5 F300
G01 X77.16 Y4.63 M03 S255 F150
G01 X69.76 Y4.96 M03 S0 F2000
G01 Z0.5 F300
G01 X73.49 Y4.8 M03 S255 F150
G01 X66.06 Y5.1 M03 S0 F2000
G01 Z0.5 F300
G01 X69.76 Y4.96 M03 S255 F150
G01 X62.45 Y5.23 M03 S0 F2000
G01 Z0.5 F300
G01 X66.06 Y5.1 M03 S255 F150
G01 X58.99 Y5.31 M03 S0 F2000
G01 Z0.5 F300
G01 X62.45 Y5.23 M03 S255 F150
G01 X55.75 Y5.38 M03 S0 F2000
G01 Z0.5 F300
G01 X58.99 Y5.31 M03 S255 F150
G01 X54.23 Y5.4 M03 S0 F2000
G01 Z0.5 F300
G01 X55.75 Y5.38 M03 S255 F150
G01 X52.79 Y5.4 M03 S0 F2000
G01 Z0.5 F300
G01 X54.23 Y5.4 M03 S255 F150
G01 X51.33 Y5.4 M03 S0 F2000
G01 Z0.5 F300
G01 X52.79 Y5.4 M03 S255 F150
G01 X49.79 Y5.38 M03 S0 F2000
G01 Z0.5 F300
G01 X51.33 Y5.4 M03 S255 F150
G01 X46.5 Y5.33 M03 S0 F2000
G01 Z0.5 F300
G01 X49.79 Y5.38 M03 S255 F150
G01 X43 Y5.23 M03 S0 F2000
G01 Z0.5 F300
G01 X46.5 Y5.33 M03 S255 F150
G01 X39.34 Y5.11 M03 S0 F2000
G01 Z0.5 F300
G01 X43 Y5.23 M03 S255 F150
G01 X35.59 Y4.96 M03 S0 F2000
G01 Z0.5 F300
G01 X39.34 Y5.11 M03 S255 F150
G01 X31.81 Y4.8 M03 S0 F2000
G01 Z0.5 F300
G01 X35.59 Y4.96 M03 S255 F150
G01 X28.09 Y4.64 M03 S0 F2000
G01 Z0.5 F300
G01 X31.81 Y4.8 M03 S255 F150
G01 X24.48 Y4.45 M03 S0 F2000
G01 Z0.5 F300
G01 X28.09 Y4.64 M03 S255 F150
G01 X21.04 Y4.28 M03 S0 F2000
G01 Z0.5 F300
G01 X24.48 Y4.45 M03 S255 F150
G01 X19.4 Y4.19 M03 S0 F2000
G01 Z0.5 F300
G01 X21.04 Y4.28 M03 S255 F150
G01 X17.84 Y4.1 M03 S0 F2000
G01 Z0.5 F300
G01 X19.4 Y4.19 M03 S255 F150
G01 X16.36 Y4.03 M03 S0 F2000
G01 Z0.5 F300
G01 X17.84 Y4.1 M03 S255 F150
G01 X14.96 Y3.94 M03 S0 F2000
G01 Z0.5 F300
G01 X16.36 Y4.03 M03 S255 F150
G01 X13.65 Y3.86 M03 S0 F2000
G01 Z0.5 F300
G01 X14.96 Y3.94 M03 S255 F150
G01 X12.45 Y3.8 M03 S0 F2000
G01 Z0.5 F300
G01 X13.65 Y3.86 M03 S255 F150
G01 X11.35 Y3.74 M03 S0 F2000
G01 Z0.5 F300
G01 X12.45 Y3.8 M03 S255 F150
G01 X10.39 Y3.68 M03 S0 F2000
G01 Z0.5 F300
G01 X11.35 Y3.74 M03 S255 F150
G01 X9.54 Y3.63 M03 S0 F2000
G01 Z0.5 F300
G01 X10.39 Y3.68 M03 S255 F150
G01 X8.83 Y3.58 M03 S0 F2000
G01 Z0.5 F300
G01 X9.54 Y3.63 M03 S255 F150
G01 X8.25 Y3.55 M03 S0 F2000
G01 Z0.5 F300
G01 X8.83 Y3.58 M03 S255 F150
G01 X7.84 Y3.51 M03 S0 F2000
G01 Z0.5 F300
G01 X8.25 Y3.55 M03 S255 F150
G01 X7.59 Y3.5 M03 S0 F2000
G01 Z0.5 F300
G01 X7.84 Y3.51 M03 S255 F150
G01 X7.5 Y3.5 M03 S0 F2000
G01 Z0.5 F300
G01 X7.59 Y3.5 M03 S255 F150
G01 X6.75 Y3.54 M03 S0 F2000
G01 Z0.5 F300
G01 X7.5 Y3.5 M03 S255 F150
G01 X6.01 Y3.65 M03 S0 F2000
G01 Z0.5 F300
G01 X6.75 Y3.54 M03 S255 F150
G01 X4.63 Y4.09 M03 S0 F2000
G01 Z0.5 F300
G01 X6.01 Y3.65 M03 S255 F150
G01 X3.36 Y4.76 M03 S0 F2000
G01 Z0.5 F300
G01 X4.63 Y4.09 M03 S255 F150
G01 X2.28 Y5.66 M03 S0 F2000
G01 Z0.5 F300
G01 X3.36 Y4.76 M03 S255 F150
G01 X1.36 Y6.76 M03 S0 F2000
G01 Z0.5 F300
G01 X2.28 Y5.66 M03 S255 F150
G01 X0.69 Y8.03 M03 S0 F2000
G01 Z0.5 F300
G01 X1.36 Y6.76 M03 S255 F150
G01 X0.25 Y9.41 M03 S0 F2000
G01 Z0.5 F300
G01 X0.69 Y8.03 M03 S255 F150
G01 X0.14 Y10.14 M03 S0 F2000
G01 Z0.5 F300
G01 X0.25 Y9.41 M03 S255 F150
G01 X0.1 Y10.9 M03 S0 F2000
G01 Z0.5 F300
G01 X0.14 Y10.14 M03 S255 F150
G01 X0.14 Y11.66 M03 S0 F2000
G01 Z0.5 F300
G01 X0.1 Y10.9 M03 S255 F150
G01 X0.25 Y12.39 M03 S0 F2000
G01 Z0.5 F300
G01 X0.14 Y11.66 M03 S255 F150
G01 X0.69 Y13.78 M03 S0 F2000
G01 Z0.5 F300
G01 X0.25 Y12.39 M03 S255 F150
G01 X1.36 Y15.04 M03 S0 F2000
G01 Z0.5 F300
G01 X0.69 Y13.78 M03 S255 F150
G01 X2.28 Y16.14 M03 S0 F2000
G01 Z0.5 F300
G01 X1.36 Y15.04 M03 S255 F150
G01 X3.36 Y17.04 M03 S0 F2000
G01 Z0.5 F300
G01 X2.28 Y16.14 M03 S255 F150
G01 X4.63 Y17.71 M03 S0 F2000
G01 Z0.5 F300
G01 X3.36 Y17.04 M03 S255 F150
G01 X6.01 Y18.15 M03 S0 F2000
G01 Z0.5 F300
G01 X4.63 Y17.71 M03 S255 F150
G01 X6.75 Y18.26 M03 S0 F2000
G01 Z0.5 F300
G01 X6.01 Y18.15 M03 S255 F150
G01 X7.5 Y18.3 M03 S0 F2000
G01 Z0.5 F300
G01 X6.75 Y18.26 M03 S255 F150
G01 X7.59 Y18.3 M03 S0 F2000
G01 Z0.5 F300
G01 X7.5 Y18.3 M03 S255 F150
G01 X7.84 Y18.28 M03 S0 F2000
G01 Z0.5 F300
G01 X7.59 Y18.3 M03 S255 F150
G01 X8.26 Y18.25 M03 S0 F2000
G01 Z0.5 F300
G01 X7.84 Y18.28 M03 S255 F150
G01 X8.83 Y18.21 M03 S0 F2000
G01 Z0.5 F300
G01 X8.26 Y18.25 M03 S255 F150
G01 X9.54 Y18.16 M03 S0 F2000
G01 Z0.5 F300
G01 X8.83 Y18.21 M03 S255 F150
G01 X10.39 Y18.1 M03 S0 F2000
G01 Z0.5 F300
G01 X9.54 Y18.16 M03 S255 F150
G01 X11.36 Y18.04 M03 S0 F2000
G01 Z0.5 F300
G01 X10.39 Y18.1 M03 S255 F150
G01 X12.45 Y17.98 M03 S0 F2000
G01 Z0.5 F300
G01 X11.36 Y18.04 M03 S255 F150
G01 X13.65 Y17.9 M03 S0 F2000
G01 Z0.5 F300
G01 X12.45 Y17.98 M03 S255 F150
G01 X14.96 Y17.81 M03 S0 F2000
G01 Z0.5 F300
G01 X13.65 Y17.9 M03 S255 F150
G01 X16.36 Y17.73 M03 S0 F2000
G01 Z0.5 F300
G01 X14.96 Y17.81 M03 S255 F150
G01 X17.85 Y17.64 M03 S0 F2000
G01 Z0.5 F300
G01 X16.36 Y17.73 M03 S255 F150
G01 X19.41 Y17.54 M03 S0 F2000
G01 Z0.5 F300
G01 X17.85 Y17.64 M03 S255 F150
G01 X21.04 Y17.44 M03 S0 F2000
G01 Z0.5 F300
G01 X19.41 Y17.54 M03 S255 F150
G01 X24.48 Y17.25 M03 S0 F2000
G01 Z0.5 F300
G01 X21.04 Y17.44 M03 S255 F150
G01 X28.09 Y17.05 M03 S0 F2000
G01 Z0.5 F300
G01 X24.48 Y17.25 M03 S255 F150
G01 X31.81 Y16.85 M03 S0 F2000
G01 Z0.5 F300
G01 X28.09 Y17.05 M03 S255 F150
G01 X35.59 Y16.68 M03 S0 F2000
G01 Z0.5 F300
G01 X31.81 Y16.85 M03 S255 F150
G01 X39.33 Y16.51 M03 S0 F2000
G01 Z0.5 F300
G01 X35.59 Y16.68 M03 S255 F150
G01 X42.99 Y16.38 M03 S0 F2000
G01 Z0.5 F300
G01 X39.33 Y16.51 M03 S255 F150
G01 X46.5 Y16.26 M03 S0 F2000
G01 Z0.5 F300
G01 X42.99 Y16.38 M03 S255 F150
G01 X49.78 Y16.19 M03 S0 F2000
G01 Z0.5 F300
G01 X46.5 Y16.26 M03 S255 F150
G01 X51.31 Y16.16 M03 S0 F2000
G01 Z0.5 F300
G01 X49.78 Y16.19 M03 S255 F150
G01 X52.78 Y16.16 M03 S0 F2000
G01 Z0.5 F300
G01 X51.31 Y16.16 M03 S255 F150
G01 X54.21 Y16.16 M03 S0 F2000
G01 Z0.5 F300
G01 X52.78 Y16.16 M03 S255 F150
G01 X55.74 Y16.18 M03 S0 F2000
G01 Z0.5 F300
G01 X54.21 Y16.16 M03 S255 F150
G01 X58.99 Y16.24 M03 S0 F2000
G01 Z0.5 F300
G01 X55.74 Y16.18 M03 S255 F150
G01 X62.45 Y16.33 M03 S0 F2000
G01 Z0.5 F300
G01 X58.99 Y16.24 M03 S255 F150
G01 X66.06 Y16.45 M03 S0 F2000
G01 Z0.5 F300
G01 X62.45 Y16.33 M03 S255 F150
G01 X69.76 Y16.6 M03 S0 F2000
G01 Z0.5 F300
G01 X66.06 Y16.45 M03 S255 F150
G01 X73.49 Y16.76 M03 S0 F2000
G01 Z0.5 F300
G01 X69.76 Y16.6 M03 S255 F150
G01 X77.16 Y16.93 M03 S0 F2000
G01 Z0.5 F300
G01 X73.49 Y16.76 M03 S255 F150
G01 X80.74 Y17.11 M03 S0 F2000
G01 Z0.5 F300
G01 X77.16 Y16.93 M03 S255 F150
G01 X84.13 Y17.29 M03 S0 F2000
G01 Z0.5 F300
G01 X80.74 Y17.11 M03 S255 F150
G01 X85.74 Y17.38 M03 S0 F2000
G01 Z0.5 F300
G01 X84.13 Y17.29 M03 S255 F150
G01 X87.29 Y17.46 M03 S0 F2000
G01 Z0.5 F300
G01 X85.74 Y17.38 M03 S255 F150
G01 X88.75 Y17.55 M03 S0 F2000
G01 Z0.5 F300
G01 X87.29 Y17.46 M03 S255 F150
G01 X90.14 Y17.63 M03 S0 F2000
G01 Z0.5 F300
G01 X88.75 Y17.55 M03 S255 F150
G01 X91.43 Y17.7 M03 S0 F2000
G01 Z0.5 F300
G01 X90.14 Y17.63 M03 S255 F150
G01 X92.61 Y17.78 M03 S0 F2000
G01 Z0.5 F300
G01 X91.43 Y17.7 M03 S255 F150
G01 X93.69 Y17.84 M03 S0 F2000
G01 Z0.5 F300
G01 X92.61 Y17.78 M03 S255 F150
G01 X94.65 Y17.9 M03 S0 F2000
G01 Z0.5 F300
G01 X93.69 Y17.84 M03 S255 F150
G01 X95.49 Y17.95 M03 S0 F2000
G01 Z0.5 F300
G01 X94.65 Y17.9 M03 S255 F150
G01 X96.19 Y17.99 M03 S0 F2000
G01 Z0.5 F300
G01 X95.49 Y17.95 M03 S255 F150
G01 X96.75 Y18.03 M03 S0 F2000
G01 Z0.5 F300
G01 X96.19 Y17.99 M03 S255 F150
G01 X97.16 Y18.05 M03 S0 F2000
G01 Z0.5 F300
G01 X96.75 Y18.03 M03 S255 F150
G01 X97.41 Y18.08 M03 S0 F2000
G01 Z0.5 F300
G01 X97.16 Y18.05 M03 S255 F150
G01 X97.5 Y18.08 M03 S0 F2000
G01 Z0.5 F300
G01 X97.41 Y18.08 M03 S255 F150
G01 X98.99 Y17.94 M03 S0 F2000
G01 Z0.5 F300
G01 X97.5 Y18.08 M03 S255 F150
G01 X100.38 Y17.53 M03 S0 F2000
G01 Z0.5 F300
G01 X98.99 Y17.94 M03 S255 F150
G01 X101.64 Y16.89 M03 S0 F2000
G01 Z0.5 F300
G01 X100.38 Y17.53 M03 S255 F150
G01 X102.74 Y16.03 M03 S0 F2000
G01 Z0.5 F300
G01 X101.64 Y16.89 M03 S255 F150
G01 X103.64 Y14.96 M03 S0 F2000
G01 Z0.5 F300
G01 X102.74 Y16.03 M03 S255 F150
G01 X104.31 Y13.75 M03 S0 F2000
G01 Z0.5 F300
G01 X103.64 Y14.96 M03 S255 F150
G01 X104.75 Y12.39 M03 S0 F2000
G01 Z0.5 F300
G01 X104.31 Y13.75 M03 S255 F150
G01 X104.86 Y11.65 M03 S0 F2000
G01 Z0.5 F300
G01 X104.75 Y12.39 M03 S255 F150
G01 X104.9 Y10.9 M03 S0 F2000
G01 Z0.5 F300
G01 X104.86 Y11.65 M03 S255 F150
G01 X104.9 Y10.9 M03 S0 F2000
G01 Z0.5 F300
G01 X104.9 Y10.9 M03 S255 F150
G01 X120.51 Y9.28 M03 S0 F2000
G01 Z0.5 F300
G01 X120.65 Y10 M03 S255 F150
G01 X120.1 Y8.66 M03 S0 F2000
G01 Z0.5 F300
G01 X120.51 Y9.28 M03 S255 F150
G01 X119.49 Y8.25 M03 S0 F2000
G01 Z0.5 F300
G01 X120.1 Y8.66 M03 S255 F150
G01 X118.75 Y8.1 M03 S0 F2000
G01 Z0.5 F300
G01 X119.49 Y8.25 M03 S255 F150
G01 X118.03 Y8.25 M03 S0 F2000
G01 Z0.5 F300
G01 X118.75 Y8.1 M03 S255 F150
G01 X117.41 Y8.66 M03 S0 F2000
G01 Z0.5 F300
G01 X118.03 Y8.25 M03 S255 F150
G01 X117 Y9.28 M03 S0 F2000
G01 Z0.5 F300
G01 X117.41 Y8.66 M03 S255 F150
G01 X116.85 Y10 M03 S0 F2000
G01 Z0.5 F300
G01 X117 Y9.28 M03 S255 F150
G01 X116.89 Y10.39 M03 S0 F2000
G01 Z0.5 F300
G01 X116.85 Y10 M03 S255 F150
G01 X117 Y10.74 M03 S0 F2000
G01 Z0.5 F300
G01 X116.89 Y10.39 M03 S255 F150
G01 X117.41 Y11.35 M03 S0 F2000
G01 Z0.5 F300
G01 X117 Y10.74 M03 S255 F150
G01 X118.01 Y11.75 M03 S0 F2000
G01 Z0.5 F300
G01 X117.41 Y11.35 M03 S255 F150
G01 X118.36 Y11.86 M03 S0 F2000
G01 Z0.5 F300
G01 X118.01 Y11.75 M03 S255 F150
G01 X118.75 Y11.9 M03 S0 F2000
G01 Z0.5 F300
G01 X118.36 Y11.86 M03 S255 F150
G01 X119.14 Y11.86 M03 S0 F2000
G01 Z0.5 F300
G01 X118.75 Y11.9 M03 S255 F150
G01 X119.49 Y11.75 M03 S0 F2000
G01 Z0.5 F300
G01 X119.14 Y11.86 M03 S255 F150
G01 X120.1 Y11.35 M03 S0 F2000
G01 Z0.5 F300
G01 X119.49 Y11.75 M03 S255 F150
G01 X120.5 Y10.74 M03 S0 F2000
G01 Z0.5 F300
G01 X120.1 Y11.35 M03 S255 F150
G01 X120.61 Y10.39 M03 S0 F2000
G01 Z0.5 F300
G01 X120.5 Y10.74 M03 S255 F150
G01 X120.65 Y10 M03 S0 F2000
G01 Z0.5 F300
G01 X120.61 Y10.39 M03 S255 F150
G01 X120.65 Y10 M03 S0 F2000
G01 Z0.5 F300
G01 X120.65 Y10 M03 S255 F150
G01 X134.13 Y0.1 M03 S0 F2000
G01 Z0.5 F300
G01 X134.13 Y19.9 M03 S255 F150
G01 Z0.5 F300
G01 X129.63 Y19.9 M03 S255 F150
G01 Z0.5 F300
G01 X129.63 Y17.28 M03 S255 F150
G01 X129.48 Y17.4 M03 S0 F2000
G01 Z0.5 F300
G01 X129.64 Y17.29 M03 S255 F150
G01 X129.43 Y17.38 M03 S0 F2000
G01 Z0.5 F300
G01 X129.48 Y17.4 M03 S255 F150
G01 X129.29 Y17.31 M03 S0 F2000
G01 Z0.5 F300
G01 X129.43 Y17.38 M03 S255 F150
G01 X129.08 Y17.23 M03 S0 F2000
G01 Z0.5 F300
G01 X129.29 Y17.31 M03 S255 F150
G01 X128.8 Y17.1 M03 S0 F2000
G01 Z0.5 F300
G01 X129.08 Y17.23 M03 S255 F150
G01 X128.06 Y16.8 M03 S0 F2000
G01 Z0.5 F300
G01 X128.8 Y17.1 M03 S255 F150
G01 X127.15 Y16.45 M03 S0 F2000
G01 Z0.5 F300
G01 X128.06 Y16.8 M03 S255 F150
G01 X126.14 Y16.1 M03 S0 F2000
G01 Z0.5 F300
G01 X127.15 Y16.45 M03 S255 F150
G01 X125.11 Y15.8 M03 S0 F2000
G01 Z0.5 F300
G01 X126.14 Y16.1 M03 S255 F150
G01 X124.13 Y15.59 M03 S0 F2000
G01 Z0.5 F300
G01 X125.11 Y15.8 M03 S255 F150
G01 X123.26 Y15.5 M03 S0 F2000
G01 Z0.5 F300
G01 X124.13 Y15.59 M03 S255 F150
G01 X122.41 Y15.59 M03 S0 F2000
G01 Z0.5 F300
G01 X123.26 Y15.5 M03 S255 F150
G01 X121.44 Y15.8 M03 S0 F2000
G01 Z0.5 F300
G01 X122.41 Y15.59 M03 S255 F150
G01 X120.43 Y16.11 M03 S0 F2000
G01 Z0.5 F300
G01 X121.44 Y15.8 M03 S255 F150
G01 X119.44 Y16.45 M03 S0 F2000
G01 Z0.5 F300
G01 X120.43 Y16.11 M03 S255 F150
G01 X118.54 Y16.8 M03 S0 F2000
G01 Z0.5 F300
G01 X119.44 Y16.45 M03 S255 F150
G01 X117.81 Y17.1 M03 S0 F2000
G01 Z0.5 F300
G01 X118.54 Y16.8 M03 S255 F150
G01 X117.53 Y17.23 M03 S0 F2000
G01 Z0.5 F300
G01 X117.81 Y17.1 M03 S255 F150
G01 X117.31 Y17.33 M03 S0 F2000
G01 Z0.5 F300
G01 X117.53 Y17.23 M03 S255 F150
G01 X117.19 Y17.38 M03 S0 F2000
G01 Z0.5 F300
G01 X117.31 Y17.33 M03 S255 F150
G01 X117.14 Y17.4 M03 S0 F2000
G01 Z0.5 F300
G01 X117.19 Y17.38 M03 S255 F150
G01 X116.98 Y17.36 M03 S0 F2000
G01 Z0.5 F300
G01 X117.14 Y17.4 M03 S255 F150
G01 X116.73 Y17.24 M03 S0 F2000
G01 Z0.5 F300
G01 X116.98 Y17.36 M03 S255 F150
G01 X116.4 Y17.05 M03 S0 F2000
G01 Z0.5 F300
G01 X116.73 Y17.24 M03 S255 F150
G01 X116 Y16.78 M03 S0 F2000
G01 Z0.5 F300
G01 X116.4 Y17.05 M03 S255 F150
G01 X115.06 Y16.06 M03 S0 F2000
G01 Z0.5 F300
G01 X116 Y16.78 M03 S255 F150
G01 X114.04 Y15.11 M03 S0 F2000
G01 Z0.5 F300
G01 X115.06 Y16.06 M03 S255 F150
G01 X113.04 Y13.96 M03 S0 F2000
G01 Z0.5 F300
G01 X114.04 Y15.11 M03 S255 F150
G01 X112.19 Y12.68 M03 S0 F2000
G01 Z0.5 F300
G01 X113.04 Y13.96 M03 S255 F150
G01 X111.85 Y11.98 M03 S0 F2000
G01 Z0.5 F300
G01 X112.19 Y12.68 M03 S255 F150
G01 X111.59 Y11.25 M03 S0 F2000
G01 Z0.5 F300
G01 X111.85 Y11.98 M03 S255 F150
G01 X111.43 Y10.51 M03 S0 F2000
G01 Z0.5 F300
G01 X111.59 Y11.25 M03 S255 F150
G01 X111.36 Y9.75 M03 S0 F2000
G01 Z0.5 F300
G01 X111.43 Y10.51 M03 S255 F150
G01 X111.43 Y9 M03 S0 F2000
G01 Z0.5 F300
G01 X111.36 Y9.75 M03 S255 F150
G01 X111.59 Y8.28 M03 S0 F2000
G01 Z0.5 F300
G01 X111.43 Y9 M03 S255 F150
G01 X111.85 Y7.6 M03 S0 F2000
G01 Z0.5 F300
G01 X111.59 Y8.28 M03 S255 F150
G01 X112.19 Y6.95 M03 S0 F2000
G01 Z0.5 F300
G01 X111.85 Y7.6 M03 S255 F150
G01 X113.04 Y5.76 M03 S0 F2000
G01 Z0.5 F300
G01 X112.19 Y6.95 M03 S255 F150
G01 X114.04 Y4.76 M03 S0 F2000
G01 Z0.5 F300
G01 X113.04 Y5.76 M03 S255 F150
G01 X115.06 Y3.95 M03 S0 F2000
G01 Z0.5 F300
G01 X114.04 Y4.76 M03 S255 F150
G01 X116 Y3.34 M03 S0 F2000
G01 Z0.5 F300
G01 X115.06 Y3.95 M03 S255 F150
G01 X116.4 Y3.13 M03 S0 F2000
G01 Z0.5 F300
G01 X116 Y3.34 M03 S255 F150
G01 X116.73 Y2.96 M03 S0 F2000
G01 Z0.5 F300
G01 X116.4 Y3.13 M03 S255 F150
G01 X116.98 Y2.88 M03 S0 F2000
G01 Z0.5 F300
G01 X116.73 Y2.96 M03 S255 F150
G01 X117.14 Y2.84 M03 S0 F2000
G01 Z0.5 F300
G01 X116.98 Y2.88 M03 S255 F150
G01 X117.19 Y2.86 M03 S0 F2000
G01 Z0.5 F300
G01 X117.14 Y2.84 M03 S255 F150
G01 X117.31 Y2.93 M03 S0 F2000
G01 Z0.5 F300
G01 X117.19 Y2.86 M03 S255 F150
G01 X117.53 Y3.01 M03 S0 F2000
G01 Z0.5 F300
G01 X117.31 Y2.93 M03 S255 F150
G01 X117.81 Y3.14 M03 S0 F2000
G01 Z0.5 F300
G01 X117.53 Y3.01 M03 S255 F150
G01 X118.54 Y3.45 M03 S0 F2000
G01 Z0.5 F300
G01 X117.81 Y3.14 M03 S255 F150
G01 X119.44 Y3.8 M03 S0 F2000
G01 Z0.5 F300
G01 X118.54 Y3.45 M03 S255 F150
G01 X120.43 Y4.15 M03 S0 F2000
G01 Z0.5 F300
G01 X119.44 Y3.8 M03 S255 F150
G01 X121.45 Y4.46 M03 S0 F2000
G01 Z0.5 F300
G01 X120.43 Y4.15 M03 S255 F150
G01 X122.41 Y4.66 M03 S0 F2000
G01 Z0.5 F300
G01 X121.45 Y4.46 M03 S255 F150
G01 X123.26 Y4.74 M03 S0 F2000
G01 Z0.5 F300
G01 X122.41 Y4.66 M03 S255 F150
G01 X124.13 Y4.64 M03 S0 F2000
G01 Z0.5 F300
G01 X123.26 Y4.74 M03 S255 F150
G01 X125.11 Y4.39 M03 S0 F2000
G01 Z0.5 F300
G01 X124.13 Y4.64 M03 S255 F150
G01 X126.14 Y4.05 M03 S0 F2000
G01 Z0.5 F300
G01 X125.11 Y4.39 M03 S255 F150
G01 X127.15 Y3.65 M03 S0 F2000
G01 Z0.5 F300
G01 X126.14 Y4.05 M03 S255 F150
G01 X128.06 Y3.26 M03 S0 F2000
G01 Z0.5 F300
G01 X127.15 Y3.65 M03 S255 F150
G01 X128.8 Y2.93 M03 S0 F2000
G01 Z0.5 F300
G01 X128.06 Y3.26 M03 S255 F150
G01 X129.08 Y2.8 M03 S0 F2000
G01 Z0.5 F300
G01 X128.8 Y2.93 M03 S255 F150
G01 X129.29 Y2.69 M03 S0 F2000
G01 Z0.5 F300
G01 X129.08 Y2.8 M03 S255 F150
G01 X129.43 Y2.63 M03 S0 F2000
G01 Z0.5 F300
G01 X129.29 Y2.69 M03 S255 F150
G01 X129.48 Y2.6 M03 S0 F2000
G01 Z0.5 F300
G01 X129.43 Y2.63 M03 S255 F150
G01 X129.64 Y2.73 M03 S0 F2000
G01 Z0.5 F300
G01 X129.48 Y2.6 M03 S255 F150
G01 X129.63 Y2.72 M03 S0 F2000
G01 Z0.5 F300
G01 X129.63 Y0.1 M03 S255 F150
G01 Z0.5 F300
G01 X134.13 Y0.1 M03 S255 F150
G00 M03 S0
M05
G01 X5.39 Y11.33 M03 S0 F2000
M03 S0
G01 Z1 F300
G01 X5.35 Y10.9 M03 S255 F150
G01 X5.53 Y11.73 M03 S0 F2000
G01 Z1 F300
G01 X5.39 Y11.33 M03 S255 F150
G01 X5.99 Y12.43 M03 S0 F2000
G01 Z1 F300
G01 X5.53 Y11.73 M03 S255 F150
G01 X6.69 Y12.89 M03 S0 F2000
G01 Z1 F300
G01 X5.99 Y12.43 M03 S255 F150
G01 X7.09 Y13.01 M03 S0 F2000
G01 Z1 F300
G01 X6.69 Y12.89 M03 S255 F150
G01 X7.5 Y13.05 M03 S0 F2000
G01 Z1 F300
G01 X7.09 Y13.01 M03 S255 F150
G01 X7.93 Y13.01 M03 S0 F2000
G01 Z1 F300
G01 X7.5 Y13.05 M03 S255 F150
G01 X8.33 Y12.89 M03 S0 F2000
G01 Z1 F300
G01 X7.93 Y13.01 M03 S255 F150
G01 X9.03 Y12.43 M03 S0 F2000
G01 Z1 F300
G01 X8.33 Y12.89 M03 S255 F150
G01 X9.49 Y11.73 M03 S0 F2000
G01 Z1 F300
G01 X9.03 Y12.43 M03 S255 F150
G01 X9.61 Y11.33 M03 S0 F2000
G01 Z1 F300
G01 X9.49 Y11.73 M03 S255 F150
G01 X9.65 Y10.9 M03 S0 F2000
G01 Z1 F300
G01 X9.61 Y11.33 M03 S255 F150
G01 X9.61 Y10.46 M03 S0 F2000
G01 Z1 F300
G01 X9.65 Y10.9 M03 S255 F150
G01 X9.47 Y10.06 M03 S0 F2000
G01 Z1 F300
G01 X9.61 Y10.46 M03 S255 F150
G01 X9.03 Y9.38 M03 S0 F2000
G01 Z1 F300
G01 X9.47 Y10.06 M03 S255 F150
G01 X8.34 Y8.92 M03 S0 F2000
G01 Z1 F300
G01 X9.03 Y9.38 M03 S255 F150
G01 X7.94 Y8.79 M03 S0 F2000
G01 Z1 F300
G01 X8.34 Y8.92 M03 S255 F150
G01 X7.5 Y8.75 M03 S0 F2000
G01 Z1 F300
G01 X7.94 Y8.79 M03 S255 F150
G01 X7.06 Y8.79 M03 S0 F2000
G01 Z1 F300
G01 X7.5 Y8.75 M03 S255 F150
G01 X6.66 Y8.92 M03 S0 F2000
G01 Z1 F300
G01 X7.06 Y8.79 M03 S255 F150
G01 X5.98 Y9.38 M03 S0 F2000
G01 Z1 F300
G01 X6.66 Y8.92 M03 S255 F150
G01 X5.53 Y10.06 M03 S0 F2000
G01 Z1 F300
G01 X5.98 Y9.38 M03 S255 F150
G01 X5.39 Y10.46 M03 S0 F2000
G01 Z1 F300
G01 X5.53 Y10.06 M03 S255 F150
G01 X5.35 Y10.9 M03 S0 F2000
G01 Z1 F300
G01 X5.39 Y10.46 M03 S255 F150
G01 X5.35 Y10.9 M03 S0 F2000
G01 Z1 F300
G01 X5.35 Y10.9 M03 S255 F150
G01 X95.75 Y11.63 M03 S0 F2000
G01 Z1 F300
G01 X95.6 Y10.9 M03 S255 F150
G01 X96.16 Y12.25 M03 S0 F2000
G01 Z1 F300
G01 X95.75 Y11.63 M03 S255 F150
G01 X96.77 Y12.66 M03 S0 F2000
G01 Z1 F300
G01 X96.16 Y12.25 M03 S255 F150
G01 X97.5 Y12.8 M03 S0 F2000
G01 Z1 F300
G01 X96.77 Y12.66 M03 S255 F150
G01 X98.24 Y12.66 M03 S0 F2000
G01 Z1 F300
G01 X97.5 Y12.8 M03 S255 F150
G01 X98.85 Y12.25 M03 S0 F2000
G01 Z1 F300
G01 X98.24 Y12.66 M03 S255 F150
G01 X99.26 Y11.63 M03 S0 F2000
G01 Z1 F300
G01 X98.85 Y12.25 M03 S255 F150
G01 X99.4 Y10.9 M03 S0 F2000
G01 Z1 F300
G01 X99.26 Y11.63 M03 S255 F150
G01 X99.36 Y10.51 M03 S0 F2000
G01 Z1 F300
G01 X99.4 Y10.9 M03 S255 F150
G01 X99.25 Y10.16 M03 S0 F2000
G01 Z1 F300
G01 X99.36 Y10.51 M03 S255 F150
G01 X98.85 Y9.56 M03 S0 F2000
G01 Z1 F300
G01 X99.25 Y10.16 M03 S255 F150
G01 X98.24 Y9.15 M03 S0 F2000
G01 Z1 F300
G01 X98.85 Y9.56 M03 S255 F150
G01 X97.89 Y9.04 M03 S0 F2000
G01 Z1 F300
G01 X98.24 Y9.15 M03 S255 F150
G01 X97.5 Y9 M03 S0 F2000
G01 Z1 F300
G01 X97.89 Y9.04 M03 S255 F150
G01 X97.13 Y9.04 M03 S0 F2000
G01 Z1 F300
G01 X97.5 Y9 M03 S255 F150
G01 X96.76 Y9.15 M03 S0 F2000
G01 Z1 F300
G01 X97.13 Y9.04 M03 S255 F150
G01 X96.16 Y9.56 M03 S0 F2000
G01 Z1 F300
G01 X96.76 Y9.15 M03 S255 F150
G01 X95.75 Y10.16 M03 S0 F2000
G01 Z1 F300
G01 X96.16 Y9.56 M03 S255 F150
G01 X95.64 Y10.51 M03 S0 F2000
G01 Z1 F300
G01 X95.75 Y10.16 M03 S255 F150
G01 X95.6 Y10.9 M03 S0 F2000
G01 Z1 F300
G01 X95.64 Y10.51 M03 S255 F150
G01 X95.6 Y10.9 M03 S0 F2000
G01 Z1 F300
G01 X95.6 Y10.9 M03 S255 F150
G01 X104.86 Y10.14 M03 S0 F2000
G01 Z1 F300
G01 X104.9 Y10.9 M03 S255 F150
G01 X104.75 Y9.41 M03 S0 F2000
G01 Z1 F300
G01 X104.86 Y10.14 M03 S255 F150
G01 X104.31 Y8.03 M03 S0 F2000
G01 Z1 F300
G01 X104.75 Y9.41 M03 S255 F150
G01 X103.64 Y6.76 M03 S0 F2000
G01 Z1 F300
G01 X104.31 Y8.03 M03 S255 F150
G01 X102.74 Y5.66 M03 S0 F2000
G01 Z1 F300
G01 X103.64 Y6.76 M03 S255 F150
G01 X101.64 Y4.76 M03 S0 F2000
G01 Z1 F300
G01 X102.74 Y5.66 M03 S255 F150
G01 X100.38 Y4.09 M03 S0 F2000
G01 Z1 F300
G01 X101.64 Y4.76 M03 S255 F150
G01 X98.99 Y3.65 M03 S0 F2000
G01 Z1 F300
G01 X100.38 Y4.09 M03 S255 F150
G01 X98.26 Y3.54 M03 S0 F2000
G01 Z1 F300
G01 X98.99 Y3.65 M03 S255 F150
G01 X97.5 Y3.5 M03 S0 F2000
G01 Z1 F300
G01 X98.26 Y3.54 M03 S255 F150
G01 X97.41 Y3.5 M03 S0 F2000
G01 Z1 F300
G01 X97.5 Y3.5 M03 S255 F150
G01 X97.16 Y3.53 M03 S0 F2000
G01 Z1 F300
G01 X97.41 Y3.5 M03 S255 F150
G01 X96.75 Y3.55 M03 S0 F2000
G01 Z1 F300
G01 X97.16 Y3.53 M03 S255 F150
G01 X96.19 Y3.59 M03 S0 F2000
G01 Z1 F300
G01 X96.75 Y3.55 M03 S255 F150
G01 X95.49 Y3.63 M03 S0 F2000
G01 Z1 F300
G01 X96.19 Y3.59 M03 S255 F150
G01 X94.65 Y3.68 M03 S0 F2000
G01 Z1 F300
G01 X95.49 Y3.63 M03 S255 F150
G01 X93.69 Y3.74 M03 S0 F2000
G01 Z1 F300
G01 X94.65 Y3.68 M03 S255 F150
G01 X92.61 Y3.8 M03 S0 F2000
G01 Z1 F300
G01 X93.69 Y3.74 M03 S255 F150
G01 X91.43 Y3.86 M03 S0 F2000
G01 Z1 F300
G01 X92.61 Y3.8 M03 S255 F150
G01 X90.14 Y3.94 M03 S0 F2000
G01 Z1 F300
G01 X91.43 Y3.86 M03 S255 F150
G01 X88.75 Y4.03 M03 S0 F2000
G01 Z1 F300
G01 X90.14 Y3.94 M03 S255 F150
G01 X87.29 Y4.1 M03 S0 F2000
G01 Z1 F300
G01 X88.75 Y4.03 M03 S255 F150
G01 X85.74 Y4.19 M03 S0 F2000
G01 Z1 F300
G01 X87.29 Y4.1 M03 S255 F150
G01 X84.13 Y4.28 M03 S0 F2000
G01 Z1 F300
G01 X85.74 Y4.19 M03 S255 F150
G01 X80.74 Y4.45 M03 S0 F2000
G01 Z1 F300
G01 X84.13 Y4.28 M03 S255 F150
G01 X77.16 Y4.63 M03 S0 F2000
G01 Z1 F300
G01 X80.74 Y4.45 M03 S255 F150
G01 X73.49 Y4.8 M03 S0 F2000
G01 Z1 F300
G01 X77.16 Y4.63 M03 S255 F150
G01 X69.76 Y4.96 M03 S0 F2000
G01 Z1 F300
G01 X73.49 Y4.8 M03 S255 F150
G01 X66.06 Y5.1 M03 S0 F2000
G01 Z1 F300
G01 X69.76 Y4.96 M03 S255 F150
G01 X62.45 Y5.23 M03 S0 F2000
G01 Z1 F300
G01 X66.06 Y5.1 M03 S255 F150
G01 X58.99 Y5.31 M03 S0 F2000
G01 Z1 F300
G01 X62.45 Y5.23 M03 S255 F150
G01 X55.75 Y5.38 M03 S0 F2000
G01 Z1 F300
G01 X58.99 Y5.31 M03 S255 F150
G01 X54.23 Y5.4 M03 S0 F2000
G01 Z1 F300
G01 X55.75 Y5.38 M03 S255 F150
G01 X52.79 Y5.4 M03 S0 F2000
G01 Z1 F300
G01 X54.23 Y5.4 M03 S255 F150
G01 X51.33 Y5.4 M03 S0 F2000
G01 Z1 F300
G01 X52.79 Y5.4 M03 S255 F150
G01 X49.79 Y5.38 M03 S0 F2000
G01 Z1 F300
G01 X51.33 Y5.4 M03 S255 F150
G01 X46.5 Y5.33 M03 S0 F2000
G01 Z1 F300
G01 X49.79 Y5.38 M03 S255 F150
G01 X43 Y5.23 M03 S0 F2000
G01 Z1 F300
G01 X46.5 Y5.33 M03 S255 F150
G01 X39.34 Y5.11 M03 S0 F2000
G01 Z1 F300
G01 X43 Y5.23 M03 S255 F150
G01 X35.59 Y4.96 M03 S0 F2000
G01 Z1 F300
G01 X39.34 Y5.11 M03 S255 F150
G01 X31.81 Y4.8 M03 S0 F2000
G01 Z1 F300
G01 X35.59 Y4.96 M03 S255 F150
G01 X28.09 Y4.64 M03 S0 F2000
G01 Z1 F300
G01 X31.81 Y4.8 M03 S255 F150
G01 X24.48 Y4.45 M03 S0 F2000
G01 Z1 F300
G01 X28.09 Y4.64 M03 S255 F150
G01 X21.04 Y4.28 M03 S0 F2000
G01 Z1 F300
G01 X24.48 Y4.45 M03 S255 F150
G01 X19.4 Y4.19 M03 S0 F2000
G01 Z1 F300
G01 X21.04 Y4.28 M03 S255 F150
G01 X17.84 Y4.1 M03 S0 F2000
G01 Z1 F300
G01 X19.4 Y4.19 M03 S255 F150
G01 X16.36 Y4.03 M03 S0 F2000
G01 Z1 F300
G01 X17.84 Y4.1 M03 S255 F150
G01 X14.96 Y3.94 M03 S0 F2000
G01 Z1 F300
G01 X16.36 Y4.03 M03 S255 F150
G01 X13.65 Y3.86 M03 S0 F2000
G01 Z1 F300
G01 X14.96 Y3.94 M03 S255 F150
G01 X12.45 Y3.8 M03 S0 F2000
G01 Z1 F300
G01 X13.65 Y3.86 M03 S255 F150
G01 X11.35 Y3.74 M03 S0 F2000
G01 Z1 F300
G01 X12.45 Y3.8 M03 S255 F150
G01 X10.39 Y3.68 M03 S0 F2000
G01 Z1 F300
G01 X11.35 Y3.74 M03 S255 F150
G01 X9.54 Y3.63 M03 S0 F2000
G01 Z1 F300
G01 X10.39 Y3.68 M03 S255 F150
G01 X8.83 Y3.58 M03 S0 F2000
G01 Z1 F300
G01 X9.54 Y3.63 M03 S255 F150
G01 X8.25 Y3.55 M03 S0 F2000
G01 Z1 F300
G01 X8.83 Y3.58 M03 S255 F150
G01 X7.84 Y3.51 M03 S0 F2000
G01 Z1 F300
G01 X8.25 Y3.55 M03 S255 F150
G01 X7.59 Y3.5 M03 S0 F2000
G01 Z1 F300
G01 X7.84 Y3.51 M03 S255 F150
G01 X7.5 Y3.5 M03 S0 F2000
G01 Z1 F300
G01 X7.59 Y3.5 M03 S255 F150
G01 X6.75 Y3.54 M03 S0 F2000
G01 Z1 F300
G01 X7.5 Y3.5 M03 S255 F150
G01 X6.01 Y3.65 M03 S0 F2000
G01 Z1 F300
G01 X6.75 Y3.54 M03 S255 F150
G01 X4.63 Y4.09 M03 S0 F2000
G01 Z1 F300
G01 X6.01 Y3.65 M03 S255 F150
G01 X3.36 Y4.76 M03 S0 F2000
G01 Z1 F300
G01 X4.63 Y4.09 M03 S255 F150
G01 X2.28 Y5.66 M03 S0 F2000
G01 Z1 F300
G01 X3.36 Y4.76 M03 S255 F150
G01 X1.36 Y6.76 M03 S0 F2000
G01 Z1 F300
G01 X2.28 Y5.66 M03 S255 F150
G01 X0.69 Y8.03 M03 S0 F2000
G01 Z1 F300
G01 X1.36 Y6.76 M03 S255 F150
G01 X0.25 Y9.41 M03 S0 F2000
G01 Z1 F300
G01 X0.69 Y8.03 M03 S255 F150
G01 X0.14 Y10.14 M03 S0 F2000
G01 Z1 F300
G01 X0.25 Y9.41 M03 S255 F150
G01 X0.1 Y10.9 M03 S0 F2000
G01 Z1 F300
G01 X0.14 Y10.14 M03 S255 F150
G01 X0.14 Y11.66 M03 S0 F2000
G01 Z1 F300
G01 X0.1 Y10.9 M03 S255 F150
G01 X0.25 Y12.39 M03 S0 F2000
G01 Z1 F300
G01 X0.14 Y11.66 M03 S255 F150
G01 X0.69 Y13.78 M03 S0 F2000
G01 Z1 F300
G01 X0.25 Y12.39 M03 S255 F150
G01 X1.36 Y15.04 M03 S0 F2000
G01 Z1 F300
G01 X0.69 Y13.78 M03 S255 F150
G01 X2.28 Y16.14 M03 S0 F2000
G01 Z1 F300
G01 X1.36 Y15.04 M03 S255 F150
G01 X3.36 Y17.04 M03 S0 F2000
G01 Z1 F300
G01 X2.28 Y16.14 M03 S255 F150
G01 X4.63 Y17.71 M03 S0 F2000
G01 Z1 F300
G01 X3.36 Y17.04 M03 S255 F150
G01 X6.01 Y18.15 M03 S0 F2000
G01 Z1 F300
G01 X4.63 Y17.71 M03 S255 F150
G01 X6.75 Y18.26 M03 S0 F2000
G01 Z1 F300
G01 X6.01 Y18.15 M03 S255 F150
G01 X7.5 Y18.3 M03 S0 F2000
G01 Z1 F300
G01 X6.75 Y18.26 M03 S255 F150
G01 X7.59 Y18.3 M03 S0 F2000
G01 Z1 F300
G01 X7.5 Y18.3 M03 S255 F150
G01 X7.84 Y18.28 M03 S0 F2000
G01 Z1 F300
G01 X7.59 Y18.3 M03 S255 F150
G01 X8.26 Y18.25 M03 S0 F2000
G01 Z1 F300
G01 X7.84 Y18.28 M03 S255 F150
G01 X8.83 Y18.21 M03 S0 F2000
G01 Z1 F300
G01 X8.26 Y18.25 M03 S255 F150
G01 X9.54 Y18.16 M03 S0 F2000
G01 Z1 F300
G01 X8.83 Y18.21 M03 S255 F150
G01 X10.39 Y18.1 M03 S0 F2000
G01 Z1 F300
G01 X9.54 Y18.16 M03 S255 F150
G01 X11.36 Y18.04 M03 S0 F2000
G01 Z1 F300
G01 X10.39 Y18.1 M03 S255 F150
G01 X12.45 Y17.98 M03 S0 F2000
G01 Z1 F300
G01 X11.36 Y18.04 M03 S255 F150
G01 X13.65 Y17.9 M03 S0 F2000
G01 Z1 F300
G01 X12.45 Y17.98 M03 S255 F150
G01 X14.96 Y17.81 M03 S0 F2000
G01 Z1 F300
G01 X13.65 Y17.9 M03 S255 F150
G01 X16.36 Y17.73 M03 S0 F2000
G01 Z1 F300
G01 X14.96 Y17.81 M03 S255 F150
G01 X17.85 Y17.64 M03 S0 F2000
G01 Z1 F300
G01 X16.36 Y17.73 M03 S255 F150
G01 X19.41 Y17.54 M03 S0 F2000
G01 Z1 F300
G01 X17.85 Y17.64 M03 S255 F150
G01 X21.04 Y17.44 M03 S0 F2000
G01 Z1 F300
G01 X19.41 Y17.54 M03 S255 F150
G01 X24.48 Y17.25 M03 S0 F2000
G01 Z1 F300
G01 X21.04 Y17.44 M03 S255 F150
G01 X28.09 Y17.05 M03 S0 F2000
G01 Z1 F300
G01 X24.48 Y17.25 M03 S255 F150
G01 X31.81 Y16.85 M03 S0 F2000
G01 Z1 F300
G01 X28.09 Y17.05 M03 S255 F150
G01 X35.59 Y16.68 M03 S0 F2000
G01 Z1 F300
G01 X31.81 Y16.85 M03 S255 F150
G01 X39.33 Y16.51 M03 S0 F2000
G01 Z1 F300
G01 X35.59 Y16.68 M03 S255 F150
G01 X42.99 Y16.38 M03 S0 F2000
G01 Z1 F300
G01 X39.33 Y16.51 M03 S255 F150
G01 X46.5 Y16.26 M03 S0 F2000
G01 Z1 F300
G01 X42.99 Y16.38 M03 S255 F150
G01 X49.78 Y16.19 M03 S0 F2000
G01 Z1 F300
G01 X46.5 Y16.26 M03 S255 F150
G01 X51.31 Y16.16 M03 S0 F2000
G01 Z1 F300
G01 X49.78 Y16.19 M03 S255 F150
G01 X52.78 Y16.16 M03 S0 F2000
G01 Z1 F300
G01 X51.31 Y16.16 M03 S255 F150
G01 X54.21 Y16.16 M03 S0 F2000
G01 Z1 F300
G01 X52.78 Y16.16 M03 S255 F150
G01 X55.74 Y16.18 M03 S0 F2000
G01 Z1 F300
G01 X54.21 Y16.16 M03 S255 F150
G01 X58.99 Y16.24 M03 S0 F2000
G01 Z1 F300
G01 X55.74 Y16.18 M03 S255 F150
G01 X62.45 Y16.33 M03 S0 F2000
G01 Z1 F300
G01 X58.99 Y16.24 M03 S255 F150
G01 X66.06 Y16.45 M03 S0 F2000
G01 Z1 F300
G01 X62.45 Y16.33 M03 S255 F150
G01 X69.76 Y16.6 M03 S0 F2000
G01 Z1 F300
G01 X66.06 Y16.45 M03 S255 F150
G01 X73.49 Y16.76 M03 S0 F2000
G01 Z1 F300
G01 X69.76 Y16.6 M03 S255 F150
G01 X77.16 Y16.93 M03 S0 F2000
G01 Z1 F300
G01 X73.49 Y16.76 M03 S255 F150
G01 X80.74 Y17.11 M03 S0 F2000
G01 Z1 F300
G01 X77.16 Y16.93 M03 S255 F150
G01 X84.13 Y17.29 M03 S0 F2000
G01 Z1 F300
G01 X80.74 Y17.11 M03 S255 F150
G01 X85.74 Y17.38 M03 S0 F2000
G01 Z1 F300
G01 X84.13 Y17.29 M03 S255 F150
G01 X87.29 Y17.46 M03 S0 F2000
G01 Z1 F300
G01 X85.74 Y17.38 M03 S255 F150
G01 X88.75 Y17.55 M03 S0 F2000
G01 Z1 F300
G01 X87.29 Y17.46 M03 S255 F150
G01 X90.14 Y17.63 M03 S0 F2000
G01 Z1 F300
G01 X88.75 Y17.55 M03 S255 F150
G01 X91.43 Y17.7 M03 S0 F2000
G01 Z1 F300
G01 X90.14 Y17.63 M03 S255 F150
G01 X92.61 Y17.78 M03 S0 F2000
G01 Z1 F300
G01 X91.43 Y17.7 M03 S255 F150
G01 X93.69 Y17.84 M03 S0 F2000
G01 Z1 F300
G01 X92.61 Y17.78 M03 S255 F150
G01 X94.65 Y17.9 M03 S0 F2000
G01 Z1 F300
G01 X93.69 Y17.84 M03 S255 F150
G01 X95.49 Y17.95 M03 S0 F2000
G01 Z1 F300
G01 X94.65 Y17.9 M03 S255 F150
G01 X96.19 Y17.99 M03 S0 F2000
G01 Z1 F300
G01 X95.49 Y17.95 M03 S255 F150
G01 X96.75 Y18.03 M03 S0 F2000
G01 Z1 F300
G01 X96.19 Y17.99 M03 S255 F150
G01 X97.16 Y18.05 M03 S0 F2000
G01 Z1 F300
G01 X96.75 Y18.03 M03 S255 F150
G01 X97.41 Y18.08 M03 S0 F2000
G01 Z1 F300
G01 X97.16 Y18.05 M03 S255 F150
G01 X97.5 Y18.08 M03 S0 F2000
G01 Z1 F300
G01 X97.41 Y18.08 M03 S255 F150
G01 X98.99 Y17.94 M03 S0 F2000
G01 Z1 F300
G01 X97.5 Y18.08 M03 S255 F150
G01 X100.38 Y17.53 M03 S0 F2000
G01 Z1 F300
G01 X98.99 Y17.94 M03 S255 F150
G01 X101.64 Y16.89 M03 S0 F2000
G01 Z1 F300
G01 X100.38 Y17.53 M03 S255 F150
G01 X102.74 Y16.03 M03 S0 F2000
G01 Z1 F300
G01 X101.64 Y16.89 M03 S255 F150
G01 X103.64 Y14.96 M03 S0 F2000
G01 Z1 F300
G01 X102.74 Y16.03 M03 S255 F150
G01 X104.31 Y13.75 M03 S0 F2000
G01 Z1 F300
G01 X103.64 Y14.96 M03 S255 F150
G01 X104.75 Y12.39 M03 S0 F2000
G01 Z1 F300
G01 X104.31 Y13.75 M03 S255 F150
G01 X104.86 Y11.65 M03 S0 F2000
G01 Z1 F300
G01 X104.75 Y12.39 M03 S255 F150
G01 X104.9 Y10.9 M03 S0 F2000
G01 Z1 F300
G01 X104.86 Y11.65 M03 S255 F150
G01 X104.9 Y10.9 M03 S0 F2000
G01 Z1 F300
G01 X104.9 Y10.9 M03 S255 F150
G01 X120.51 Y9.28 M03 S0 F2000
G01 Z1 F300
G01 X120.65 Y10 M03 S255 F150
G01 X120.1 Y8.66 M03 S0 F2000
G01 Z1 F300
G01 X120.51 Y9.28 M03 S255 F150
G01 X119.49 Y8.25 M03 S0 F2000
G01 Z1 F300
G01 X120.1 Y8.66 M03 S255 F150
G01 X118.75 Y8.1 M03 S0 F2000
G01 Z1 F300
G01 X119.49 Y8.25 M03 S255 F150
G01 X118.03 Y8.25 M03 S0 F2000
G01 Z1 F300
G01 X118.75 Y8.1 M03 S255 F150
G01 X117.41 Y8.66 M03 S0 F2000
G01 Z1 F300
G01 X118.03 Y8.25 M03 S255 F150
G01 X117 Y9.28 M03 S0 F2000
G01 Z1 F300
G01 X117.41 Y8.66 M03 S255 F150
G01 X116.85 Y10 M03 S0 F2000
G01 Z1 F300
G01 X117 Y9.28 M03 S255 F150
G01 X116.89 Y10.39 M03 S0 F2000
G01 Z1 F300
G01 X116.85 Y10 M03 S255 F150
G01 X117 Y10.74 M03 S0 F2000
G01 Z1 F300
G01 X116.89 Y10.39 M03 S255 F150
G01 X117.41 Y11.35 M03 S0 F2000
G01 Z1 F300
G01 X117 Y10.74 M03 S255 F150
G01 X118.01 Y11.75 M03 S0 F2000
G01 Z1 F300
G01 X117.41 Y11.35 M03 S255 F150
G01 X118.36 Y11.86 M03 S0 F2000
G01 Z1 F300
G01 X118.01 Y11.75 M03 S255 F150
G01 X118.75 Y11.9 M03 S0 F2000
G01 Z1 F300
G01 X118.36 Y11.86 M03 S255 F150
G01 X119.14 Y11.86 M03 S0 F2000
G01 Z1 F300
G01 X118.75 Y11.9 M03 S255 F150
G01 X119.49 Y11.75 M03 S0 F2000
G01 Z1 F300
G01 X119.14 Y11.86 M03 S255 F150
G01 X120.1 Y11.35 M03 S0 F2000
G01 Z1 F300
G01 X119.49 Y11.75 M03 S255 F150
G01 X120.5 Y10.74 M03 S0 F2000
G01 Z1 F300
G01 X120.1 Y11.35 M03 S255 F150
G01 X120.61 Y10.39 M03 S0 F2000
G01 Z1 F300
G01 X120.5 Y10.74 M03 S255 F150
G01 X120.65 Y10 M03 S0 F2000
G01 Z1 F300
G01 X120.61 Y10.39 M03 S255 F150
G01 X120.65 Y10 M03 S0 F2000
G01 Z1 F300
G01 X120.65 Y10 M03 S255 F150
G01 X134.13 Y0.1 M03 S0 F2000
G01 Z1 F300
G01 X134.13 Y19.9 M03 S255 F150
G01 Z1 F300
G01 X129.63 Y19.9 M03 S255 F150
G01 Z1 F300
G01 X129.63 Y17.28 M03 S255 F150
G01 X129.48 Y17.4 M03 S0 F2000
G01 Z1 F300
G01 X129.64 Y17.29 M03 S255 F150
G01 X129.43 Y17.38 M03 S0 F2000
G01 Z1 F300
G01 X129.48 Y17.4 M03 S255 F150
G01 X129.29 Y17.31 M03 S0 F2000
G01 Z1 F300
G01 X129.43 Y17.38 M03 S255 F150
G01 X129.08 Y17.23 M03 S0 F2000
G01 Z1 F300
G01 X129.29 Y17.31 M03 S255 F150
G01 X128.8 Y17.1 M03 S0 F2000
G01 Z1 F300
G01 X129.08 Y17.23 M03 S255 F150
G01 X128.06 Y16.8 M03 S0 F2000
G01 Z1 F300
G01 X128.8 Y17.1 M03 S255 F150
G01 X127.15 Y16.45 M03 S0 F2000
G01 Z1 F300
G01 X128.06 Y16.8 M03 S255 F150
G01 X126.14 Y16.1 M03 S0 F2000
G01 Z1 F300
G01 X127.15 Y16.45 M03 S255 F150
G01 X125.11 Y15.8 M03 S0 F2000
G01 Z1 F300
G01 X126.14 Y16.1 M03 S255 F150
G01 X124.13 Y15.59 M03 S0 F2000
G01 Z1 F300
G01 X125.11 Y15.8 M03 S255 F150
G01 X123.26 Y15.5 M03 S0 F2000
G01 Z1 F300
G01 X124.13 Y15.59 M03 S255 F150
G01 X122.41 Y15.59 M03 S0 F2000
G01 Z1 F300
G01 X123.26 Y15.5 M03 S255 F150
G01 X121.44 Y15.8 M03 S0 F2000
G01 Z1 F300
G01 X122.41 Y15.59 M03 S255 F150
G01 X120.43 Y16.11 M03 S0 F2000
G01 Z1 F300
G01 X121.44 Y15.8 M03 S255 F150
G01 X119.44 Y16.45 M03 S0 F2000
G01 Z1 F300
G01 X120.43 Y16.11 M03 S255 F150
G01 X118.54 Y16.8 M03 S0 F2000
G01 Z1 F300
G01 X119.44 Y16.45 M03 S255 F150
G01 X117.81 Y17.1 M03 S0 F2000
G01 Z1 F300
G01 X118.54 Y16.8 M03 S255 F150
G01 X117.53 Y17.23 M03 S0 F2000
G01 Z1 F300
G01 X117.81 Y17.1 M03 S255 F150
G01 X117.31 Y17.33 M03 S0 F2000
G01 Z1 F300
G01 X117.53 Y17.23 M03 S255 F150
G01 X117.19 Y17.38 M03 S0 F2000
G01 Z1 F300
G01 X117.31 Y17.33 M03 S255 F150
G01 X117.14 Y17.4 M03 S0 F2000
G01 Z1 F300
G01 X117.19 Y17.38 M03 S255 F150
G01 X116.98 Y17.36 M03 S0 F2000
G01 Z1 F300
G01 X117.14 Y17.4 M03 S255 F150
G01 X116.73 Y17.24 M03 S0 F2000
G01 Z1 F300
G01 X116.98 Y17.36 M03 S255 F150
G01 X116.4 Y17.05 M03 S0 F2000
G01 Z1 F300
G01 X116.73 Y17.24 M03 S255 F150
G01 X116 Y16.78 M03 S0 F2000
G01 Z1 F300
G01 X116.4 Y17.05 M03 S255 F150
G01 X115.06 Y16.06 M03 S0 F2000
G01 Z1 F300
G01 X116 Y16.78 M03 S255 F150
G01 X114.04 Y15.11 M03 S0 F2000
G01 Z1 F300
G01 X115.06 Y16.06 M03 S255 F150
G01 X113.04 Y13.96 M03 S0 F2000
G01 Z1 F300
G01 X114.04 Y15.11 M03 S255 F150
G01 X112.19 Y12.68 M03 S0 F2000
G01 Z1 F300
G01 X113.04 Y13.96 M03 S255 F150
G01 X111.85 Y11.98 M03 S0 F2000
G01 Z1 F300
G01 X112.19 Y12.68 M03 S255 F150
G01 X111.59 Y11.25 M03 S0 F2000
G01 Z1 F300
G01 X111.85 Y11.98 M03 S255 F150
G01 X111.43 Y10.51 M03 S0 F2000
G01 Z1 F300
G01 X111.59 Y11.25 M03 S255 F150
G01 X111.36 Y9.75 M03 S0 F2000
G01 Z1 F300
G01 X111.43 Y10.51 M03 S255 F150
G01 X111.43 Y9 M03 S0 F2000
G01 Z1 F300
G01 X111.36 Y9.75 M03 S255 F150
G01 X111.59 Y8.28 M03 S0 F2000
G01 Z1 F300
G01 X111.43 Y9 M03 S255 F150
G01 X111.85 Y7.6 M03 S0 F2000
G01 Z1 F300
G01 X111.59 Y8.28 M03 S255 F150
G01 X112.19 Y6.95 M03 S0 F2000
G01 Z1 F300
G01 X111.85 Y7.6 M03 S255 F150
G01 X113.04 Y5.76 M03 S0 F2000
G01 Z1 F300
G01 X112.19 Y6.95 M03 S255 F150
G01 X114.04 Y4.76 M03 S0 F2000
G01 Z1 F300
G01 X113.04 Y5.76 M03 S255 F150
G01 X115.06 Y3.95 M03 S0 F2000
G01 Z1 F300
G01 X114.04 Y4.76 M03 S255 F150
G01 X116 Y3.34 M03 S0 F2000
G01 Z1 F300
G01 X115.06 Y3.95 M03 S255 F150
G01 X116.4 Y3.13 M03 S0 F2000
G01 Z1 F300
G01 X116 Y3.34 M03 S255 F150
G01 X116.73 Y2.96 M03 S0 F2000
G01 Z1 F300
G01 X116.4 Y3.13 M03 S255 F150
G01 X116.98 Y2.88 M03 S0 F2000
G01 Z1 F300
G01 X116.73 Y2.96 M03 S255 F150
G01 X117.14 Y2.84 M03 S0 F2000
G01 Z1 F300
G01 X116.98 Y2.88 M03 S255 F150
G01 X117.19 Y2.86 M03 S0 F2000
G01 Z1 F300
G01 X117.14 Y2.84 M03 S255 F150
G01 X117.31 Y2.93 M03 S0 F2000
G01 Z1 F300
G01 X117.19 Y2.86 M03 S255 F150
G01 X117.53 Y3.01 M03 S0 F2000
G01 Z1 F300
G01 X117.31 Y2.93 M03 S255 F150
G01 X117.81 Y3.14 M03 S0 F2000
G01 Z1 F300
G01 X117.53 Y3.01 M03 S255 F150
G01 X118.54 Y3.45 M03 S0 F2000
G01 Z1 F300
G01 X117.81 Y3.14 M03 S255 F150
G01 X119.44 Y3.8 M03 S0 F2000
G01 Z1 F300
G01 X118.54 Y3.45 M03 S255 F150
G01 X120.43 Y4.15 M03 S0 F2000
G01 Z1 F300
G01 X119.44 Y3.8 M03 S255 F150
G01 X121.45 Y4.46 M03 S0 F2000
G01 Z1 F300
G01 X120.43 Y4.15 M03 S255 F150
G01 X122.41 Y4.66 M03 S0 F2000
G01 Z1 F300
G01 X121.45 Y4.46 M03 S255 F150
G01 X123.26 Y4.74 M03 S0 F2000
G01 Z1 F300
G01 X122.41 Y4.66 M03 S255 F150
G01 X124.13 Y4.64 M03 S0 F2000
G01 Z1 F300
G01 X123.26 Y4.74 M03 S255 F150
G01 X125.11 Y4.39 M03 S0 F2000
G01 Z1 F300
G01 X124.13 Y4.64 M03 S255 F150
G01 X126.14 Y4.05 M03 S0 F2000
G01 Z1 F300
G01 X125.11 Y4.39 M03 S255 F150
G01 X127.15 Y3.65 M03 S0 F2000
G01 Z1 F300
G01 X126.14 Y4.05 M03 S255 F150
G01 X128.06 Y3.26 M03 S0 F2000
G01 Z1 F300
G01 X127.15 Y3.65 M03 S255 F150
G01 X128.8 Y2.93 M03 S0 F2000
G01 Z1 F300
G01 X128.06 Y3.26 M03 S255 F150
G01 X129.08 Y2.8 M03 S0 F2000
G01 Z1 F300
G01 X128.8 Y2.93 M03 S255 F150
G01 X129.29 Y2.69 M03 S0 F2000
G01 Z1 F300
G01 X129.08 Y2.8 M03 S255 F150
G01 X129.43 Y2.63 M03 S0 F2000
G01 Z1 F300
G01 X129.29 Y2.69 M03 S255 F150
G01 X129.48 Y2.6 M03 S0 F2000
G01 Z1 F300
G01 X129.43 Y2.63 M03 S255 F150
G01 X129.64 Y2.73 M03 S0 F2000
G01 Z1 F300
G01 X129.48 Y2.6 M03 S255 F150
G01 X129.63 Y2.72 M03 S0 F2000
G01 Z1 F300
G01 X129.63 Y0.1 M03 S255 F150
G01 Z1 F300
G01 X134.13 Y0.1 M03 S255 F150
G00 M03 S0
M05
G01 X5.39 Y11.33 M03 S0 F2000
M03 S0
G01 Z1.5 F300
G01 X5.35 Y10.9 M03 S255 F150
G01 X5.53 Y11.73 M03 S0 F2000
G01 Z1.5 F300
G01 X5.39 Y11.33 M03 S255 F150
G01 X5.99 Y12.43 M03 S0 F2000
G01 Z1.5 F300
G01 X5.53 Y11.73 M03 S255 F150
G01 X6.69 Y12.89 M03 S0 F2000
G01 Z1.5 F300
G01 X5.99 Y12.43 M03 S255 F150
G01 X7.09 Y13.01 M03 S0 F2000
G01 Z1.5 F300
G01 X6.69 Y12.89 M03 S255 F150
G01 X7.5 Y13.05 M03 S0 F2000
G01 Z1.5 F300
G01 X7.09 Y13.01 M03 S255 F150
G01 X7.93 Y13.01 M03 S0 F2000
G01 Z1.5 F300
G01 X7.5 Y13.05 M03 S255 F150
G01 X8.33 Y12.89 M03 S0 F2000
G01 Z1.5 F300
G01 X7.93 Y13.01 M03 S255 F150
G01 X9.03 Y12.43 M03 S0 F2000
G01 Z1.5 F300
G01 X8.33 Y12.89 M03 S255 F150
G01 X9.49 Y11.73 M03 S0 F2000
G01 Z1.5 F300
G01 X9.03 Y12.43 M03 S255 F150
G01 X9.61 Y11.33 M03 S0 F2000
G01 Z1.5 F300
G01 X9.49 Y11.73 M03 S255 F150
G01 X9.65 Y10.9 M03 S0 F2000
G01 Z1.5 F300
G01 X9.61 Y11.33 M03 S255 F150
G01 X9.61 Y10.46 M03 S0 F2000
G01 Z1.5 F300
G01 X9.65 Y10.9 M03 S255 F150
G01 X9.47 Y10.06 M03 S0 F2000
G01 Z1.5 F300
G01 X9.61 Y10.46 M03 S255 F150
G01 X9.03 Y9.38 M03 S0 F2000
G01 Z1.5 F300
G01 X9.47 Y10.06 M03 S255 F150
G01 X8.34 Y8.92 M03 S0 F2000
G01 Z1.5 F300
G01 X9.03 Y9.38 M03 S255 F150
G01 X7.94 Y8.79 M03 S0 F2000
G01 Z1.5 F300
G01 X8.34 Y8.92 M03 S255 F150
G01 X7.5 Y8.75 M03 S0 F2000
G01 Z1.5 F300
G01 X7.94 Y8.79 M03 S255 F150
G01 X7.06 Y8.79 M03 S0 F2000
G01 Z1.5 F300
G01 X7.5 Y8.75 M03 S255 F150
G01 X6.66 Y8.92 M03 S0 F2000
G01 Z1.5 F300
G01 X7.06 Y8.79 M03 S255 F150
G01 X5.98 Y9.38 M03 S0 F2000
G01 Z1.5 F300
G01 X6.66 Y8.92 M03 S255 F150
G01 X5.53 Y10.06 M03 S0 F2000
G01 Z1.5 F300
G01 X5.98 Y9.38 M03 S255 F150
G01 X5.39 Y10.46 M03 S0 F2000
G01 Z1.5 F300
G01 X5.53 Y10.06 M03 S255 F150
G01 X5.35 Y10.9 M03 S0 F2000
G01 Z1.5 F300
G01 X5.39 Y10.46 M03 S255 F150
G01 X5.35 Y10.9 M03 S0 F2000
G01 Z1.5 F300
G01 X5.35 Y10.9 M03 S255 F150
G01 X95.75 Y11.63 M03 S0 F2000
G01 Z1.5 F300
G01 X95.6 Y10.9 M03 S255 F150
G01 X96.16 Y12.25 M03 S0 F2000
G01 Z1.5 F300
G01 X95.75 Y11.63 M03 S255 F150
G01 X96.77 Y12.66 M03 S0 F2000
G01 Z1.5 F300
G01 X96.16 Y12.25 M03 S255 F150
G01 X97.5 Y12.8 M03 S0 F2000
G01 Z1.5 F300
G01 X96.77 Y12.66 M03 S255 F150
G01 X98.24 Y12.66 M03 S0 F2000
G01 Z1.5 F300
G01 X97.5 Y12.8 M03 S255 F150
G01 X98.85 Y12.25 M03 S0 F2000
G01 Z1.5 F300
G01 X98.24 Y12.66 M03 S255 F150
G01 X99.26 Y11.63 M03 S0 F2000
G01 Z1.5 F300
G01 X98.85 Y12.25 M03 S255 F150
G01 X99.4 Y10.9 M03 S0 F2000
G01 Z1.5 F300
G01 X99.26 Y11.63 M03 S255 F150
G01 X99.36 Y10.51 M03 S0 F2000
G01 Z1.5 F300
G01 X99.4 Y10.9 M03 S255 F150
G01 X99.25 Y10.16 M03 S0 F2000
G01 Z1.5 F300
G01 X99.36 Y10.51 M03 S255 F150
G01 X98.85 Y9.56 M03 S0 F2000
G01 Z1.5 F300
G01 X99.25 Y10.16 M03 S255 F150
G01 X98.24 Y9.15 M03 S0 F2000
G01 Z1.5 F300
G01 X98.85 Y9.56 M03 S255 F150
G01 X97.89 Y9.04 M03 S0 F2000
G01 Z1.5 F300
G01 X98.24 Y9.15 M03 S255 F150
G01 X97.5 Y9 M03 S0 F2000
G01 Z1.5 F300
G01 X97.89 Y9.04 M03 S255 F150
G01 X97.13 Y9.04 M03 S0 F2000
G01 Z1.5 F300
G01 X97.5 Y9 M03 S255 F150
G01 X96.76 Y9.15 M03 S0 F2000
G01 Z1.5 F300
G01 X97.13 Y9.04 M03 S255 F150
G01 X96.16 Y9.56 M03 S0 F2000
G01 Z1.5 F300
G01 X96.76 Y9.15 M03 S255 F150
G01 X95.75 Y10.16 M03 S0 F2000
G01 Z1.5 F300
G01 X96.16 Y9.56 M03 S255 F150
G01 X95.64 Y10.51 M03 S0 F2000
G01 Z1.5 F300
G01 X95.75 Y10.16 M03 S255 F150
G01 X95.6 Y10.9 M03 S0 F2000
G01 Z1.5 F300
G01 X95.64 Y10.51 M03 S255 F150
G01 X95.6 Y10.9 M03 S0 F2000
G01 Z1.5 F300
G01 X95.6 Y10.9 M03 S255 F150
G01 X104.86 Y10.14 M03 S0 F2000
G01 Z1.5 F300
G01 X104.9 Y10.9 M03 S255 F150
G01 X104.75 Y9.41 M03 S0 F2000
G01 Z1.5 F300
G01 X104.86 Y10.14 M03 S255 F150
G01 X104.31 Y8.03 M03 S0 F2000
G01 Z1.5 F300
G01 X104.75 Y9.41 M03 S255 F150
G01 X103.64 Y6.76 M03 S0 F2000
G01 Z1.5 F300
G01 X104.31 Y8.03 M03 S255 F150
G01 X102.74 Y5.66 M03 S0 F2000
G01 Z1.5 F300
G01 X103.64 Y6.76 M03 S255 F150
G01 X101.64 Y4.76 M03 S0 F2000
G01 Z1.5 F300
G01 X102.74 Y5.66 M03 S255 F150
G01 X100.38 Y4.09 M03 S0 F2000
G01 Z1.5 F300
G01 X101.64 Y4.76 M03 S255 F150
G01 X98.99 Y3.65 M03 S0 F2000
G01 Z1.5 F300
G01 X100.38 Y4.09 M03 S255 F150
G01 X98.26 Y3.54 M03 S0 F2000
G01 Z1.5 F300
G01 X98.99 Y3.65 M03 S255 F150
G01 X97.5 Y3.5 M03 S0 F2000
G01 Z1.5 F300
G01 X98.26 Y3.54 M03 S255 F150
G01 X97.41 Y3.5 M03 S0 F2000
G01 Z1.5 F300
G01 X97.5 Y3.5 M03 S255 F150
G01 X97.16 Y3.53 M03 S0 F2000
G01 Z1.5 F300
G01 X97.41 Y3.5 M03 S255 F150
G01 X96.75 Y3.55 M03 S0 F2000
G01 Z1.5 F300
G01 X97.16 Y3.53 M03 S255 F150
G01 X96.19 Y3.59 M03 S0 F2000
G01 Z1.5 F300
G01 X96.75 Y3.55 M03 S255 F150
G01 X95.49 Y3.63 M03 S0 F2000
G01 Z1.5 F300
G01 X96.19 Y3.59 M03 S255 F150
G01 X94.65 Y3.68 M03 S0 F2000
G01 Z1.5 F300
G01 X95.49 Y3.63 M03 S255 F150
G01 X93.69 Y3.74 M03 S0 F2000
G01 Z1.5 F300
G01 X94.65 Y3.68 M03 S255 F150
G01 X92.61 Y3.8 M03 S0 F2000
G01 Z1.5 F300
G01 X93.69 Y3.74 M03 S255 F150
G01 X91.43 Y3.86 M03 S0 F2000
G01 Z1.5 F300
G01 X92.61 Y3.8 M03 S255 F150
G01 X90.14 Y3.94 M03 S0 F2000
G01 Z1.5 F300
G01 X91.43 Y3.86 M03 S255 F150
G01 X88.75 Y4.03 M03 S0 F2000
G01 Z1.5 F300
G01 X90.14 Y3.94 M03 S255 F150
G01 X87.29 Y4.1 M03 S0 F2000
G01 Z1.5 F300
G01 X88.75 Y4.03 M03 S255 F150
G01 X85.74 Y4.19 M03 S0 F2000
G01 Z1.5 F300
G01 X87.29 Y4.1 M03 S255 F150
G01 X84.13 Y4.28 M03 S0 F2000
G01 Z1.5 F300
G01 X85.74 Y4.19 M03 S255 F150
G01 X80.74 Y4.45 M03 S0 F2000
G01 Z1.5 F300
G01 X84.13 Y4.28 M03 S255 F150
G01 X77.16 Y4.63 M03 S0 F2000
G01 Z1.5 F300
G01 X80.74 Y4.45 M03 S255 F150
G01 X73.49 Y4.8 M03 S0 F2000
G01 Z1.5 F300
G01 X77.16 Y4.63 M03 S255 F150
G01 X69.76 Y4.96 M03 S0 F2000
G01 Z1.5 F300
G01 X73.49 Y4.8 M03 S255 F150
G01 X66.06 Y5.1 M03 S0 F2000
G01 Z1.5 F300
G01 X69.76 Y4.96 M03 S255 F150
G01 X62.45 Y5.23 M03 S0 F2000
G01 Z1.5 F300
G01 X66.06 Y5.1 M03 S255 F150
G01 X58.99 Y5.31 M03 S0 F2000
G01 Z1.5 F300
G01 X62.45 Y5.23 M03 S255 F150
G01 X55.75 Y5.38 M03 S0 F2000
G01 Z1.5 F300
G01 X58.99 Y5.31 M03 S255 F150
G01 X54.23 Y5.4 M03 S0 F2000
G01 Z1.5 F300
G01 X55.75 Y5.38 M03 S255 F150
G01 X52.79 Y5.4 M03 S0 F2000
G01 Z1.5 F300
G01 X54.23 Y5.4 M03 S255 F150
G01 X51.33 Y5.4 M03 S0 F2000
G01 Z1.5 F300
G01 X52.79 Y5.4 M03 S255 F150
G01 X49.79 Y5.38 M03 S0 F2000
G01 Z1.5 F300
G01 X51.33 Y5.4 M03 S255 F150
G01 X46.5 Y5.33 M03 S0 F2000
G01 Z1.5 F300
G01 X49.79 Y5.38 M03 S255 F150
G01 X43 Y5.23 M03 S0 F2000
G01 Z1.5 F300
G01 X46.5 Y5.33 M03 S255 F150
G01 X39.34 Y5.11 M03 S0 F2000
G01 Z1.5 F300
G01 X43 Y5.23 M03 S255 F150
G01 X35.59 Y4.96 M03 S0 F2000
G01 Z1.5 F300
G01 X39.34 Y5.11 M03 S255 F150
G01 X31.81 Y4.8 M03 S0 F2000
G01 Z1.5 F300
G01 X35.59 Y4.96 M03 S255 F150
G01 X28.09 Y4.64 M03 S0 F2000
G01 Z1.5 F300
G01 X31.81 Y4.8 M03 S255 F150
G01 X24.48 Y4.45 M03 S0 F2000
G01 Z1.5 F300
G01 X28.09 Y4.64 M03 S255 F150
G01 X21.04 Y4.28 M03 S0 F2000
G01 Z1.5 F300
G01 X24.48 Y4.45 M03 S255 F150
G01 X19.4 Y4.19 M03 S0 F2000
G01 Z1.5 F300
G01 X21.04 Y4.28 M03 S255 F150
G01 X17.84 Y4.1 M03 S0 F2000
G01 Z1.5 F300
G01 X19.4 Y4.19 M03 S255 F150
G01 X16.36 Y4.03 M03 S0 F2000
G01 Z1.5 F300
G01 X17.84 Y4.1 M03 S255 F150
G01 X14.96 Y3.94 M03 S0 F2000
G01 Z1.5 F300
G01 X16.36 Y4.03 M03 S255 F150
G01 X13.65 Y3.86 M03 S0 F2000
G01 Z1.5 F300
G01 X14.96 Y3.94 M03 S255 F150
G01 X12.45 Y3.8 M03 S0 F2000
G01 Z1.5 F300
G01 X13.65 Y3.86 M03 S255 F150
G01 X11.35 Y3.74 M03 S0 F2000
G01 Z1.5 F300
G01 X12.45 Y3.8 M03 S255 F150
G01 X10.39 Y3.68 M03 S0 F2000
G01 Z1.5 F300
G01 X11.35 Y3.74 M03 S255 F150
G01 X9.54 Y3.63 M03 S0 F2000
G01 Z1.5 F300
G01 X10.39 Y3.68 M03 S255 F150
G01 X8.83 Y3.58 M03 S0 F2000
G01 Z1.5 F300
G01 X9.54 Y3.63 M03 S255 F150
G01 X8.25 Y3.55 M03 S0 F2000
G01 Z1.5 F300
G01 X8.83 Y3.58 M03 S255 F150
G01 X7.84 Y3.51 M03 S0 F2000
G01 Z1.5 F300
G01 X8.25 Y3.55 M03 S255 F150
G01 X7.59 Y3.5 M03 S0 F2000
G01 Z1.5 F300
G01 X7.84 Y3.51 M03 S255 F150
G01 X7.5 Y3.5 M03 S0 F2000
G01 Z1.5 F300
G01 X7.59 Y3.5 M03 S255 F150
G01 X6.75 Y3.54 M03 S0 F2000
G01 Z1.5 F300
G01 X7.5 Y3.5 M03 S255 F150
G01 X6.01 Y3.65 M03 S0 F2000
G01 Z1.5 F300
G01 X6.75 Y3.54 M03 S255 F150
G01 X4.63 Y4.09 M03 S0 F2000
G01 Z1.5 F300
G01 X6.01 Y3.65 M03 S255 F150
G01 X3.36 Y4.76 M03 S0 F2000
G01 Z1.5 F300
G01 X4.63 Y4.09 M03 S255 F150
G01 X2.28 Y5.66 M03 S0 F2000
G01 Z1.5 F300
G01 X3.36 Y4.76 M03 S255 F150
G01 X1.36 Y6.76 M03 S0 F2000
G01 Z1.5 F300
G01 X2.28 Y5.66 M03 S255 F150
G01 X0.69 Y8.03 M03 S0 F2000
G01 Z1.5 F300
G01 X1.36 Y6.76 M03 S255 F150
G01 X0.25 Y9.41 M03 S0 F2000
G01 Z1.5 F300
G01 X0.69 Y8.03 M03 S255 F150
G01 X0.14 Y10.14 M03 S0 F2000
G01 Z1.5 F300
G01 X0.25 Y9.41 M03 S255 F150
G01 X0.1 Y10.9 M03 S0 F2000
G01 Z1.5 F300
G01 X0.14 Y10.14 M03 S255 F150
G01 X0.14 Y11.66 M03 S0 F2000
G01 Z1.5 F300
G01 X0.1 Y10.9 M03 S255 F150
G01 X0.25 Y12.39 M03 S0 F2000
G01 Z1.5 F300
G01 X0.14 Y11.66 M03 S255 F150
G01 X0.69 Y13.78 M03 S0 F2000
G01 Z1.5 F300
G01 X0.25 Y12.39 M03 S255 F150
G01 X1.36 Y15.04 M03 S0 F2000
G01 Z1.5 F300
G01 X0.69 Y13.78 M03 S255 F150
G01 X2.28 Y16.14 M03 S0 F2000
G01 Z1.5 F300
G01 X1.36 Y15.04 M03 S255 F150
G01 X3.36 Y17.04 M03 S0 F2000
G01 Z1.5 F300
G01 X2.28 Y16.14 M03 S255 F150
G01 X4.63 Y17.71 M03 S0 F2000
G01 Z1.5 F300
G01 X3.36 Y17.04 M03 S255 F150
G01 X6.01 Y18.15 M03 S0 F2000
G01 Z1.5 F300
G01 X4.63 Y17.71 M03 S255 F150
G01 X6.75 Y18.26 M03 S0 F2000
G01 Z1.5 F300
G01 X6.01 Y18.15 M03 S255 F150
G01 X7.5 Y18.3 M03 S0 F2000
G01 Z1.5 F300
G01 X6.75 Y18.26 M03 S255 F150
G01 X7.59 Y18.3 M03 S0 F2000
G01 Z1.5 F300
G01 X7.5 Y18.3 M03 S255 F150
G01 X7.84 Y18.28 M03 S0 F2000
G01 Z1.5 F300
G01 X7.59 Y18.3 M03 S255 F150
G01 X8.26 Y18.25 M03 S0 F2000
G01 Z1.5 F300
G01 X7.84 Y18.28 M03 S255 F150
G01 X8.83 Y18.21 M03 S0 F2000
G01 Z1.5 F300
G01 X8.26 Y18.25 M03 S255 F150
G01 X9.54 Y18.16 M03 S0 F2000
G01 Z1.5 F300
G01 X8.83 Y18.21 M03 S255 F150
G01 X10.39 Y18.1 M03 S0 F2000
G01 Z1.5 F300
G01 X9.54 Y18.16 M03 S255 F150
G01 X11.36 Y18.04 M03 S0 F2000
G01 Z1.5 F300
G01 X10.39 Y18.1 M03 S255 F150
G01 X12.45 Y17.98 M03 S0 F2000
G01 Z1.5 F300
G01 X11.36 Y18.04 M03 S255 F150
G01 X13.65 Y17.9 M03 S0 F2000
G01 Z1.5 F300
G01 X12.45 Y17.98 M03 S255 F150
G01 X14.96 Y17.81 M03 S0 F2000
G01 Z1.5 F300
G01 X13.65 Y17.9 M03 S255 F150
G01 X16.36 Y17.73 M03 S0 F2000
G01 Z1.5 F300
G01 X14.96 Y17.81 M03 S255 F150
G01 X17.85 Y17.64 M03 S0 F2000
G01 Z1.5 F300
G01 X16.36 Y17.73 M03 S255 F150
G01 X19.41 Y17.54 M03 S0 F2000
G01 Z1.5 F300
G01 X17.85 Y17.64 M03 S255 F150
G01 X21.04 Y17.44 M03 S0 F2000
G01 Z1.5 F300
G01 X19.41 Y17.54 M03 S255 F150
G01 X24.48 Y17.25 M03 S0 F2000
G01 Z1.5 F300
G01 X21.04 Y17.44 M03 S255 F150
G01 X28.09 Y17.05 M03 S0 F2000
G01 Z1.5 F300
G01 X24.48 Y17.25 M03 S255 F150
G01 X31.81 Y16.85 M03 S0 F2000
G01 Z1.5 F300
G01 X28.09 Y17.05 M03 S255 F150
G01 X35.59 Y16.68 M03 S0 F2000
G01 Z1.5 F300
G01 X31.81 Y16.85 M03 S255 F150
G01 X39.33 Y16.51 M03 S0 F2000
G01 Z1.5 F300
G01 X35.59 Y16.68 M03 S255 F150
G01 X42.99 Y16.38 M03 S0 F2000
G01 Z1.5 F300
G01 X39.33 Y16.51 M03 S255 F150
G01 X46.5 Y16.26 M03 S0 F2000
G01 Z1.5 F300
G01 X42.99 Y16.38 M03 S255 F150
G01 X49.78 Y16.19 M03 S0 F2000
G01 Z1.5 F300
G01 X46.5 Y16.26 M03 S255 F150
G01 X51.31 Y16.16 M03 S0 F2000
G01 Z1.5 F300
G01 X49.78 Y16.19 M03 S255 F150
G01 X52.78 Y16.16 M03 S0 F2000
G01 Z1.5 F300
G01 X51.31 Y16.16 M03 S255 F150
G01 X54.21 Y16.16 M03 S0 F2000
G01 Z1.5 F300
G01 X52.78 Y16.16 M03 S255 F150
G01 X55.74 Y16.18 M03 S0 F2000
G01 Z1.5 F300
G01 X54.21 Y16.16 M03 S255 F150
G01 X58.99 Y16.24 M03 S0 F2000
G01 Z1.5 F300
G01 X55.74 Y16.18 M03 S255 F150
G01 X62.45 Y16.33 M03 S0 F2000
G01 Z1.5 F300
G01 X58.99 Y16.24 M03 S255 F150
G01 X66.06 Y16.45 M03 S0 F2000
G01 Z1.5 F300
G01 X62.45 Y16.33 M03 S255 F150
G01 X69.76 Y16.6 M03 S0 F2000
G01 Z1.5 F300
G01 X66.06 Y16.45 M03 S255 F150
G01 X73.49 Y16.76 M03 S0 F2000
G01 Z1.5 F300
G01 X69.76 Y16.6 M03 S255 F150
G01 X77.16 Y16.93 M03 S0 F2000
G01 Z1.5 F300
G01 X73.49 Y16.76 M03 S255 F150
G01 X80.74 Y17.11 M03 S0 F2000
G01 Z1.5 F300
G01 X77.16 Y16.93 M03 S255 F150
G01 X84.13 Y17.29 M03 S0 F2000
G01 Z1.5 F300
G01 X80.74 Y17.11 M03 S255 F150
G01 X85.74 Y17.38 M03 S0 F2000
G01 Z1.5 F300
G01 X84.13 Y17.29 M03 S255 F150
G01 X87.29 Y17.46 M03 S0 F2000
G01 Z1.5 F300
G01 X85.74 Y17.38 M03 S255 F150
G01 X88.75 Y17.55 M03 S0 F2000
G01 Z1.5 F300
G01 X87.29 Y17.46 M03 S255 F150
G01 X90.14 Y17.63 M03 S0 F2000
G01 Z1.5 F300
G01 X88.75 Y17.55 M03 S255 F150
G01 X91.43 Y17.7 M03 S0 F2000
G01 Z1.5 F300
G01 X90.14 Y17.63 M03 S255 F150
G01 X92.61 Y17.78 M03 S0 F2000
G01 Z1.5 F300
G01 X91.43 Y17.7 M03 S255 F150
G01 X93.69 Y17.84 M03 S0 F2000
G01 Z1.5 F300
G01 X92.61 Y17.78 M03 S255 F150
G01 X94.65 Y17.9 M03 S0 F2000
G01 Z1.5 F300
G01 X93.69 Y17.84 M03 S255 F150
G01 X95.49 Y17.95 M03 S0 F2000
G01 Z1.5 F300
G01 X94.65 Y17.9 M03 S255 F150
G01 X96.19 Y17.99 M03 S0 F2000
G01 Z1.5 F300
G01 X95.49 Y17.95 M03 S255 F150
G01 X96.75 Y18.03 M03 S0 F2000
G01 Z1.5 F300
G01 X96.19 Y17.99 M03 S255 F150
G01 X97.16 Y18.05 M03 S0 F2000
G01 Z1.5 F300
G01 X96.75 Y18.03 M03 S255 F150
G01 X97.41 Y18.08 M03 S0 F2000
G01 Z1.5 F300
G01 X97.16 Y18.05 M03 S255 F150
G01 X97.5 Y18.08 M03 S0 F2000
G01 Z1.5 F300
G01 X97.41 Y18.08 M03 S255 F150
G01 X98.99 Y17.94 M03 S0 F2000
G01 Z1.5 F300
G01 X97.5 Y18.08 M03 S255 F150
G01 X100.38 Y17.53 M03 S0 F2000
G01 Z1.5 F300
G01 X98.99 Y17.94 M03 S255 F150
G01 X101.64 Y16.89 M03 S0 F2000
G01 Z1.5 F300
G01 X100.38 Y17.53 M03 S255 F150
G01 X102.74 Y16.03 M03 S0 F2000
G01 Z1.5 F300
G01 X101.64 Y16.89 M03 S255 F150
G01 X103.64 Y14.96 M03 S0 F2000
G01 Z1.5 F300
G01 X102.74 Y16.03 M03 S255 F150
G01 X104.31 Y13.75 M03 S0 F2000
G01 Z1.5 F300
G01 X103.64 Y14.96 M03 S255 F150
G01 X104.75 Y12.39 M03 S0 F2000
G01 Z1.5 F300
G01 X104.31 Y13.75 M03 S255 F150
G01 X104.86 Y11.65 M03 S0 F2000
G01 Z1.5 F300
G01 X104.75 Y12.39 M03 S255 F150
G01 X104.9 Y10.9 M03 S0 F2000
G01 Z1.5 F300
G01 X104.86 Y11.65 M03 S255 F150
G01 X104.9 Y10.9 M03 S0 F2000
G01 Z1.5 F300
G01 X104.9 Y10.9 M03 S255 F150
G01 X120.51 Y9.28 M03 S0 F2000
G01 Z1.5 F300
G01 X120.65 Y10 M03 S255 F150
G01 X120.1 Y8.66 M03 S0 F2000
G01 Z1.5 F300
G01 X120.51 Y9.28 M03 S255 F150
G01 X119.49 Y8.25 M03 S0 F2000
G01 Z1.5 F300
G01 X120.1 Y8.66 M03 S255 F150
G01 X118.75 Y8.1 M03 S0 F2000
G01 Z1.5 F300
G01 X119.49 Y8.25 M03 S255 F150
G01 X118.03 Y8.25 M03 S0 F2000
G01 Z1.5 F300
G01 X118.75 Y8.1 M03 S255 F150
G01 X117.41 Y8.66 M03 S0 F2000
G01 Z1.5 F300
G01 X118.03 Y8.25 M03 S255 F150
G01 X117 Y9.28 M03 S0 F2000
G01 Z1.5 F300
G01 X117.41 Y8.66 M03 S255 F150
G01 X116.85 Y10 M03 S0 F2000
G01 Z1.5 F300
G01 X117 Y9.28 M03 S255 F150
G01 X116.89 Y10.39 M03 S0 F2000
G01 Z1.5 F300
G01 X116.85 Y10 M03 S255 F150
G01 X117 Y10.74 M03 S0 F2000
G01 Z1.5 F300
G01 X116.89 Y10.39 M03 S255 F150
G01 X117.41 Y11.35 M03 S0 F2000
G01 Z1.5 F300
G01 X117 Y10.74 M03 S255 F150
G01 X118.01 Y11.75 M03 S0 F2000
G01 Z1.5 F300
G01 X117.41 Y11.35 M03 S255 F150
G01 X118.36 Y11.86 M03 S0 F2000
G01 Z1.5 F300
G01 X118.01 Y11.75 M03 S255 F150
G01 X118.75 Y11.9 M03 S0 F2000
G01 Z1.5 F300
G01 X118.36 Y11.86 M03 S255 F150
G01 X119.14 Y11.86 M03 S0 F2000
G01 Z1.5 F300
G01 X118.75 Y11.9 M03 S255 F150
G01 X119.49 Y11.75 M03 S0 F2000
G01 Z1.5 F300
G01 X119.14 Y11.86 M03 S255 F150
G01 X120.1 Y11.35 M03 S0 F2000
G01 Z1.5 F300
G01 X119.49 Y11.75 M03 S255 F150
G01 X120.5 Y10.74 M03 S0 F2000
G01 Z1.5 F300
G01 X120.1 Y11.35 M03 S255 F150
G01 X120.61 Y10.39 M03 S0 F2000
G01 Z1.5 F300
G01 X120.5 Y10.74 M03 S255 F150
G01 X120.65 Y10 M03 S0 F2000
G01 Z1.5 F300
G01 X120.61 Y10.39 M03 S255 F150
G01 X120.65 Y10 M03 S0 F2000
G01 Z1.5 F300
G01 X120.65 Y10 M03 S255 F150
G01 X134.13 Y0.1 M03 S0 F2000
G01 Z1.5 F300
G01 X134.13 Y19.9 M03 S255 F150
G01 Z1.5 F300
G01 X129.63 Y19.9 M03 S255 F150
G01 Z1.5 F300
G01 X129.63 Y17.28 M03 S255 F150
G01 X129.48 Y17.4 M03 S0 F2000
G01 Z1.5 F300
G01 X129.64 Y17.29 M03 S255 F150
G01 X129.43 Y17.38 M03 S0 F2000
G01 Z1.5 F300
G01 X129.48 Y17.4 M03 S255 F150
G01 X129.29 Y17.31 M03 S0 F2000
G01 Z1.5 F300
G01 X129.43 Y17.38 M03 S255 F150
G01 X129.08 Y17.23 M03 S0 F2000
G01 Z1.5 F300
G01 X129.29 Y17.31 M03 S255 F150
G01 X128.8 Y17.1 M03 S0 F2000
G01 Z1.5 F300
G01 X129.08 Y17.23 M03 S255 F150
G01 X128.06 Y16.8 M03 S0 F2000
G01 Z1.5 F300
G01 X128.8 Y17.1 M03 S255 F150
G01 X127.15 Y16.45 M03 S0 F2000
G01 Z1.5 F300
G01 X128.06 Y16.8 M03 S255 F150
G01 X126.14 Y16.1 M03 S0 F2000
G01 Z1.5 F300
G01 X127.15 Y16.45 M03 S255 F150
G01 X125.11 Y15.8 M03 S0 F2000
G01 Z1.5 F300
G01 X126.14 Y16.1 M03 S255 F150
G01 X124.13 Y15.59 M03 S0 F2000
G01 Z1.5 F300
G01 X125.11 Y15.8 M03 S255 F150
G01 X123.26 Y15.5 M03 S0 F2000
G01 Z1.5 F300
G01 X124.13 Y15.59 M03 S255 F150
G01 X122.41 Y15.59 M03 S0 F2000
G01 Z1.5 F300
G01 X123.26 Y15.5 M03 S255 F150
G01 X121.44 Y15.8 M03 S0 F2000
G01 Z1.5 F300
G01 X122.41 Y15.59 M03 S255 F150
G01 X120.43 Y16.11 M03 S0 F2000
G01 Z1.5 F300
G01 X121.44 Y15.8 M03 S255 F150
G01 X119.44 Y16.45 M03 S0 F2000
G01 Z1.5 F300
G01 X120.43 Y16.11 M03 S255 F150
G01 X118.54 Y16.8 M03 S0 F2000
G01 Z1.5 F300
G01 X119.44 Y16.45 M03 S255 F150
G01 X117.81 Y17.1 M03 S0 F2000
G01 Z1.5 F300
G01 X118.54 Y16.8 M03 S255 F150
G01 X117.53 Y17.23 M03 S0 F2000
G01 Z1.5 F300
G01 X117.81 Y17.1 M03 S255 F150
G01 X117.31 Y17.33 M03 S0 F2000
G01 Z1.5 F300
G01 X117.53 Y17.23 M03 S255 F150
G01 X117.19 Y17.38 M03 S0 F2000
G01 Z1.5 F300
G01 X117.31 Y17.33 M03 S255 F150
G01 X117.14 Y17.4 M03 S0 F2000
G01 Z1.5 F300
G01 X117.19 Y17.38 M03 S255 F150
G01 X116.98 Y17.36 M03 S0 F2000
G01 Z1.5 F300
G01 X117.14 Y17.4 M03 S255 F150
G01 X116.73 Y17.24 M03 S0 F2000
G01 Z1.5 F300
G01 X116.98 Y17.36 M03 S255 F150
G01 X116.4 Y17.05 M03 S0 F2000
G01 Z1.5 F300
G01 X116.73 Y17.24 M03 S255 F150
G01 X116 Y16.78 M03 S0 F2000
G01 Z1.5 F300
G01 X116.4 Y17.05 M03 S255 F150
G01 X115.06 Y16.06 M03 S0 F2000
G01 Z1.5 F300
G01 X116 Y16.78 M03 S255 F150
G01 X114.04 Y15.11 M03 S0 F2000
G01 Z1.5 F300
G01 X115.06 Y16.06 M03 S255 F150
G01 X113.04 Y13.96 M03 S0 F2000
G01 Z1.5 F300
G01 X114.04 Y15.11 M03 S255 F150
G01 X112.19 Y12.68 M03 S0 F2000
G01 Z1.5 F300
G01 X113.04 Y13.96 M03 S255 F150
G01 X111.85 Y11.98 M03 S0 F2000
G01 Z1.5 F300
G01 X112.19 Y12.68 M03 S255 F150
G01 X111.59 Y11.25 M03 S0 F2000
G01 Z1.5 F300
G01 X111.85 Y11.98 M03 S255 F150
G01 X111.43 Y10.51 M03 S0 F2000
G01 Z1.5 F300
G01 X111.59 Y11.25 M03 S255 F150
G01 X111.36 Y9.75 M03 S0 F2000
G01 Z1.5 F300
G01 X111.43 Y10.51 M03 S255 F150
G01 X111.43 Y9 M03 S0 F2000
G01 Z1.5 F300
G01 X111.36 Y9.75 M03 S255 F150
G01 X111.59 Y8.28 M03 S0 F2000
G01 Z1.5 F300
G01 X111.43 Y9 M03 S255 F150
G01 X111.85 Y7.6 M03 S0 F2000
G01 Z1.5 F300
G01 X111.59 Y8.28 M03 S255 F150
G01 X112.19 Y6.95 M03 S0 F2000
G01 Z1.5 F300
G01 X111.85 Y7.6 M03 S255 F150
G01 X113.04 Y5.76 M03 S0 F2000
G01 Z1.5 F300
G01 X112.19 Y6.95 M03 S255 F150
G01 X114.04 Y4.76 M03 S0 F2000
G01 Z1.5 F300
G01 X113.04 Y5.76 M03 S255 F150
G01 X115.06 Y3.95 M03 S0 F2000
G01 Z1.5 F300
G01 X114.04 Y4.76 M03 S255 F150
G01 X116 Y3.34 M03 S0 F2000
G01 Z1.5 F300
G01 X115.06 Y3.95 M03 S255 F150
G01 X116.4 Y3.13 M03 S0 F2000
G01 Z1.5 F300
G01 X116 Y3.34 M03 S255 F150
G01 X116.73 Y2.96 M03 S0 F2000
G01 Z1.5 F300
G01 X116.4 Y3.13 M03 S255 F150
G01 X116.98 Y2.88 M03 S0 F2000
G01 Z1.5 F300
G01 X116.73 Y2.96 M03 S255 F150
G01 X117.14 Y2.84 M03 S0 F2000
G01 Z1.5 F300
G01 X116.98 Y2.88 M03 S255 F150
G01 X117.19 Y2.86 M03 S0 F2000
G01 Z1.5 F300
G01 X117.14 Y2.84 M03 S255 F150
G01 X117.31 Y2.93 M03 S0 F2000
G01 Z1.5 F300
G01 X117.19 Y2.86 M03 S255 F150
G01 X117.53 Y3.01 M03 S0 F2000
G01 Z1.5 F300
G01 X117.31 Y2.93 M03 S255 F150
G01 X117.81 Y3.14 M03 S0 F2000
G01 Z1.5 F300
G01 X117.53 Y3.01 M03 S255 F150
G01 X118.54 Y3.45 M03 S0 F2000
G01 Z1.5 F300
G01 X117.81 Y3.14 M03 S255 F150
G01 X119.44 Y3.8 M03 S0 F2000
G01 Z1.5 F300
G01 X118.54 Y3.45 M03 S255 F150
G01 X120.43 Y4.15 M03 S0 F2000
G01 Z1.5 F300
G01 X119.44 Y3.8 M03 S255 F150
G01 X121.45 Y4.46 M03 S0 F2000
G01 Z1.5 F300
G01 X120.43 Y4.15 M03 S255 F150
G01 X122.41 Y4.66 M03 S0 F2000
G01 Z1.5 F300
G01 X121.45 Y4.46 M03 S255 F150
G01 X123.26 Y4.74 M03 S0 F2000
G01 Z1.5 F300
G01 X122.41 Y4.66 M03 S255 F150
G01 X124.13 Y4.64 M03 S0 F2000
G01 Z1.5 F300
G01 X123.26 Y4.74 M03 S255 F150
G01 X125.11 Y4.39 M03 S0 F2000
G01 Z1.5 F300
G01 X124.13 Y4.64 M03 S255 F150
G01 X126.14 Y4.05 M03 S0 F2000
G01 Z1.5 F300
G01 X125.11 Y4.39 M03 S255 F150
G01 X127.15 Y3.65 M03 S0 F2000
G01 Z1.5 F300
G01 X126.14 Y4.05 M03 S255 F150
G01 X128.06 Y3.26 M03 S0 F2000
G01 Z1.5 F300
G01 X127.15 Y3.65 M03 S255 F150
G01 X128.8 Y2.93 M03 S0 F2000
G01 Z1.5 F300
G01 X128.06 Y3.26 M03 S255 F150
G01 X129.08 Y2.8 M03 S0 F2000
G01 Z1.5 F300
G01 X128.8 Y2.93 M03 S255 F150
G01 X129.29 Y2.69 M03 S0 F2000
G01 Z1.5 F300
G01 X129.08 Y2.8 M03 S255 F150
G01 X129.43 Y2.63 M03 S0 F2000
G01 Z1.5 F300
G01 X129.29 Y2.69 M03 S255 F150
G01 X129.48 Y2.6 M03 S0 F2000
G01 Z1.5 F300
G01 X129.43 Y2.63 M03 S255 F150
G01 X129.64 Y2.73 M03 S0 F2000
G01 Z1.5 F300
G01 X129.48 Y2.6 M03 S255 F150
G01 X129.63 Y2.72 M03 S0 F2000
G01 Z1.5 F300
G01 X129.63 Y0.1 M03 S255 F150
G01 Z1.5 F300
G01 X134.13 Y0.1 M03 S255 F150
G00 M03 S0
M05
G01 X5.39 Y11.33 M03 S0 F2000
M03 S0
G01 Z2 F300
G01 X5.35 Y10.9 M03 S255 F150
G01 X5.53 Y11.73 M03 S0 F2000
G01 Z2 F300
G01 X5.39 Y11.33 M03 S255 F150
G01 X5.99 Y12.43 M03 S0 F2000
G01 Z2 F300
G01 X5.53 Y11.73 M03 S255 F150
G01 X6.69 Y12.89 M03 S0 F2000
G01 Z2 F300
G01 X5.99 Y12.43 M03 S255 F150
G01 X7.09 Y13.01 M03 S0 F2000
G01 Z2 F300
G01 X6.69 Y12.89 M03 S255 F150
G01 X7.5 Y13.05 M03 S0 F2000
G01 Z2 F300
G01 X7.09 Y13.01 M03 S255 F150
G01 X7.93 Y13.01 M03 S0 F2000
G01 Z2 F300
G01 X7.5 Y13.05 M03 S255 F150
G01 X8.33 Y12.89 M03 S0 F2000
G01 Z2 F300
G01 X7.93 Y13.01 M03 S255 F150
G01 X9.03 Y12.43 M03 S0 F2000
G01 Z2 F300
G01 X8.33 Y12.89 M03 S255 F150
G01 X9.49 Y11.73 M03 S0 F2000
G01 Z2 F300
G01 X9.03 Y12.43 M03 S255 F150
G01 X9.61 Y11.33 M03 S0 F2000
G01 Z2 F300
G01 X9.49 Y11.73 M03 S255 F150
G01 X9.65 Y10.9 M03 S0 F2000
G01 Z2 F300
G01 X9.61 Y11.33 M03 S255 F150
G01 X9.61 Y10.46 M03 S0 F2000
G01 Z2 F300
G01 X9.65 Y10.9 M03 S255 F150
G01 X9.47 Y10.06 M03 S0 F2000
G01 Z2 F300
G01 X9.61 Y10.46 M03 S255 F150
G01 X9.03 Y9.38 M03 S0 F2000
G01 Z2 F300
G01 X9.47 Y10.06 M03 S255 F150
G01 X8.34 Y8.92 M03 S0 F2000
G01 Z2 F300
G01 X9.03 Y9.38 M03 S255 F150
G01 X7.94 Y8.79 M03 S0 F2000
G01 Z2 F300
G01 X8.34 Y8.92 M03 S255 F150
G01 X7.5 Y8.75 M03 S0 F2000
G01 Z2 F300
G01 X7.94 Y8.79 M03 S255 F150
G01 X7.06 Y8.79 M03 S0 F2000
G01 Z2 F300
G01 X7.5 Y8.75 M03 S255 F150
G01 X6.66 Y8.92 M03 S0 F2000
G01 Z2 F300
G01 X7.06 Y8.79 M03 S255 F150
G01 X5.98 Y9.38 M03 S0 F2000
G01 Z2 F300
G01 X6.66 Y8.92 M03 S255 F150
G01 X5.53 Y10.06 M03 S0 F2000
G01 Z2 F300
G01 X5.98 Y9.38 M03 S255 F150
G01 X5.39 Y10.46 M03 S0 F2000
G01 Z2 F300
G01 X5.53 Y10.06 M03 S255 F150
G01 X5.35 Y10.9 M03 S0 F2000
G01 Z2 F300
G01 X5.39 Y10.46 M03 S255 F150
G01 X5.35 Y10.9 M03 S0 F2000
G01 Z2 F300
G01 X5.35 Y10.9 M03 S255 F150
G01 X95.75 Y11.63 M03 S0 F2000
G01 Z2 F300
G01 X95.6 Y10.9 M03 S255 F150
G01 X96.16 Y12.25 M03 S0 F2000
G01 Z2 F300
G01 X95.75 Y11.63 M03 S255 F150
G01 X96.77 Y12.66 M03 S0 F2000
G01 Z2 F300
G01 X96.16 Y12.25 M03 S255 F150
G01 X97.5 Y12.8 M03 S0 F2000
G01 Z2 F300
G01 X96.77 Y12.66 M03 S255 F150
G01 X98.24 Y12.66 M03 S0 F2000
G01 Z2 F300
G01 X97.5 Y12.8 M03 S255 F150
G01 X98.85 Y12.25 M03 S0 F2000
G01 Z2 F300
G01 X98.24 Y12.66 M03 S255 F150
G01 X99.26 Y11.63 M03 S0 F2000
G01 Z2 F300
G01 X98.85 Y12.25 M03 S255 F150
G01 X99.4 Y10.9 M03 S0 F2000
G01 Z2 F300
G01 X99.26 Y11.63 M03 S255 F150
G01 X99.36 Y10.51 M03 S0 F2000
G01 Z2 F300
G01 X99.4 Y10.9 M03 S255 F150
G01 X99.25 Y10.16 M03 S0 F2000
G01 Z2 F300
G01 X99.36 Y10.51 M03 S255 F150
G01 X98.85 Y9.56 M03 S0 F2000
G01 Z2 F300
G01 X99.25 Y10.16 M03 S255 F150
G01 X98.24 Y9.15 M03 S0 F2000
G01 Z2 F300
G01 X98.85 Y9.56 M03 S255 F150
G01 X97.89 Y9.04 M03 S0 F2000
G01 Z2 F300
G01 X98.24 Y9.15 M03 S255 F150
G01 X97.5 Y9 M03 S0 F2000
G01 Z2 F300
G01 X97.89 Y9.04 M03 S255 F150
G01 X97.13 Y9.04 M03 S0 F2000
G01 Z2 F300
G01 X97.5 Y9 M03 S255 F150
G01 X96.76 Y9.15 M03 S0 F2000
G01 Z2 F300
G01 X97.13 Y9.04 M03 S255 F150
G01 X96.16 Y9.56 M03 S0 F2000
G01 Z2 F300
G01 X96.76 Y9.15 M03 S255 F150
G01 X95.75 Y10.16 M03 S0 F2000
G01 Z2 F300
G01 X96.16 Y9.56 M03 S255 F150
G01 X95.64 Y10.51 M03 S0 F2000
G01 Z2 F300
G01 X95.75 Y10.16 M03 S255 F150
G01 X95.6 Y10.9 M03 S0 F2000
G01 Z2 F300
G01 X95.64 Y10.51 M03 S255 F150
G01 X95.6 Y10.9 M03 S0 F2000
G01 Z2 F300
G01 X95.6 Y10.9 M03 S255 F150
G01 X104.86 Y10.14 M03 S0 F2000
G01 Z2 F300
G01 X104.9 Y10.9 M03 S255 F150
G01 X104.75 Y9.41 M03 S0 F2000
G01 Z2 F300
G01 X104.86 Y10.14 M03 S255 F150
G01 X104.31 Y8.03 M03 S0 F2000
G01 Z2 F300
G01 X104.75 Y9.41 M03 S255 F150
G01 X103.64 Y6.76 M03 S0 F2000
G01 Z2 F300
G01 X104.31 Y8.03 M03 S255 F150
G01 X102.74 Y5.66 M03 S0 F2000
G01 Z2 F300
G01 X103.64 Y6.76 M03 S255 F150
G01 X101.64 Y4.76 M03 S0 F2000
G01 Z2 F300
G01 X102.74 Y5.66 M03 S255 F150
G01 X100.38 Y4.09 M03 S0 F2000
G01 Z2 F300
G01 X101.64 Y4.76 M03 S255 F150
G01 X98.99 Y3.65 M03 S0 F2000
G01 Z2 F300
G01 X100.38 Y4.09 M03 S255 F150
G01 X98.26 Y3.54 M03 S0 F2000
G01 Z2 F300
G01 X98.99 Y3.65 M03 S255 F150
G01 X97.5 Y3.5 M03 S0 F2000
G01 Z2 F300
G01 X98.26 Y3.54 M03 S255 F150
G01 X97.41 Y3.5 M03 S0 F2000
G01 Z2 F300
G01 X97.5 Y3.5 M03 S255 F150
G01 X97.16 Y3.53 M03 S0 F2000
G01 Z2 F300
G01 X97.41 Y3.5 M03 S255 F150
G01 X96.75 Y3.55 M03 S0 F2000
G01 Z2 F300
G01 X97.16 Y3.53 M03 S255 F150
G01 X96.19 Y3.59 M03 S0 F2000
G01 Z2 F300
G01 X96.75 Y3.55 M03 S255 F150
G01 X95.49 Y3.63 M03 S0 F2000
G01 Z2 F300
G01 X96.19 Y3.59 M03 S255 F150
G01 X94.65 Y3.68 M03 S0 F2000
G01 Z2 F300
G01 X95.49 Y3.63 M03 S255 F150
G01 X93.69 Y3.74 M03 S0 F2000
G01 Z2 F300
G01 X94.65 Y3.68 M03 S255 F150
G01 X92.61 Y3.8 M03 S0 F2000
G01 Z2 F300
G01 X93.69 Y3.74 M03 S255 F150
G01 X91.43 Y3.86 M03 S0 F2000
G01 Z2 F300
G01 X92.61 Y3.8 M03 S255 F150
G01 X90.14 Y3.94 M03 S0 F2000
G01 Z2 F300
G01 X91.43 Y3.86 M03 S255 F150
G01 X88.75 Y4.03 M03 S0 F2000
G01 Z2 F300
G01 X90.14 Y3.94 M03 S255 F150
G01 X87.29 Y4.1 M03 S0 F2000
G01 Z2 F300
G01 X88.75 Y4.03 M03 S255 F150
G01 X85.74 Y4.19 M03 S0 F2000
G01 Z2 F300
G01 X87.29 Y4.1 M03 S255 F150
G01 X84.13 Y4.28 M03 S0 F2000
G01 Z2 F300
G01 X85.74 Y4.19 M03 S255 F150
G01 X80.74 Y4.45 M03 S0 F2000
G01 Z2 F300
G01 X84.13 Y4.28 M03 S255 F150
G01 X77.16 Y4.63 M03 S0 F2000
G01 Z2 F300
G01 X80.74 Y4.45 M03 S255 F150
G01 X73.49 Y4.8 M03 S0 F2000
G01 Z2 F300
G01 X77.16 Y4.63 M03 S255 F150
G01 X69.76 Y4.96 M03 S0 F2000
G01 Z2 F300
G01 X73.49 Y4.8 M03 S255 F150
G01 X66.06 Y5.1 M03 S0 F2000
G01 Z2 F300
G01 X69.76 Y4.96 M03 S255 F150
G01 X62.45 Y5.23 M03 S0 F2000
G01 Z2 F300
G01 X66.06 Y5.1 M03 S255 F150
G01 X58.99 Y5.31 M03 S0 F2000
G01 Z2 F300
G01 X62.45 Y5.23 M03 S255 F150
G01 X55.75 Y5.38 M03 S0 F2000
G01 Z2 F300
G01 X58.99 Y5.31 M03 S255 F150
G01 X54.23 Y5.4 M03 S0 F2000
G01 Z2 F300
G01 X55.75 Y5.38 M03 S255 F150
G01 X52.79 Y5.4 M03 S0 F2000
G01 Z2 F300
G01 X54.23 Y5.4 M03 S255 F150
G01 X51.33 Y5.4 M03 S0 F2000
G01 Z2 F300
G01 X52.79 Y5.4 M03 S255 F150
G01 X49.79 Y5.38 M03 S0 F2000
G01 Z2 F300
G01 X51.33 Y5.4 M03 S255 F150
G01 X46.5 Y5.33 M03 S0 F2000
G01 Z2 F300
G01 X49.79 Y5.38 M03 S255 F150
G01 X43 Y5.23 M03 S0 F2000
G01 Z2 F300
G01 X46.5 Y5.33 M03 S255 F150
G01 X39.34 Y5.11 M03 S0 F2000
G01 Z2 F300
G01 X43 Y5.23 M03 S255 F150
G01 X35.59 Y4.96 M03 S0 F2000
G01 Z2 F300
G01 X39.34 Y5.11 M03 S255 F150
G01 X31.81 Y4.8 M03 S0 F2000
G01 Z2 F300
G01 X35.59 Y4.96 M03 S255 F150
G01 X28.09 Y4.64 M03 S0 F2000
G01 Z2 F300
G01 X31.81 Y4.8 M03 S255 F150
G01 X24.48 Y4.45 M03 S0 F2000
G01 Z2 F300
G01 X28.09 Y4.64 M03 S255 F150
G01 X21.04 Y4.28 M03 S0 F2000
G01 Z2 F300
G01 X24.48 Y4.45 M03 S255 F150
G01 X19.4 Y4.19 M03 S0 F2000
G01 Z2 F300
G01 X21.04 Y4.28 M03 S255 F150
G01 X17.84 Y4.1 M03 S0 F2000
G01 Z2 F300
G01 X19.4 Y4.19 M03 S255 F150
G01 X16.36 Y4.03 M03 S0 F2000
G01 Z2 F300
G01 X17.84 Y4.1 M03 S255 F150
G01 X14.96 Y3.94 M03 S0 F2000
G01 Z2 F300
G01 X16.36 Y4.03 M03 S255 F150
G01 X13.65 Y3.86 M03 S0 F2000
G01 Z2 F300
G01 X14.96 Y3.94 M03 S255 F150
G01 X12.45 Y3.8 M03 S0 F2000
G01 Z2 F300
G01 X13.65 Y3.86 M03 S255 F150
G01 X11.35 Y3.74 M03 S0 F2000
G01 Z2 F300
G01 X12.45 Y3.8 M03 S255 F150
G01 X10.39 Y3.68 M03 S0 F2000
G01 Z2 F300
G01 X11.35 Y3.74 M03 S255 F150
G01 X9.54 Y3.63 M03 S0 F2000
G01 Z2 F300
G01 X10.39 Y3.68 M03 S255 F150
G01 X8.83 Y3.58 M03 S0 F2000
G01 Z2 F300
G01 X9.54 Y3.63 M03 S255 F150
G01 X8.25 Y3.55 M03 S0 F2000
G01 Z2 F300
G01 X8.83 Y3.58 M03 S255 F150
G01 X7.84 Y3.51 M03 S0 F2000
G01 Z2 F300
G01 X8.25 Y3.55 M03 S255 F150
G01 X7.59 Y3.5 M03 S0 F2000
G01 Z2 F300
G01 X7.84 Y3.51 M03 S255 F150
G01 X7.5 Y3.5 M03 S0 F2000
G01 Z2 F300
G01 X7.59 Y3.5 M03 S255 F150
G01 X6.75 Y3.54 M03 S0 F2000
G01 Z2 F300
G01 X7.5 Y3.5 M03 S255 F150
G01 X6.01 Y3.65 M03 S0 F2000
G01 Z2 F300
G01 X6.75 Y3.54 M03 S255 F150
G01 X4.63 Y4.09 M03 S0 F2000
G01 Z2 F300
G01 X6.01 Y3.65 M03 S255 F150
G01 X3.36 Y4.76 M03 S0 F2000
G01 Z2 F300
G01 X4.63 Y4.09 M03 S255 F150
G01 X2.28 Y5.66 M03 S0 F2000
G01 Z2 F300
G01 X3.36 Y4.76 M03 S255 F150
G01 X1.36 Y6.76 M03 S0 F2000
G01 Z2 F300
G01 X2.28 Y5.66 M03 S255 F150
G01 X0.69 Y8.03 M03 S0 F2000
G01 Z2 F300
G01 X1.36 Y6.76 M03 S255 F150
G01 X0.25 Y9.41 M03 S0 F2000
G01 Z2 F300
G01 X0.69 Y8.03 M03 S255 F150
G01 X0.14 Y10.14 M03 S0 F2000
G01 Z2 F300
G01 X0.25 Y9.41 M03 S255 F150
G01 X0.1 Y10.9 M03 S0 F2000
G01 Z2 F300
G01 X0.14 Y10.14 M03 S255 F150
G01 X0.14 Y11.66 M03 S0 F2000
G01 Z2 F300
G01 X0.1 Y10.9 M03 S255 F150
G01 X0.25 Y12.39 M03 S0 F2000
G01 Z2 F300
G01 X0.14 Y11.66 M03 S255 F150
G01 X0.69 Y13.78 M03 S0 F2000
G01 Z2 F300
G01 X0.25 Y12.39 M03 S255 F150
G01 X1.36 Y15.04 M03 S0 F2000
G01 Z2 F300
G01 X0.69 Y13.78 M03 S255 F150
G01 X2.28 Y16.14 M03 S0 F2000
G01 Z2 F300
G01 X1.36 Y15.04 M03 S255 F150
G01 X3.36 Y17.04 M03 S0 F2000
G01 Z2 F300
G01 X2.28 Y16.14 M03 S255 F150
G01 X4.63 Y17.71 M03 S0 F2000
G01 Z2 F300
G01 X3.36 Y17.04 M03 S255 F150
G01 X6.01 Y18.15 M03 S0 F2000
G01 Z2 F300
G01 X4.63 Y17.71 M03 S255 F150
G01 X6.75 Y18.26 M03 S0 F2000
G01 Z2 F300
G01 X6.01 Y18.15 M03 S255 F150
G01 X7.5 Y18.3 M03 S0 F2000
G01 Z2 F300
G01 X6.75 Y18.26 M03 S255 F150
G01 X7.59 Y18.3 M03 S0 F2000
G01 Z2 F300
G01 X7.5 Y18.3 M03 S255 F150
G01 X7.84 Y18.28 M03 S0 F2000
G01 Z2 F300
G01 X7.59 Y18.3 M03 S255 F150
G01 X8.26 Y18.25 M03 S0 F2000
G01 Z2 F300
G01 X7.84 Y18.28 M03 S255 F150
G01 X8.83 Y18.21 M03 S0 F2000
G01 Z2 F300
G01 X8.26 Y18.25 M03 S255 F150
G01 X9.54 Y18.16 M03 S0 F2000
G01 Z2 F300
G01 X8.83 Y18.21 M03 S255 F150
G01 X10.39 Y18.1 M03 S0 F2000
G01 Z2 F300
G01 X9.54 Y18.16 M03 S255 F150
G01 X11.36 Y18.04 M03 S0 F2000
G01 Z2 F300
G01 X10.39 Y18.1 M03 S255 F150
G01 X12.45 Y17.98 M03 S0 F2000
G01 Z2 F300
G01 X11.36 Y18.04 M03 S255 F150
G01 X13.65 Y17.9 M03 S0 F2000
G01 Z2 F300
G01 X12.45 Y17.98 M03 S255 F150
G01 X14.96 Y17.81 M03 S0 F2000
G01 Z2 F300
G01 X13.65 Y17.9 M03 S255 F150
G01 X16.36 Y17.73 M03 S0 F2000
G01 Z2 F300
G01 X14.96 Y17.81 M03 S255 F150
G01 X17.85 Y17.64 M03 S0 F2000
G01 Z2 F300
G01 X16.36 Y17.73 M03 S255 F150
G01 X19.41 Y17.54 M03 S0 F2000
G01 Z2 F300
G01 X17.85 Y17.64 M03 S255 F150
G01 X21.04 Y17.44 M03 S0 F2000
G01 Z2 F300
G01 X19.41 Y17.54 M03 S255 F150
G01 X24.48 Y17.25 M03 S0 F2000
G01 Z2 F300
G01 X21.04 Y17.44 M03 S255 F150
G01 X28.09 Y17.05 M03 S0 F2000
G01 Z2 F300
G01 X24.48 Y17.25 M03 S255 F150
G01 X31.81 Y16.85 M03 S0 F2000
G01 Z2 F300
G01 X28.09 Y17.05 M03 S255 F150
G01 X35.59 Y16.68 M03 S0 F2000
G01 Z2 F300
G01 X31.81 Y16.85 M03 S255 F150
G01 X39.33 Y16.51 M03 S0 F2000
G01 Z2 F300
G01 X35.59 Y16.68 M03 S255 F150
G01 X42.99 Y16.38 M03 S0 F2000
G01 Z2 F300
G01 X39.33 Y16.51 M03 S255 F150
G01 X46.5 Y16.26 M03 S0 F2000
G01 Z2 F300
G01 X42.99 Y16.38 M03 S255 F150
G01 X49.78 Y16.19 M03 S0 F2000
G01 Z2 F300
G01 X46.5 Y16.26 M03 S255 F150
G01 X51.31 Y16.16 M03 S0 F2000
G01 Z2 F300
G01 X49.78 Y16.19 M03 S255 F150
G01 X52.78 Y16.16 M03 S0 F2000
G01 Z2 F300
G01 X51.31 Y16.16 M03 S255 F150
G01 X54.21 Y16.16 M03 S0 F2000
G01 Z2 F300
G01 X52.78 Y16.16 M03 S255 F150
G01 X55.74 Y16.18 M03 S0 F2000
G01 Z2 F300
G01 X54.21 Y16.16 M03 S255 F150
G01 X58.99 Y16.24 M03 S0 F2000
G01 Z2 F300
G01 X55.74 Y16.18 M03 S255 F150
G01 X62.45 Y16.33 M03 S0 F2000
G01 Z2 F300
G01 X58.99 Y16.24 M03 S255 F150
G01 X66.06 Y16.45 M03 S0 F2000
G01 Z2 F300
G01 X62.45 Y16.33 M03 S255 F150
G01 X69.76 Y16.6 M03 S0 F2000
G01 Z2 F300
G01 X66.06 Y16.45 M03 S255 F150
G01 X73.49 Y16.76 M03 S0 F2000
G01 Z2 F300
G01 X69.76 Y16.6 M03 S255 F150
G01 X77.16 Y16.93 M03 S0 F2000
G01 Z2 F300
G01 X73.49 Y16.76 M03 S255 F150
G01 X80.74 Y17.11 M03 S0 F2000
G01 Z2 F300
G01 X77.16 Y16.93 M03 S255 F150
G01 X84.13 Y17.29 M03 S0 F2000
G01 Z2 F300
G01 X80.74 Y17.11 M03 S255 F150
G01 X85.74 Y17.38 M03 S0 F2000
G01 Z2 F300
G01 X84.13 Y17.29 M03 S255 F150
G01 X87.29 Y17.46 M03 S0 F2000
G01 Z2 F300
G01 X85.74 Y17.38 M03 S255 F150
G01 X88.75 Y17.55 M03 S0 F2000
G01 Z2 F300
G01 X87.29 Y17.46 M03 S255 F150
G01 X90.14 Y17.63 M03 S0 F2000
G01 Z2 F300
G01 X88.75 Y17.55 M03 S255 F150
G01 X91.43 Y17.7 M03 S0 F2000
G01 Z2 F300
G01 X90.14 Y17.63 M03 S255 F150
G01 X92.61 Y17.78 M03 S0 F2000
G01 Z2 F300
G01 X91.43 Y17.7 M03 S255 F150
G01 X93.69 Y17.84 M03 S0 F2000
G01 Z2 F300
G01 X92.61 Y17.78 M03 S255 F150
G01 X94.65 Y17.9 M03 S0 F2000
G01 Z2 F300
G01 X93.69 Y17.84 M03 S255 F150
G01 X95.49 Y17.95 M03 S0 F2000
G01 Z2 F300
G01 X94.65 Y17.9 M03 S255 F150
G01 X96.19 Y17.99 M03 S0 F2000
G01 Z2 F300
G01 X95.49 Y17.95 M03 S255 F150
G01 X96.75 Y18.03 M03 S0 F2000
G01 Z2 F300
G01 X96.19 Y17.99 M03 S255 F150
G01 X97.16 Y18.05 M03 S0 F2000
G01 Z2 F300
G01 X96.75 Y18.03 M03 S255 F150
G01 X97.41 Y18.08 M03 S0 F2000
G01 Z2 F300
G01 X97.16 Y18.05 M03 S255 F150
G01 X97.5 Y18.08 M03 S0 F2000
G01 Z2 F300
G01 X97.41 Y18.08 M03 S255 F150
G01 X98.99 Y17.94 M03 S0 F2000
G01 Z2 F300
G01 X97.5 Y18.08 M03 S255 F150
G01 X100.38 Y17.53 M03 S0 F2000
G01 Z2 F300
G01 X98.99 Y17.94 M03 S255 F150
G01 X101.64 Y16.89 M03 S0 F2000
G01 Z2 F300
G01 X100.38 Y17.53 M03 S255 F150
G01 X102.74 Y16.03 M03 S0 F2000
G01 Z2 F300
G01 X101.64 Y16.89 M03 S255 F150
G01 X103.64 Y14.96 M03 S0 F2000
G01 Z2 F300
G01 X102.74 Y16.03 M03 S255 F150
G01 X104.31 Y13.75 M03 S0 F2000
G01 Z2 F300
G01 X103.64 Y14.96 M03 S255 F150
G01 X104.75 Y12.39 M03 S0 F2000
G01 Z2 F300
G01 X104.31 Y13.75 M03 S255 F150
G01 X104.86 Y11.65 M03 S0 F2000
G01 Z2 F300
G01 X104.75 Y12.39 M03 S255 F150
G01 X104.9 Y10.9 M03 S0 F2000
G01 Z2 F300
G01 X104.86 Y11.65 M03 S255 F150
G01 X104.9 Y10.9 M03 S0 F2000
G01 Z2 F300
G01 X104.9 Y10.9 M03 S255 F150
G01 X120.51 Y9.28 M03 S0 F2000
G01 Z2 F300
G01 X120.65 Y10 M03 S255 F150
G01 X120.1 Y8.66 M03 S0 F2000
G01 Z2 F300
G01 X120.51 Y9.28 M03 S255 F150
G01 X119.49 Y8.25 M03 S0 F2000
G01 Z2 F300
G01 X120.1 Y8.66 M03 S255 F150
G01 X118.75 Y8.1 M03 S0 F2000
G01 Z2 F300
G01 X119.49 Y8.25 M03 S255 F150
G01 X118.03 Y8.25 M03 S0 F2000
G01 Z2 F300
G01 X118.75 Y8.1 M03 S255 F150
G01 X117.41 Y8.66 M03 S0 F2000
G01 Z2 F300
G01 X118.03 Y8.25 M03 S255 F150
G01 X117 Y9.28 M03 S0 F2000
G01 Z2 F300
G01 X117.41 Y8.66 M03 S255 F150
G01 X116.85 Y10 M03 S0 F2000
G01 Z2 F300
G01 X117 Y9.28 M03 S255 F150
G01 X116.89 Y10.39 M03 S0 F2000
G01 Z2 F300
G01 X116.85 Y10 M03 S255 F150
G01 X117 Y10.74 M03 S0 F2000
G01 Z2 F300
G01 X116.89 Y10.39 M03 S255 F150
G01 X117.41 Y11.35 M03 S0 F2000
G01 Z2 F300
G01 X117 Y10.74 M03 S255 F150
G01 X118.01 Y11.75 M03 S0 F2000
G01 Z2 F300
G01 X117.41 Y11.35 M03 S255 F150
