( Generated by T2Laser ) 
(  DXF2Gcode for Grbl  )
( Start Point: LL      )
( Frame Mode : Extents )
( X Maximum  : 199.9   )
( Y Maximum  : 35.8    )
( Laser Power: 255     )
( Vector Rate: 150     )
( Rapid Feed : 2000    )
( Vector Name: BirdSupport.dxf )
G21
G90
F150
M05
G00 Z0 
G01 X0.1 Y3.9 F2000
M03 S0
G01 Z0 F300
G01 X199.9 Y3.9 M03 S255 F150
G01 Z0 F300
G01 X199.9 Y0.1 M03 S255 F150
G01 Z0 F300
G01 X0.1 Y0.1 M03 S255 F150
G01 Z0 F300
G01 X0.1 Y3.9 M03 S255 F150
G01 X40.13 Y4 M03 S0 F2000
G01 Z0 F300
G01 X40.13 Y0 M03 S255 F150
G01 X80.13 Y4 M03 S0 F2000
G01 Z0 F300
G01 X80.13 Y0 M03 S255 F150
G01 X120.13 Y4 M03 S0 F2000
G01 Z0 F300
G01 X120.13 Y0 M03 S255 F150
G01 X160.13 Y4 M03 S0 F2000
G01 Z0 F300
G01 X160.13 Y0 M03 S255 F150
G01 X0.1 Y14.48 M03 S0 F2000
G01 Z0 F300
G01 X199.9 Y14.48 M03 S255 F150
G01 Z0 F300
G01 X199.9 Y10.68 M03 S255 F150
G01 Z0 F300
G01 X0.1 Y10.68 M03 S255 F150
G01 Z0 F300
G01 X0.1 Y14.48 M03 S255 F150
G01 X40.13 Y14.58 M03 S0 F2000
G01 Z0 F300
G01 X40.13 Y10.58 M03 S255 F150
G01 X80.13 Y14.58 M03 S0 F2000
G01 Z0 F300
G01 X80.13 Y10.58 M03 S255 F150
G01 X120.13 Y14.58 M03 S0 F2000
G01 Z0 F300
G01 X120.13 Y10.58 M03 S255 F150
G01 X160.13 Y14.58 M03 S0 F2000
G01 Z0 F300
G01 X160.13 Y10.58 M03 S255 F150
G01 X0.1 Y25.07 M03 S0 F2000
G01 Z0 F300
G01 X199.9 Y25.07 M03 S255 F150
G01 Z0 F300
G01 X199.9 Y21.27 M03 S255 F150
G01 Z0 F300
G01 X0.1 Y21.27 M03 S255 F150
G01 Z0 F300
G01 X0.1 Y25.07 M03 S255 F150
G01 X40.13 Y25.17 M03 S0 F2000
G01 Z0 F300
G01 X40.13 Y21.17 M03 S255 F150
G01 X80.13 Y25.17 M03 S0 F2000
G01 Z0 F300
G01 X80.13 Y21.17 M03 S255 F150
G01 X120.13 Y25.17 M03 S0 F2000
G01 Z0 F300
G01 X120.13 Y21.17 M03 S255 F150
G01 X160.13 Y25.17 M03 S0 F2000
G01 Z0 F300
G01 X160.13 Y21.17 M03 S255 F150
G01 X0.1 Y35.65 M03 S0 F2000
G01 Z0 F300
G01 X199.9 Y35.65 M03 S255 F150
G01 Z0 F300
G01 X199.9 Y31.85 M03 S255 F150
G01 Z0 F300
G01 X0.1 Y31.85 M03 S255 F150
G01 Z0 F300
G01 X0.1 Y35.65 M03 S255 F150
G01 X40.13 Y35.75 M03 S0 F2000
G01 Z0 F300
G01 X40.13 Y31.75 M03 S255 F150
G01 X80.13 Y35.75 M03 S0 F2000
G01 Z0 F300
G01 X80.13 Y31.75 M03 S255 F150
G01 X120.13 Y35.75 M03 S0 F2000
G01 Z0 F300
G01 X120.13 Y31.75 M03 S255 F150
G01 X160.13 Y35.75 M03 S0 F2000
G01 Z0 F300
G01 X160.13 Y31.75 M03 S255 F150
G00 M03 S0
M05
G01 X0.1 Y3.9 M03 S0 F2000
M03 S0
G01 Z0.5 F300
G01 X199.9 Y3.9 M03 S255 F150
G01 Z0.5 F300
G01 X199.9 Y0.1 M03 S255 F150
G01 Z0.5 F300
G01 X0.1 Y0.1 M03 S255 F150
G01 Z0.5 F300
G01 X0.1 Y3.9 M03 S255 F150
G01 X40.13 Y4 M03 S0 F2000
G01 Z0.5 F300
G01 X40.13 Y0 M03 S255 F150
G01 X80.13 Y4 M03 S0 F2000
G01 Z0.5 F300
G01 X80.13 Y0 M03 S255 F150
G01 X120.13 Y4 M03 S0 F2000
G01 Z0.5 F300
G01 X120.13 Y0 M03 S255 F150
G01 X160.13 Y4 M03 S0 F2000
G01 Z0.5 F300
G01 X160.13 Y0 M03 S255 F150
G01 X0.1 Y14.48 M03 S0 F2000
G01 Z0.5 F300
G01 X199.9 Y14.48 M03 S255 F150
G01 Z0.5 F300
G01 X199.9 Y10.68 M03 S255 F150
G01 Z0.5 F300
G01 X0.1 Y10.68 M03 S255 F150
G01 Z0.5 F300
G01 X0.1 Y14.48 M03 S255 F150
G01 X40.13 Y14.58 M03 S0 F2000
G01 Z0.5 F300
G01 X40.13 Y10.58 M03 S255 F150
G01 X80.13 Y14.58 M03 S0 F2000
G01 Z0.5 F300
G01 X80.13 Y10.58 M03 S255 F150
G01 X120.13 Y14.58 M03 S0 F2000
G01 Z0.5 F300
G01 X120.13 Y10.58 M03 S255 F150
G01 X160.13 Y14.58 M03 S0 F2000
G01 Z0.5 F300
G01 X160.13 Y10.58 M03 S255 F150
G01 X0.1 Y25.07 M03 S0 F2000
G01 Z0.5 F300
G01 X199.9 Y25.07 M03 S255 F150
G01 Z0.5 F300
G01 X199.9 Y21.27 M03 S255 F150
G01 Z0.5 F300
G01 X0.1 Y21.27 M03 S255 F150
G01 Z0.5 F300
G01 X0.1 Y25.07 M03 S255 F150
G01 X40.13 Y25.17 M03 S0 F2000
G01 Z0.5 F300
G01 X40.13 Y21.17 M03 S255 F150
G01 X80.13 Y25.17 M03 S0 F2000
G01 Z0.5 F300
G01 X80.13 Y21.17 M03 S255 F150
G01 X120.13 Y25.17 M03 S0 F2000
G01 Z0.5 F300
G01 X120.13 Y21.17 M03 S255 F150
G01 X160.13 Y25.17 M03 S0 F2000
G01 Z0.5 F300
G01 X160.13 Y21.17 M03 S255 F150
G01 X0.1 Y35.65 M03 S0 F2000
G01 Z0.5 F300
G01 X199.9 Y35.65 M03 S255 F150
G01 Z0.5 F300
G01 X199.9 Y31.85 M03 S255 F150
G01 Z0.5 F300
G01 X0.1 Y31.85 M03 S255 F150
G01 Z0.5 F300
G01 X0.1 Y35.65 M03 S255 F150
G01 X40.13 Y35.75 M03 S0 F2000
G01 Z0.5 F300
G01 X40.13 Y31.75 M03 S255 F150
G01 X80.13 Y35.75 M03 S0 F2000
G01 Z0.5 F300
G01 X80.13 Y31.75 M03 S255 F150
G01 X120.13 Y35.75 M03 S0 F2000
G01 Z0.5 F300
G01 X120.13 Y31.75 M03 S255 F150
G01 X160.13 Y35.75 M03 S0 F2000
G01 Z0.5 F300
G01 X160.13 Y31.75 M03 S255 F150
G00 M03 S0
M05
G01 X0.1 Y3.9 M03 S0 F2000
M03 S0
G01 Z1 F300
G01 X199.9 Y3.9 M03 S255 F150
G01 Z1 F300
G01 X199.9 Y0.1 M03 S255 F150
G01 Z1 F300
G01 X0.1 Y0.1 M03 S255 F150
G01 Z1 F300
G01 X0.1 Y3.9 M03 S255 F150
G01 X40.13 Y4 M03 S0 F2000
G01 Z1 F300
G01 X40.13 Y0 M03 S255 F150
G01 X80.13 Y4 M03 S0 F2000
G01 Z1 F300
G01 X80.13 Y0 M03 S255 F150
G01 X120.13 Y4 M03 S0 F2000
G01 Z1 F300
G01 X120.13 Y0 M03 S255 F150
G01 X160.13 Y4 M03 S0 F2000
G01 Z1 F300
G01 X160.13 Y0 M03 S255 F150
G01 X0.1 Y14.48 M03 S0 F2000
G01 Z1 F300
G01 X199.9 Y14.48 M03 S255 F150
G01 Z1 F300
G01 X199.9 Y10.68 M03 S255 F150
G01 Z1 F300
G01 X0.1 Y10.68 M03 S255 F150
G01 Z1 F300
G01 X0.1 Y14.48 M03 S255 F150
G01 X40.13 Y14.58 M03 S0 F2000
G01 Z1 F300
G01 X40.13 Y10.58 M03 S255 F150
G01 X80.13 Y14.58 M03 S0 F2000
G01 Z1 F300
G01 X80.13 Y10.58 M03 S255 F150
G01 X120.13 Y14.58 M03 S0 F2000
G01 Z1 F300
G01 X120.13 Y10.58 M03 S255 F150
G01 X160.13 Y14.58 M03 S0 F2000
G01 Z1 F300
G01 X160.13 Y10.58 M03 S255 F150
G01 X0.1 Y25.07 M03 S0 F2000
G01 Z1 F300
G01 X199.9 Y25.07 M03 S255 F150
G01 Z1 F300
G01 X199.9 Y21.27 M03 S255 F150
G01 Z1 F300
G01 X0.1 Y21.27 M03 S255 F150
G01 Z1 F300
G01 X0.1 Y25.07 M03 S255 F150
G01 X40.13 Y25.17 M03 S0 F2000
G01 Z1 F300
G01 X40.13 Y21.17 M03 S255 F150
G01 X80.13 Y25.17 M03 S0 F2000
G01 Z1 F300
G01 X80.13 Y21.17 M03 S255 F150
G01 X120.13 Y25.17 M03 S0 F2000
G01 Z1 F300
G01 X120.13 Y21.17 M03 S255 F150
G01 X160.13 Y25.17 M03 S0 F2000
G01 Z1 F300
G01 X160.13 Y21.17 M03 S255 F150
G01 X0.1 Y35.65 M03 S0 F2000
G01 Z1 F300
G01 X199.9 Y35.65 M03 S255 F150
G01 Z1 F300
G01 X199.9 Y31.85 M03 S255 F150
G01 Z1 F300
G01 X0.1 Y31.85 M03 S255 F150
G01 Z1 F300
G01 X0.1 Y35.65 M03 S255 F150
G01 X40.13 Y35.75 M03 S0 F2000
G01 Z1 F300
G01 X40.13 Y31.75 M03 S255 F150
G01 X80.13 Y35.75 M03 S0 F2000
G01 Z1 F300
G01 X80.13 Y31.75 M03 S255 F150
G01 X120.13 Y35.75 M03 S0 F2000
G01 Z1 F300
G01 X120.13 Y31.75 M03 S255 F150
G01 X160.13 Y35.75 M03 S0 F2000
G01 Z1 F300
G01 X160.13 Y31.75 M03 S255 F150
G00 M03 S0
M05
G01 X0.1 Y3.9 M03 S0 F2000
M03 S0
G01 Z1.5 F300
G01 X199.9 Y3.9 M03 S255 F150
G01 Z1.5 F300
G01 X199.9 Y0.1 M03 S255 F150
G01 Z1.5 F300
G01 X0.1 Y0.1 M03 S255 F150
G01 Z1.5 F300
G01 X0.1 Y3.9 M03 S255 F150
G01 X40.13 Y4 M03 S0 F2000
G01 Z1.5 F300
G01 X40.13 Y0 M03 S255 F150
G01 X80.13 Y4 M03 S0 F2000
G01 Z1.5 F300
G01 X80.13 Y0 M03 S255 F150
G01 X120.13 Y4 M03 S0 F2000
G01 Z1.5 F300
G01 X120.13 Y0 M03 S255 F150
G01 X160.13 Y4 M03 S0 F2000
G01 Z1.5 F300
G01 X160.13 Y0 M03 S255 F150
G01 X0.1 Y14.48 M03 S0 F2000
G01 Z1.5 F300
G01 X199.9 Y14.48 M03 S255 F150
G01 Z1.5 F300
G01 X199.9 Y10.68 M03 S255 F150
G01 Z1.5 F300
G01 X0.1 Y10.68 M03 S255 F150
G01 Z1.5 F300
G01 X0.1 Y14.48 M03 S255 F150
G01 X40.13 Y14.58 M03 S0 F2000
G01 Z1.5 F300
G01 X40.13 Y10.58 M03 S255 F150
G01 X80.13 Y14.58 M03 S0 F2000
G01 Z1.5 F300
G01 X80.13 Y10.58 M03 S255 F150
G01 X120.13 Y14.58 M03 S0 F2000
G01 Z1.5 F300
G01 X120.13 Y10.58 M03 S255 F150
G01 X160.13 Y14.58 M03 S0 F2000
G01 Z1.5 F300
G01 X160.13 Y10.58 M03 S255 F150
G01 X0.1 Y25.07 M03 S0 F2000
G01 Z1.5 F300
G01 X199.9 Y25.07 M03 S255 F150
G01 Z1.5 F300
G01 X199.9 Y21.27 M03 S255 F150
G01 Z1.5 F300
G01 X0.1 Y21.27 M03 S255 F150
G01 Z1.5 F300
G01 X0.1 Y25.07 M03 S255 F150
G01 X40.13 Y25.17 M03 S0 F2000
G01 Z1.5 F300
G01 X40.13 Y21.17 M03 S255 F150
G01 X80.13 Y25.17 M03 S0 F2000
G01 Z1.5 F300
G01 X80.13 Y21.17 M03 S255 F150
G01 X120.13 Y25.17 M03 S0 F2000
G01 Z1.5 F300
G01 X120.13 Y21.17 M03 S255 F150
G01 X160.13 Y25.17 M03 S0 F2000
G01 Z1.5 F300
G01 X160.13 Y21.17 M03 S255 F150
G01 X0.1 Y35.65 M03 S0 F2000
G01 Z1.5 F300
G01 X199.9 Y35.65 M03 S255 F150
G01 Z1.5 F300
G01 X199.9 Y31.85 M03 S255 F150
G01 Z1.5 F300
G01 X0.1 Y31.85 M03 S255 F150
G01 Z1.5 F300
G01 X0.1 Y35.65 M03 S255 F150
G01 X40.13 Y35.75 M03 S0 F2000
G01 Z1.5 F300
G01 X40.13 Y31.75 M03 S255 F150
G01 X80.13 Y35.75 M03 S0 F2000
G01 Z1.5 F300
G01 X80.13 Y31.75 M03 S255 F150
G01 X120.13 Y35.75 M03 S0 F2000
G01 Z1.5 F300
G01 X120.13 Y31.75 M03 S255 F150
G01 X160.13 Y35.75 M03 S0 F2000
G01 Z1.5 F300
G01 X160.13 Y31.75 M03 S255 F150
G00 M03 S0
M05
G01 X0.1 Y3.9 M03 S0 F2000
M03 S0
G01 Z2 F300
G01 X199.9 Y3.9 M03 S255 F150
G01 Z2 F300
G01 X199.9 Y0.1 M03 S255 F150
G01 Z2 F300
G01 X0.1 Y0.1 M03 S255 F150
G01 Z2 F300
G01 X0.1 Y3.9 M03 S255 F150
G01 X40.13 Y4 M03 S0 F2000
G01 Z2 F300
G01 X40.13 Y0 M03 S255 F150
G01 X80.13 Y4 M03 S0 F2000
G01 Z2 F300
G01 X80.13 Y0 M03 S255 F150
G01 X120.13 Y4 M03 S0 F2000
G01 Z2 F300
G01 X120.13 Y0 M03 S255 F150
G01 X160.13 Y4 M03 S0 F2000
G01 Z2 F300
G01 X160.13 Y0 M03 S255 F150
G01 X0.1 Y14.48 M03 S0 F2000
G01 Z2 F300
G01 X199.9 Y14.48 M03 S255 F150
G01 Z2 F300
G01 X199.9 Y10.68 M03 S255 F150
G01 Z2 F300
G01 X0.1 Y10.68 M03 S255 F150
G01 Z2 F300
G01 X0.1 Y14.48 M03 S255 F150
G01 X40.13 Y14.58 M03 S0 F2000
G01 Z2 F300
G01 X40.13 Y10.58 M03 S255 F150
G01 X80.13 Y14.58 M03 S0 F2000
G01 Z2 F300
G01 X80.13 Y10.58 M03 S255 F150
G01 X120.13 Y14.58 M03 S0 F2000
G01 Z2 F300
G01 X120.13 Y10.58 M03 S255 F150
G01 X160.13 Y14.58 M03 S0 F2000
G01 Z2 F300
G01 X160.13 Y10.58 M03 S255 F150
G01 X0.1 Y25.07 M03 S0 F2000
G01 Z2 F300
G01 X199.9 Y25.07 M03 S255 F150
G01 Z2 F300
G01 X199.9 Y21.27 M03 S255 F150
G01 Z2 F300
G01 X0.1 Y21.27 M03 S255 F150
G01 Z2 F300
G01 X0.1 Y25.07 M03 S255 F150
G01 X40.13 Y25.17 M03 S0 F2000
G01 Z2 F300
G01 X40.13 Y21.17 M03 S255 F150
G01 X80.13 Y25.17 M03 S0 F2000
G01 Z2 F300
G01 X80.13 Y21.17 M03 S255 F150
G01 X120.13 Y25.17 M03 S0 F2000
G01 Z2 F300
G01 X120.13 Y21.17 M03 S255 F150
G01 X160.13 Y25.17 M03 S0 F2000
G01 Z2 F300
G01 X160.13 Y21.17 M03 S255 F150
G01 X0.1 Y35.65 M03 S0 F2000
G01 Z2 F300
G01 X199.9 Y35.65 M03 S255 F150
G01 Z2 F300
G01 X199.9 Y31.85 M03 S255 F150
G01 Z2 F300
G01 X0.1 Y31.85 M03 S255 F150
G01 Z2 F300
G01 X0.1 Y35.65 M03 S255 F150
G01 X40.13 Y35.75 M03 S0 F2000
G01 Z2 F300
G01 X40.13 Y31.75 M03 S255 F150
G01 X80.13 Y35.75 M03 S0 F2000
G01 Z2 F300
G01 X80.13 Y31.75 M03 S255 F150
G01 X120.13 Y35.75 M03 S0 F2000
G01 Z2 F300
G01 X120.13 Y31.75 M03 S255 F150
G01 X160.13 Y35.75 M03 S0 F2000
G01 Z2 F300
G01 X160.13 Y31.75 M03 S255 F150
G00 M03 S0
M05
G01 X0.1 Y3.9 M03 S0 F2000
M03 S0
G01 Z2.5 F300
G01 X199.9 Y3.9 M03 S255 F150
G01 Z2.5 F300
G01 X199.9 Y0.1 M03 S255 F150
G01 Z2.5 F300
G01 X0.1 Y0.1 M03 S255 F150
G01 Z2.5 F300
G01 X0.1 Y3.9 M03 S255 F150
G01 X40.13 Y4 M03 S0 F2000
G01 Z2.5 F300
G01 X40.13 Y0 M03 S255 F150
G01 X80.13 Y4 M03 S0 F2000
G01 Z2.5 F300
G01 X80.13 Y0 M03 S255 F150
G01 X120.13 Y4 M03 S0 F2000
G01 Z2.5 F300
G01 X120.13 Y0 M03 S255 F150
G01 X160.13 Y4 M03 S0 F2000
G01 Z2.5 F300
G01 X160.13 Y0 M03 S255 F150
G01 X0.1 Y14.48 M03 S0 F2000
G01 Z2.5 F300
G01 X199.9 Y14.48 M03 S255 F150
G01 Z2.5 F300
G01 X199.9 Y10.68 M03 S255 F150
G01 Z2.5 F300
G01 X0.1 Y10.68 M03 S255 F150
G01 Z2.5 F300
G01 X0.1 Y14.48 M03 S255 F150
G01 X40.13 Y14.58 M03 S0 F2000
G01 Z2.5 F300
G01 X40.13 Y10.58 M03 S255 F150
G01 X80.13 Y14.58 M03 S0 F2000
G01 Z2.5 F300
G01 X80.13 Y10.58 M03 S255 F150
G01 X120.13 Y14.58 M03 S0 F2000
G01 Z2.5 F300
G01 X120.13 Y10.58 M03 S255 F150
G01 X160.13 Y14.58 M03 S0 F2000
G01 Z2.5 F300
G01 X160.13 Y10.58 M03 S255 F150
G01 X0.1 Y25.07 M03 S0 F2000
G01 Z2.5 F300
G01 X199.9 Y25.07 M03 S255 F150
G01 Z2.5 F300
G01 X199.9 Y21.27 M03 S255 F150
G01 Z2.5 F300
G01 X0.1 Y21.27 M03 S255 F150
G01 Z2.5 F300
G01 X0.1 Y25.07 M03 S255 F150
G01 X40.13 Y25.17 M03 S0 F2000
G01 Z2.5 F300
G01 X40.13 Y21.17 M03 S255 F150
G01 X80.13 Y25.17 M03 S0 F2000
G01 Z2.5 F300
G01 X80.13 Y21.17 M03 S255 F150
G01 X120.13 Y25.17 M03 S0 F2000
G01 Z2.5 F300
G01 X120.13 Y21.17 M03 S255 F150
G01 X160.13 Y25.17 M03 S0 F2000
G01 Z2.5 F300
G01 X160.13 Y21.17 M03 S255 F150
G01 X0.1 Y35.65 M03 S0 F2000
G01 Z2.5 F300
G01 X199.9 Y35.65 M03 S255 F150
G01 Z2.5 F300
G01 X199.9 Y31.85 M03 S255 F150
G01 Z2.5 F300
G01 X0.1 Y31.85 M03 S255 F150
G01 Z2.5 F300
G01 X0.1 Y35.65 M03 S255 F150
G01 X40.13 Y35.75 M03 S0 F2000
G01 Z2.5 F300
G01 X40.13 Y31.75 M03 S255 F150
G01 X80.13 Y35.75 M03 S0 F2000
G01 Z2.5 F300
G01 X80.13 Y31.75 M03 S255 F150
G01 X120.13 Y35.75 M03 S0 F2000
G01 Z2.5 F300
G01 X120.13 Y31.75 M03 S255 F150
G01 X160.13 Y35.75 M03 S0 F2000
G01 Z2.5 F300
G01 X160.13 Y31.75 M03 S255 F150
G00 Z0 M03 S0
M05
G00 X0 Y0 
