( Generated by T2Laser ) 
(  DXF2Gcode for Grbl  )
( Start Point: LL      )
( Frame Mode : Extents )
( X Maximum  : 163.6   )
( Y Maximum  : 69.9    )
( Laser Power: 255     )
( Vector Rate: 150     )
( Rapid Feed : 2000    )
( Vector Name: BirdWheel.dxf )
G21
G90
F150
M05
G00 Z0 
G01 X123.65 Y59.15 F2000
M03 S0
G01 Z0 F300
G01 X123.65 Y17.15 M03 S255 F150
G01 Z0 F300
G01 X123.65 Y14.15 M03 S255 F150
G01 Z0 F300
G01 X123.65 Y7.35 M03 S255 F150
G01 Z0 F300
G01 X128.75 Y7.35 M03 S255 F150
G01 Z0 F300
G01 X128.75 Y10.15 M03 S255 F150
G01 Z0 F300
G01 X158.55 Y10.15 M03 S255 F150
G01 Z0 F300
G01 X158.55 Y7.35 M03 S255 F150
G01 Z0 F300
G01 X163.65 Y7.35 M03 S255 F150
G01 Z0 F300
G01 X163.65 Y14.15 M03 S255 F150
G01 Z0 F300
G01 X163.65 Y17.15 M03 S255 F150
G01 Z0 F300
G01 X163.65 Y59.15 M03 S255 F150
G01 Z0 F300
G01 X156.05 Y59.15 M03 S255 F150
G01 Z0 F300
G01 X156.05 Y55.01 M03 S255 F150
G01 X156.59 Y55.3 M03 S0 F2000
G01 Z0 F300
G01 X156.05 Y55.01 M03 S255 F150
G01 X157.18 Y55.39 M03 S0 F2000
G01 Z0 F300
G01 X156.59 Y55.3 M03 S255 F150
G01 X157.9 Y55.25 M03 S0 F2000
G01 Z0 F300
G01 X157.18 Y55.39 M03 S255 F150
G01 X158.51 Y54.84 M03 S0 F2000
G01 Z0 F300
G01 X157.9 Y55.25 M03 S255 F150
G01 X158.93 Y54.21 M03 S0 F2000
G01 Z0 F300
G01 X158.51 Y54.84 M03 S255 F150
G01 X159.06 Y53.49 M03 S0 F2000
G01 Z0 F300
G01 X158.93 Y54.21 M03 S255 F150
G01 X158.93 Y52.76 M03 S0 F2000
G01 Z0 F300
G01 X159.06 Y53.49 M03 S255 F150
G01 X158.51 Y52.15 M03 S0 F2000
G01 Z0 F300
G01 X158.93 Y52.76 M03 S255 F150
G01 X157.9 Y51.74 M03 S0 F2000
G01 Z0 F300
G01 X158.51 Y52.15 M03 S255 F150
G01 X157.18 Y51.59 M03 S0 F2000
G01 Z0 F300
G01 X157.9 Y51.74 M03 S255 F150
G01 X156.59 Y51.69 M03 S0 F2000
G01 Z0 F300
G01 X157.18 Y51.59 M03 S255 F150
G01 X156.05 Y51.96 M03 S0 F2000
G01 Z0 F300
G01 X156.59 Y51.69 M03 S255 F150
G01 X156.05 Y51.95 M03 S0 F2000
G01 Z0 F300
G01 X156.05 Y47.35 M03 S255 F150
G01 Z0 F300
G01 X131.25 Y47.35 M03 S255 F150
G01 Z0 F300
G01 X131.25 Y47.36 M03 S255 F150
G01 X131.25 Y47.56 M03 S0 F2000
G01 Z0 F300
G01 X131.25 Y47.41 M03 S255 F150
G01 X131.25 Y47.8 M03 S0 F2000
G01 Z0 F300
G01 X131.25 Y47.56 M03 S255 F150
G01 X131.25 Y48.11 M03 S0 F2000
G01 Z0 F300
G01 X131.25 Y47.8 M03 S255 F150
G01 X131.25 Y48.88 M03 S0 F2000
G01 Z0 F300
G01 X131.25 Y48.11 M03 S255 F150
G01 X131.25 Y49.74 M03 S0 F2000
G01 Z0 F300
G01 X131.25 Y48.88 M03 S255 F150
G01 X131.25 Y50.61 M03 S0 F2000
G01 Z0 F300
G01 X131.25 Y49.74 M03 S255 F150
G01 X131.25 Y51.38 M03 S0 F2000
G01 Z0 F300
G01 X131.25 Y50.61 M03 S255 F150
G01 X131.25 Y51.69 M03 S0 F2000
G01 Z0 F300
G01 X131.25 Y51.38 M03 S255 F150
G01 X131.25 Y51.93 M03 S0 F2000
G01 Z0 F300
G01 X131.25 Y51.69 M03 S255 F150
G01 X131.25 Y52.08 M03 S0 F2000
G01 Z0 F300
G01 X131.25 Y51.93 M03 S255 F150
G01 X131.25 Y52.13 M03 S0 F2000
G01 Z0 F300
G01 X131.25 Y52.08 M03 S255 F150
G01 X130.65 Y51.73 M03 S0 F2000
G01 Z0 F300
G01 X131.25 Y52.13 M03 S255 F150
G01 X129.94 Y51.59 M03 S0 F2000
G01 Z0 F300
G01 X130.65 Y51.73 M03 S255 F150
G01 X129.55 Y51.63 M03 S0 F2000
G01 Z0 F300
G01 X129.94 Y51.59 M03 S255 F150
G01 X129.2 Y51.74 M03 S0 F2000
G01 Z0 F300
G01 X129.55 Y51.63 M03 S255 F150
G01 X128.6 Y52.15 M03 S0 F2000
G01 Z0 F300
G01 X129.2 Y51.74 M03 S255 F150
G01 X128.19 Y52.75 M03 S0 F2000
G01 Z0 F300
G01 X128.6 Y52.15 M03 S255 F150
G01 X128.08 Y53.11 M03 S0 F2000
G01 Z0 F300
G01 X128.19 Y52.75 M03 S255 F150
G01 X128.04 Y53.5 M03 S0 F2000
G01 Z0 F300
G01 X128.08 Y53.11 M03 S255 F150
G01 X128.08 Y53.89 M03 S0 F2000
G01 Z0 F300
G01 X128.04 Y53.5 M03 S255 F150
G01 X128.19 Y54.24 M03 S0 F2000
G01 Z0 F300
G01 X128.08 Y53.89 M03 S255 F150
G01 X128.6 Y54.85 M03 S0 F2000
G01 Z0 F300
G01 X128.19 Y54.24 M03 S255 F150
G01 X129.2 Y55.25 M03 S0 F2000
G01 Z0 F300
G01 X128.6 Y54.85 M03 S255 F150
G01 X129.55 Y55.36 M03 S0 F2000
G01 Z0 F300
G01 X129.2 Y55.25 M03 S255 F150
G01 X129.94 Y55.4 M03 S0 F2000
G01 Z0 F300
G01 X129.55 Y55.36 M03 S255 F150
G01 X130.65 Y55.26 M03 S0 F2000
G01 Z0 F300
G01 X129.94 Y55.4 M03 S255 F150
G01 X131.25 Y54.86 M03 S0 F2000
G01 Z0 F300
G01 X130.65 Y55.26 M03 S255 F150
G01 X131.25 Y54.86 M03 S0 F2000
G01 Z0 F300
G01 X131.25 Y59.15 M03 S255 F150
G01 Z0 F300
G01 X123.65 Y59.15 M03 S255 F150
G01 X5.1 Y59.15 M03 S0 F2000
G01 Z0 F300
G01 X5.1 Y56.15 M03 S255 F150
G01 Z0 F300
G01 X0.1 Y56.15 M03 S255 F150
G01 Z0 F300
G01 X0.1 Y16.35 M03 S255 F150
G01 Z0 F300
G01 X39.9 Y16.35 M03 S255 F150
G01 Z0 F300
G01 X39.9 Y56.15 M03 S255 F150
G01 Z0 F300
G01 X34.9 Y56.15 M03 S255 F150
G01 Z0 F300
G01 X34.9 Y59.15 M03 S255 F150
G01 Z0 F300
G01 X5.1 Y59.15 M03 S255 F150
G01 X83.13 Y34.28 M03 S0 F2000
G01 Z0 F300
G01 X83.26 Y35 M03 S255 F150
G01 X82.71 Y33.66 M03 S0 F2000
G01 Z0 F300
G01 X83.13 Y34.28 M03 S255 F150
G01 X82.1 Y33.25 M03 S0 F2000
G01 Z0 F300
G01 X82.71 Y33.66 M03 S255 F150
G01 X81.36 Y33.1 M03 S0 F2000
G01 Z0 F300
G01 X82.1 Y33.25 M03 S255 F150
G01 X80.64 Y33.25 M03 S0 F2000
G01 Z0 F300
G01 X81.36 Y33.1 M03 S255 F150
G01 X80.02 Y33.66 M03 S0 F2000
G01 Z0 F300
G01 X80.64 Y33.25 M03 S255 F150
G01 X79.61 Y34.28 M03 S0 F2000
G01 Z0 F300
G01 X80.02 Y33.66 M03 S255 F150
G01 X79.46 Y35 M03 S0 F2000
G01 Z0 F300
G01 X79.61 Y34.28 M03 S255 F150
G01 X79.5 Y35.39 M03 S0 F2000
G01 Z0 F300
G01 X79.46 Y35 M03 S255 F150
G01 X79.61 Y35.74 M03 S0 F2000
G01 Z0 F300
G01 X79.5 Y35.39 M03 S255 F150
G01 X80.02 Y36.35 M03 S0 F2000
G01 Z0 F300
G01 X79.61 Y35.74 M03 S255 F150
G01 X80.63 Y36.75 M03 S0 F2000
G01 Z0 F300
G01 X80.02 Y36.35 M03 S255 F150
G01 X80.98 Y36.86 M03 S0 F2000
G01 Z0 F300
G01 X80.63 Y36.75 M03 S255 F150
G01 X81.36 Y36.9 M03 S0 F2000
G01 Z0 F300
G01 X80.98 Y36.86 M03 S255 F150
G01 X81.75 Y36.86 M03 S0 F2000
G01 Z0 F300
G01 X81.36 Y36.9 M03 S255 F150
G01 X82.1 Y36.75 M03 S0 F2000
G01 Z0 F300
G01 X81.75 Y36.86 M03 S255 F150
G01 X82.71 Y36.35 M03 S0 F2000
G01 Z0 F300
G01 X82.1 Y36.75 M03 S255 F150
G01 X83.11 Y35.74 M03 S0 F2000
G01 Z0 F300
G01 X82.71 Y36.35 M03 S255 F150
G01 X83.23 Y35.39 M03 S0 F2000
G01 Z0 F300
G01 X83.11 Y35.74 M03 S255 F150
G01 X83.26 Y35 M03 S0 F2000
G01 Z0 F300
G01 X83.23 Y35.39 M03 S255 F150
G01 X83.26 Y35 M03 S0 F2000
G01 Z0 F300
G01 X83.26 Y35 M03 S255 F150
G01 X116.23 Y33.28 M03 S0 F2000
G01 Z0 F300
G01 X116.26 Y35 M03 S255 F150
G01 X116.09 Y31.55 M03 S0 F2000
G01 Z0 F300
G01 X116.23 Y33.28 M03 S255 F150
G01 X115.88 Y29.85 M03 S0 F2000
G01 Z0 F300
G01 X116.09 Y31.55 M03 S255 F150
G01 X115.59 Y28.16 M03 S0 F2000
G01 Z0 F300
G01 X115.88 Y29.85 M03 S255 F150
G01 X115.21 Y26.5 M03 S0 F2000
G01 Z0 F300
G01 X115.59 Y28.16 M03 S255 F150
G01 X114.75 Y24.85 M03 S0 F2000
G01 Z0 F300
G01 X115.21 Y26.5 M03 S255 F150
G01 X114.23 Y23.24 M03 S0 F2000
G01 Z0 F300
G01 X114.75 Y24.85 M03 S255 F150
G01 X113.61 Y21.65 M03 S0 F2000
G01 Z0 F300
G01 X114.23 Y23.24 M03 S255 F150
G01 X112.91 Y20.09 M03 S0 F2000
G01 Z0 F300
G01 X113.61 Y21.65 M03 S255 F150
G01 X112.15 Y18.58 M03 S0 F2000
G01 Z0 F300
G01 X112.91 Y20.09 M03 S255 F150
G01 X110.4 Y15.64 M03 S0 F2000
G01 Z0 F300
G01 X112.15 Y18.58 M03 S255 F150
G01 X108.36 Y12.89 M03 S0 F2000
G01 Z0 F300
G01 X110.4 Y15.64 M03 S255 F150
G01 X106.05 Y10.33 M03 S0 F2000
G01 Z0 F300
G01 X108.36 Y12.89 M03 S255 F150
G01 X103.49 Y8.01 M03 S0 F2000
G01 Z0 F300
G01 X106.05 Y10.33 M03 S255 F150
G01 X100.74 Y5.98 M03 S0 F2000
G01 Z0 F300
G01 X103.49 Y8.01 M03 S255 F150
G01 X97.8 Y4.21 M03 S0 F2000
G01 Z0 F300
G01 X100.74 Y5.98 M03 S255 F150
G01 X96.27 Y3.45 M03 S0 F2000
G01 Z0 F300
G01 X97.8 Y4.21 M03 S255 F150
G01 X94.73 Y2.76 M03 S0 F2000
G01 Z0 F300
G01 X96.27 Y3.45 M03 S255 F150
G01 X93.14 Y2.15 M03 S0 F2000
G01 Z0 F300
G01 X94.73 Y2.76 M03 S255 F150
G01 X91.51 Y1.61 M03 S0 F2000
G01 Z0 F300
G01 X93.14 Y2.15 M03 S255 F150
G01 X89.88 Y1.15 M03 S0 F2000
G01 Z0 F300
G01 X91.51 Y1.61 M03 S255 F150
G01 X88.21 Y0.78 M03 S0 F2000
G01 Z0 F300
G01 X89.88 Y1.15 M03 S255 F150
G01 X86.52 Y0.49 M03 S0 F2000
G01 Z0 F300
G01 X88.21 Y0.78 M03 S255 F150
G01 X84.81 Y0.28 M03 S0 F2000
G01 Z0 F300
G01 X86.52 Y0.49 M03 S255 F150
G01 X83.1 Y0.14 M03 S0 F2000
G01 Z0 F300
G01 X84.81 Y0.28 M03 S255 F150
G01 X81.36 Y0.1 M03 S0 F2000
G01 Z0 F300
G01 X83.1 Y0.14 M03 S255 F150
G01 X79.64 Y0.14 M03 S0 F2000
G01 Z0 F300
G01 X81.36 Y0.1 M03 S255 F150
G01 X77.91 Y0.28 M03 S0 F2000
G01 Z0 F300
G01 X79.64 Y0.14 M03 S255 F150
G01 X76.21 Y0.49 M03 S0 F2000
G01 Z0 F300
G01 X77.91 Y0.28 M03 S255 F150
G01 X74.52 Y0.78 M03 S0 F2000
G01 Z0 F300
G01 X76.21 Y0.49 M03 S255 F150
G01 X72.86 Y1.15 M03 S0 F2000
G01 Z0 F300
G01 X74.52 Y0.78 M03 S255 F150
G01 X71.21 Y1.61 M03 S0 F2000
G01 Z0 F300
G01 X72.86 Y1.15 M03 S255 F150
G01 X69.6 Y2.15 M03 S0 F2000
G01 Z0 F300
G01 X71.21 Y1.61 M03 S255 F150
G01 X68.01 Y2.76 M03 S0 F2000
G01 Z0 F300
G01 X69.6 Y2.15 M03 S255 F150
G01 X66.45 Y3.45 M03 S0 F2000
G01 Z0 F300
G01 X68.01 Y2.76 M03 S255 F150
G01 X64.94 Y4.21 M03 S0 F2000
G01 Z0 F300
G01 X66.45 Y3.45 M03 S255 F150
G01 X62 Y5.98 M03 S0 F2000
G01 Z0 F300
G01 X64.94 Y4.21 M03 S255 F150
G01 X59.25 Y8.01 M03 S0 F2000
G01 Z0 F300
G01 X62 Y5.98 M03 S255 F150
G01 X56.69 Y10.33 M03 S0 F2000
G01 Z0 F300
G01 X59.25 Y8.01 M03 S255 F150
G01 X54.36 Y12.89 M03 S0 F2000
G01 Z0 F300
G01 X56.69 Y10.33 M03 S255 F150
G01 X52.33 Y15.64 M03 S0 F2000
G01 Z0 F300
G01 X54.36 Y12.89 M03 S255 F150
G01 X50.58 Y18.58 M03 S0 F2000
G01 Z0 F300
G01 X52.33 Y15.64 M03 S255 F150
G01 X49.81 Y20.09 M03 S0 F2000
G01 Z0 F300
G01 X50.58 Y18.58 M03 S255 F150
G01 X49.13 Y21.65 M03 S0 F2000
G01 Z0 F300
G01 X49.81 Y20.09 M03 S255 F150
G01 X48.5 Y23.24 M03 S0 F2000
G01 Z0 F300
G01 X49.13 Y21.65 M03 S255 F150
G01 X47.98 Y24.85 M03 S0 F2000
G01 Z0 F300
G01 X48.5 Y23.24 M03 S255 F150
G01 X47.51 Y26.5 M03 S0 F2000
G01 Z0 F300
G01 X47.98 Y24.85 M03 S255 F150
G01 X47.14 Y28.16 M03 S0 F2000
G01 Z0 F300
G01 X47.51 Y26.5 M03 S255 F150
G01 X46.85 Y29.85 M03 S0 F2000
G01 Z0 F300
G01 X47.14 Y28.16 M03 S255 F150
G01 X46.64 Y31.55 M03 S0 F2000
G01 Z0 F300
G01 X46.85 Y29.85 M03 S255 F150
G01 X46.5 Y33.28 M03 S0 F2000
G01 Z0 F300
G01 X46.64 Y31.55 M03 S255 F150
G01 X46.46 Y35 M03 S0 F2000
G01 Z0 F300
G01 X46.5 Y33.28 M03 S255 F150
G01 X46.51 Y36.8 M03 S0 F2000
G01 Z0 F300
G01 X46.46 Y35 M03 S255 F150
G01 X46.64 Y38.56 M03 S0 F2000
G01 Z0 F300
G01 X46.51 Y36.8 M03 S255 F150
G01 X46.86 Y40.31 M03 S0 F2000
G01 Z0 F300
G01 X46.64 Y38.56 M03 S255 F150
G01 X47.18 Y42.04 M03 S0 F2000
G01 Z0 F300
G01 X46.86 Y40.31 M03 S255 F150
G01 X47.56 Y43.73 M03 S0 F2000
G01 Z0 F300
G01 X47.18 Y42.04 M03 S255 F150
G01 X48.04 Y45.38 M03 S0 F2000
G01 Z0 F300
G01 X47.56 Y43.73 M03 S255 F150
G01 X48.58 Y47 M03 S0 F2000
G01 Z0 F300
G01 X48.04 Y45.38 M03 S255 F150
G01 X49.2 Y48.59 M03 S0 F2000
G01 Z0 F300
G01 X48.58 Y47 M03 S255 F150
G01 X50.68 Y51.64 M03 S0 F2000
G01 Z0 F300
G01 X49.2 Y48.59 M03 S255 F150
G01 X52.43 Y54.51 M03 S0 F2000
G01 Z0 F300
G01 X50.68 Y51.64 M03 S255 F150
G01 X54.44 Y57.2 M03 S0 F2000
G01 Z0 F300
G01 X52.43 Y54.51 M03 S255 F150
G01 X56.69 Y59.68 M03 S0 F2000
G01 Z0 F300
G01 X54.44 Y57.2 M03 S255 F150
G01 X59.16 Y61.93 M03 S0 F2000
G01 Z0 F300
G01 X56.69 Y59.68 M03 S255 F150
G01 X61.85 Y63.94 M03 S0 F2000
G01 Z0 F300
G01 X59.16 Y61.93 M03 S255 F150
G01 X64.73 Y65.69 M03 S0 F2000
G01 Z0 F300
G01 X61.85 Y63.94 M03 S255 F150
G01 X67.77 Y67.16 M03 S0 F2000
G01 Z0 F300
G01 X64.73 Y65.69 M03 S255 F150
G01 X69.36 Y67.79 M03 S0 F2000
G01 Z0 F300
G01 X67.77 Y67.16 M03 S255 F150
G01 X70.99 Y68.33 M03 S0 F2000
G01 Z0 F300
G01 X69.36 Y67.79 M03 S255 F150
G01 X72.64 Y68.8 M03 S0 F2000
G01 Z0 F300
G01 X70.99 Y68.33 M03 S255 F150
G01 X74.33 Y69.19 M03 S0 F2000
G01 Z0 F300
G01 X72.64 Y68.8 M03 S255 F150
G01 X76.05 Y69.5 M03 S0 F2000
G01 Z0 F300
G01 X74.33 Y69.19 M03 S255 F150
G01 X77.8 Y69.73 M03 S0 F2000
G01 Z0 F300
G01 X76.05 Y69.5 M03 S255 F150
G01 X79.56 Y69.85 M03 S0 F2000
G01 Z0 F300
G01 X77.8 Y69.73 M03 S255 F150
G01 X81.36 Y69.9 M03 S0 F2000
G01 Z0 F300
G01 X79.56 Y69.85 M03 S255 F150
G01 X83.16 Y69.85 M03 S0 F2000
G01 Z0 F300
G01 X81.36 Y69.9 M03 S255 F150
G01 X84.93 Y69.73 M03 S0 F2000
G01 Z0 F300
G01 X83.16 Y69.85 M03 S255 F150
G01 X86.68 Y69.5 M03 S0 F2000
G01 Z0 F300
G01 X84.93 Y69.73 M03 S255 F150
G01 X88.4 Y69.19 M03 S0 F2000
G01 Z0 F300
G01 X86.68 Y69.5 M03 S255 F150
G01 X90.09 Y68.8 M03 S0 F2000
G01 Z0 F300
G01 X88.4 Y69.19 M03 S255 F150
G01 X91.74 Y68.33 M03 S0 F2000
G01 Z0 F300
G01 X90.09 Y68.8 M03 S255 F150
G01 X93.36 Y67.79 M03 S0 F2000
G01 Z0 F300
G01 X91.74 Y68.33 M03 S255 F150
G01 X94.95 Y67.16 M03 S0 F2000
G01 Z0 F300
G01 X93.36 Y67.79 M03 S255 F150
G01 X98 Y65.69 M03 S0 F2000
G01 Z0 F300
G01 X94.95 Y67.16 M03 S255 F150
G01 X100.88 Y63.94 M03 S0 F2000
G01 Z0 F300
G01 X98 Y65.69 M03 S255 F150
G01 X103.56 Y61.93 M03 S0 F2000
G01 Z0 F300
G01 X100.88 Y63.94 M03 S255 F150
G01 X106.04 Y59.68 M03 S0 F2000
G01 Z0 F300
G01 X103.56 Y61.93 M03 S255 F150
G01 X108.29 Y57.2 M03 S0 F2000
G01 Z0 F300
G01 X106.04 Y59.68 M03 S255 F150
G01 X110.3 Y54.51 M03 S0 F2000
G01 Z0 F300
G01 X108.29 Y57.2 M03 S255 F150
G01 X112.05 Y51.64 M03 S0 F2000
G01 Z0 F300
G01 X110.3 Y54.51 M03 S255 F150
G01 X113.53 Y48.59 M03 S0 F2000
G01 Z0 F300
G01 X112.05 Y51.64 M03 S255 F150
G01 X114.15 Y47 M03 S0 F2000
G01 Z0 F300
G01 X113.53 Y48.59 M03 S255 F150
G01 X114.69 Y45.38 M03 S0 F2000
G01 Z0 F300
G01 X114.15 Y47 M03 S255 F150
G01 X115.16 Y43.73 M03 S0 F2000
G01 Z0 F300
G01 X114.69 Y45.38 M03 S255 F150
G01 X115.55 Y42.04 M03 S0 F2000
G01 Z0 F300
G01 X115.16 Y43.73 M03 S255 F150
G01 X115.86 Y40.31 M03 S0 F2000
G01 Z0 F300
G01 X115.55 Y42.04 M03 S255 F150
G01 X116.09 Y38.56 M03 S0 F2000
G01 Z0 F300
G01 X115.86 Y40.31 M03 S255 F150
G01 X116.21 Y36.8 M03 S0 F2000
G01 Z0 F300
G01 X116.09 Y38.56 M03 S255 F150
G01 X116.26 Y35 M03 S0 F2000
G01 Z0 F300
G01 X116.21 Y36.8 M03 S255 F150
G01 X116.26 Y35 M03 S0 F2000
G01 Z0 F300
G01 X116.26 Y35 M03 S255 F150
G01 X113.13 Y34.28 M03 S0 F2000
G01 Z0 F300
G01 X113.26 Y35 M03 S255 F150
G01 X112.71 Y33.66 M03 S0 F2000
G01 Z0 F300
G01 X113.13 Y34.28 M03 S255 F150
G01 X112.1 Y33.25 M03 S0 F2000
G01 Z0 F300
G01 X112.71 Y33.66 M03 S255 F150
G01 X111.36 Y33.1 M03 S0 F2000
G01 Z0 F300
G01 X112.1 Y33.25 M03 S255 F150
G01 X110.64 Y33.25 M03 S0 F2000
G01 Z0 F300
G01 X111.36 Y33.1 M03 S255 F150
G01 X110.03 Y33.66 M03 S0 F2000
G01 Z0 F300
G01 X110.64 Y33.25 M03 S255 F150
G01 X109.61 Y34.28 M03 S0 F2000
G01 Z0 F300
G01 X110.03 Y33.66 M03 S255 F150
G01 X109.46 Y35 M03 S0 F2000
G01 Z0 F300
G01 X109.61 Y34.28 M03 S255 F150
G01 X109.5 Y35.39 M03 S0 F2000
G01 Z0 F300
G01 X109.46 Y35 M03 S255 F150
G01 X109.61 Y35.74 M03 S0 F2000
G01 Z0 F300
G01 X109.5 Y35.39 M03 S255 F150
G01 X110.03 Y36.35 M03 S0 F2000
G01 Z0 F300
G01 X109.61 Y35.74 M03 S255 F150
G01 X110.63 Y36.75 M03 S0 F2000
G01 Z0 F300
G01 X110.03 Y36.35 M03 S255 F150
G01 X110.98 Y36.86 M03 S0 F2000
G01 Z0 F300
G01 X110.63 Y36.75 M03 S255 F150
G01 X111.36 Y36.9 M03 S0 F2000
G01 Z0 F300
G01 X110.98 Y36.86 M03 S255 F150
G01 X111.75 Y36.86 M03 S0 F2000
G01 Z0 F300
G01 X111.36 Y36.9 M03 S255 F150
G01 X112.1 Y36.75 M03 S0 F2000
G01 Z0 F300
G01 X111.75 Y36.86 M03 S255 F150
G01 X112.71 Y36.35 M03 S0 F2000
G01 Z0 F300
G01 X112.1 Y36.75 M03 S255 F150
G01 X113.11 Y35.74 M03 S0 F2000
G01 Z0 F300
G01 X112.71 Y36.35 M03 S255 F150
G01 X113.23 Y35.39 M03 S0 F2000
G01 Z0 F300
G01 X113.11 Y35.74 M03 S255 F150
G01 X113.26 Y35 M03 S0 F2000
G01 Z0 F300
G01 X113.23 Y35.39 M03 S255 F150
G01 X113.26 Y35 M03 S0 F2000
G01 Z0 F300
G01 X113.26 Y35 M03 S255 F150
G00 M03 S0
M05
G01 X123.65 Y59.15 M03 S0 F2000
M03 S0
G01 Z0.5 F300
G01 X123.65 Y17.15 M03 S255 F150
G01 Z0.5 F300
G01 X123.65 Y14.15 M03 S255 F150
G01 Z0.5 F300
G01 X123.65 Y7.35 M03 S255 F150
G01 Z0.5 F300
G01 X128.75 Y7.35 M03 S255 F150
G01 Z0.5 F300
G01 X128.75 Y10.15 M03 S255 F150
G01 Z0.5 F300
G01 X158.55 Y10.15 M03 S255 F150
G01 Z0.5 F300
G01 X158.55 Y7.35 M03 S255 F150
G01 Z0.5 F300
G01 X163.65 Y7.35 M03 S255 F150
G01 Z0.5 F300
G01 X163.65 Y14.15 M03 S255 F150
G01 Z0.5 F300
G01 X163.65 Y17.15 M03 S255 F150
G01 Z0.5 F300
G01 X163.65 Y59.15 M03 S255 F150
G01 Z0.5 F300
G01 X156.05 Y59.15 M03 S255 F150
G01 Z0.5 F300
G01 X156.05 Y55.01 M03 S255 F150
G01 X156.59 Y55.3 M03 S0 F2000
G01 Z0.5 F300
G01 X156.05 Y55.01 M03 S255 F150
G01 X157.18 Y55.39 M03 S0 F2000
G01 Z0.5 F300
G01 X156.59 Y55.3 M03 S255 F150
G01 X157.9 Y55.25 M03 S0 F2000
G01 Z0.5 F300
G01 X157.18 Y55.39 M03 S255 F150
G01 X158.51 Y54.84 M03 S0 F2000
G01 Z0.5 F300
G01 X157.9 Y55.25 M03 S255 F150
G01 X158.93 Y54.21 M03 S0 F2000
G01 Z0.5 F300
G01 X158.51 Y54.84 M03 S255 F150
G01 X159.06 Y53.49 M03 S0 F2000
G01 Z0.5 F300
G01 X158.93 Y54.21 M03 S255 F150
G01 X158.93 Y52.76 M03 S0 F2000
G01 Z0.5 F300
G01 X159.06 Y53.49 M03 S255 F150
G01 X158.51 Y52.15 M03 S0 F2000
G01 Z0.5 F300
G01 X158.93 Y52.76 M03 S255 F150
G01 X157.9 Y51.74 M03 S0 F2000
G01 Z0.5 F300
G01 X158.51 Y52.15 M03 S255 F150
G01 X157.18 Y51.59 M03 S0 F2000
G01 Z0.5 F300
G01 X157.9 Y51.74 M03 S255 F150
G01 X156.59 Y51.69 M03 S0 F2000
G01 Z0.5 F300
G01 X157.18 Y51.59 M03 S255 F150
G01 X156.05 Y51.96 M03 S0 F2000
G01 Z0.5 F300
G01 X156.59 Y51.69 M03 S255 F150
G01 X156.05 Y51.95 M03 S0 F2000
G01 Z0.5 F300
G01 X156.05 Y47.35 M03 S255 F150
G01 Z0.5 F300
G01 X131.25 Y47.35 M03 S255 F150
G01 Z0.5 F300
G01 X131.25 Y47.36 M03 S255 F150
G01 X131.25 Y47.56 M03 S0 F2000
G01 Z0.5 F300
G01 X131.25 Y47.41 M03 S255 F150
G01 X131.25 Y47.8 M03 S0 F2000
G01 Z0.5 F300
G01 X131.25 Y47.56 M03 S255 F150
G01 X131.25 Y48.11 M03 S0 F2000
G01 Z0.5 F300
G01 X131.25 Y47.8 M03 S255 F150
G01 X131.25 Y48.88 M03 S0 F2000
G01 Z0.5 F300
G01 X131.25 Y48.11 M03 S255 F150
G01 X131.25 Y49.74 M03 S0 F2000
G01 Z0.5 F300
G01 X131.25 Y48.88 M03 S255 F150
G01 X131.25 Y50.61 M03 S0 F2000
G01 Z0.5 F300
G01 X131.25 Y49.74 M03 S255 F150
G01 X131.25 Y51.38 M03 S0 F2000
G01 Z0.5 F300
G01 X131.25 Y50.61 M03 S255 F150
G01 X131.25 Y51.69 M03 S0 F2000
G01 Z0.5 F300
G01 X131.25 Y51.38 M03 S255 F150
G01 X131.25 Y51.93 M03 S0 F2000
G01 Z0.5 F300
G01 X131.25 Y51.69 M03 S255 F150
G01 X131.25 Y52.08 M03 S0 F2000
G01 Z0.5 F300
G01 X131.25 Y51.93 M03 S255 F150
G01 X131.25 Y52.13 M03 S0 F2000
G01 Z0.5 F300
G01 X131.25 Y52.08 M03 S255 F150
G01 X130.65 Y51.73 M03 S0 F2000
G01 Z0.5 F300
G01 X131.25 Y52.13 M03 S255 F150
G01 X129.94 Y51.59 M03 S0 F2000
G01 Z0.5 F300
G01 X130.65 Y51.73 M03 S255 F150
G01 X129.55 Y51.63 M03 S0 F2000
G01 Z0.5 F300
G01 X129.94 Y51.59 M03 S255 F150
G01 X129.2 Y51.74 M03 S0 F2000
G01 Z0.5 F300
G01 X129.55 Y51.63 M03 S255 F150
G01 X128.6 Y52.15 M03 S0 F2000
G01 Z0.5 F300
G01 X129.2 Y51.74 M03 S255 F150
G01 X128.19 Y52.75 M03 S0 F2000
G01 Z0.5 F300
G01 X128.6 Y52.15 M03 S255 F150
G01 X128.08 Y53.11 M03 S0 F2000
G01 Z0.5 F300
G01 X128.19 Y52.75 M03 S255 F150
G01 X128.04 Y53.5 M03 S0 F2000
G01 Z0.5 F300
G01 X128.08 Y53.11 M03 S255 F150
G01 X128.08 Y53.89 M03 S0 F2000
G01 Z0.5 F300
G01 X128.04 Y53.5 M03 S255 F150
G01 X128.19 Y54.24 M03 S0 F2000
G01 Z0.5 F300
G01 X128.08 Y53.89 M03 S255 F150
G01 X128.6 Y54.85 M03 S0 F2000
G01 Z0.5 F300
G01 X128.19 Y54.24 M03 S255 F150
G01 X129.2 Y55.25 M03 S0 F2000
G01 Z0.5 F300
G01 X128.6 Y54.85 M03 S255 F150
G01 X129.55 Y55.36 M03 S0 F2000
G01 Z0.5 F300
G01 X129.2 Y55.25 M03 S255 F150
G01 X129.94 Y55.4 M03 S0 F2000
G01 Z0.5 F300
G01 X129.55 Y55.36 M03 S255 F150
G01 X130.65 Y55.26 M03 S0 F2000
G01 Z0.5 F300
G01 X129.94 Y55.4 M03 S255 F150
G01 X131.25 Y54.86 M03 S0 F2000
G01 Z0.5 F300
G01 X130.65 Y55.26 M03 S255 F150
G01 X131.25 Y54.86 M03 S0 F2000
G01 Z0.5 F300
G01 X131.25 Y59.15 M03 S255 F150
G01 Z0.5 F300
G01 X123.65 Y59.15 M03 S255 F150
G01 X5.1 Y59.15 M03 S0 F2000
G01 Z0.5 F300
G01 X5.1 Y56.15 M03 S255 F150
G01 Z0.5 F300
G01 X0.1 Y56.15 M03 S255 F150
G01 Z0.5 F300
G01 X0.1 Y16.35 M03 S255 F150
G01 Z0.5 F300
G01 X39.9 Y16.35 M03 S255 F150
G01 Z0.5 F300
G01 X39.9 Y56.15 M03 S255 F150
G01 Z0.5 F300
G01 X34.9 Y56.15 M03 S255 F150
G01 Z0.5 F300
G01 X34.9 Y59.15 M03 S255 F150
G01 Z0.5 F300
G01 X5.1 Y59.15 M03 S255 F150
G01 X83.13 Y34.28 M03 S0 F2000
G01 Z0.5 F300
G01 X83.26 Y35 M03 S255 F150
G01 X82.71 Y33.66 M03 S0 F2000
G01 Z0.5 F300
G01 X83.13 Y34.28 M03 S255 F150
G01 X82.1 Y33.25 M03 S0 F2000
G01 Z0.5 F300
G01 X82.71 Y33.66 M03 S255 F150
G01 X81.36 Y33.1 M03 S0 F2000
G01 Z0.5 F300
G01 X82.1 Y33.25 M03 S255 F150
G01 X80.64 Y33.25 M03 S0 F2000
G01 Z0.5 F300
G01 X81.36 Y33.1 M03 S255 F150
G01 X80.02 Y33.66 M03 S0 F2000
G01 Z0.5 F300
G01 X80.64 Y33.25 M03 S255 F150
G01 X79.61 Y34.28 M03 S0 F2000
G01 Z0.5 F300
G01 X80.02 Y33.66 M03 S255 F150
G01 X79.46 Y35 M03 S0 F2000
G01 Z0.5 F300
G01 X79.61 Y34.28 M03 S255 F150
G01 X79.5 Y35.39 M03 S0 F2000
G01 Z0.5 F300
G01 X79.46 Y35 M03 S255 F150
G01 X79.61 Y35.74 M03 S0 F2000
G01 Z0.5 F300
G01 X79.5 Y35.39 M03 S255 F150
G01 X80.02 Y36.35 M03 S0 F2000
G01 Z0.5 F300
G01 X79.61 Y35.74 M03 S255 F150
G01 X80.63 Y36.75 M03 S0 F2000
G01 Z0.5 F300
G01 X80.02 Y36.35 M03 S255 F150
G01 X80.98 Y36.86 M03 S0 F2000
G01 Z0.5 F300
G01 X80.63 Y36.75 M03 S255 F150
G01 X81.36 Y36.9 M03 S0 F2000
G01 Z0.5 F300
G01 X80.98 Y36.86 M03 S255 F150
G01 X81.75 Y36.86 M03 S0 F2000
G01 Z0.5 F300
G01 X81.36 Y36.9 M03 S255 F150
G01 X82.1 Y36.75 M03 S0 F2000
G01 Z0.5 F300
G01 X81.75 Y36.86 M03 S255 F150
G01 X82.71 Y36.35 M03 S0 F2000
G01 Z0.5 F300
G01 X82.1 Y36.75 M03 S255 F150
G01 X83.11 Y35.74 M03 S0 F2000
G01 Z0.5 F300
G01 X82.71 Y36.35 M03 S255 F150
G01 X83.23 Y35.39 M03 S0 F2000
G01 Z0.5 F300
G01 X83.11 Y35.74 M03 S255 F150
G01 X83.26 Y35 M03 S0 F2000
G01 Z0.5 F300
G01 X83.23 Y35.39 M03 S255 F150
G01 X83.26 Y35 M03 S0 F2000
G01 Z0.5 F300
G01 X83.26 Y35 M03 S255 F150
G01 X116.23 Y33.28 M03 S0 F2000
G01 Z0.5 F300
G01 X116.26 Y35 M03 S255 F150
G01 X116.09 Y31.55 M03 S0 F2000
G01 Z0.5 F300
G01 X116.23 Y33.28 M03 S255 F150
G01 X115.88 Y29.85 M03 S0 F2000
G01 Z0.5 F300
G01 X116.09 Y31.55 M03 S255 F150
G01 X115.59 Y28.16 M03 S0 F2000
G01 Z0.5 F300
G01 X115.88 Y29.85 M03 S255 F150
G01 X115.21 Y26.5 M03 S0 F2000
G01 Z0.5 F300
G01 X115.59 Y28.16 M03 S255 F150
G01 X114.75 Y24.85 M03 S0 F2000
G01 Z0.5 F300
G01 X115.21 Y26.5 M03 S255 F150
G01 X114.23 Y23.24 M03 S0 F2000
G01 Z0.5 F300
G01 X114.75 Y24.85 M03 S255 F150
G01 X113.61 Y21.65 M03 S0 F2000
G01 Z0.5 F300
G01 X114.23 Y23.24 M03 S255 F150
G01 X112.91 Y20.09 M03 S0 F2000
G01 Z0.5 F300
G01 X113.61 Y21.65 M03 S255 F150
G01 X112.15 Y18.58 M03 S0 F2000
G01 Z0.5 F300
G01 X112.91 Y20.09 M03 S255 F150
G01 X110.4 Y15.64 M03 S0 F2000
G01 Z0.5 F300
G01 X112.15 Y18.58 M03 S255 F150
G01 X108.36 Y12.89 M03 S0 F2000
G01 Z0.5 F300
G01 X110.4 Y15.64 M03 S255 F150
G01 X106.05 Y10.33 M03 S0 F2000
G01 Z0.5 F300
G01 X108.36 Y12.89 M03 S255 F150
G01 X103.49 Y8.01 M03 S0 F2000
G01 Z0.5 F300
G01 X106.05 Y10.33 M03 S255 F150
G01 X100.74 Y5.98 M03 S0 F2000
G01 Z0.5 F300
G01 X103.49 Y8.01 M03 S255 F150
G01 X97.8 Y4.21 M03 S0 F2000
G01 Z0.5 F300
G01 X100.74 Y5.98 M03 S255 F150
G01 X96.27 Y3.45 M03 S0 F2000
G01 Z0.5 F300
G01 X97.8 Y4.21 M03 S255 F150
G01 X94.73 Y2.76 M03 S0 F2000
G01 Z0.5 F300
G01 X96.27 Y3.45 M03 S255 F150
G01 X93.14 Y2.15 M03 S0 F2000
G01 Z0.5 F300
G01 X94.73 Y2.76 M03 S255 F150
G01 X91.51 Y1.61 M03 S0 F2000
G01 Z0.5 F300
G01 X93.14 Y2.15 M03 S255 F150
G01 X89.88 Y1.15 M03 S0 F2000
G01 Z0.5 F300
G01 X91.51 Y1.61 M03 S255 F150
G01 X88.21 Y0.78 M03 S0 F2000
G01 Z0.5 F300
G01 X89.88 Y1.15 M03 S255 F150
G01 X86.52 Y0.49 M03 S0 F2000
G01 Z0.5 F300
G01 X88.21 Y0.78 M03 S255 F150
G01 X84.81 Y0.28 M03 S0 F2000
G01 Z0.5 F300
G01 X86.52 Y0.49 M03 S255 F150
G01 X83.1 Y0.14 M03 S0 F2000
G01 Z0.5 F300
G01 X84.81 Y0.28 M03 S255 F150
G01 X81.36 Y0.1 M03 S0 F2000
G01 Z0.5 F300
G01 X83.1 Y0.14 M03 S255 F150
G01 X79.64 Y0.14 M03 S0 F2000
G01 Z0.5 F300
G01 X81.36 Y0.1 M03 S255 F150
G01 X77.91 Y0.28 M03 S0 F2000
G01 Z0.5 F300
G01 X79.64 Y0.14 M03 S255 F150
G01 X76.21 Y0.49 M03 S0 F2000
G01 Z0.5 F300
G01 X77.91 Y0.28 M03 S255 F150
G01 X74.52 Y0.78 M03 S0 F2000
G01 Z0.5 F300
G01 X76.21 Y0.49 M03 S255 F150
G01 X72.86 Y1.15 M03 S0 F2000
G01 Z0.5 F300
G01 X74.52 Y0.78 M03 S255 F150
G01 X71.21 Y1.61 M03 S0 F2000
G01 Z0.5 F300
G01 X72.86 Y1.15 M03 S255 F150
G01 X69.6 Y2.15 M03 S0 F2000
G01 Z0.5 F300
G01 X71.21 Y1.61 M03 S255 F150
G01 X68.01 Y2.76 M03 S0 F2000
G01 Z0.5 F300
G01 X69.6 Y2.15 M03 S255 F150
G01 X66.45 Y3.45 M03 S0 F2000
G01 Z0.5 F300
G01 X68.01 Y2.76 M03 S255 F150
G01 X64.94 Y4.21 M03 S0 F2000
G01 Z0.5 F300
G01 X66.45 Y3.45 M03 S255 F150
G01 X62 Y5.98 M03 S0 F2000
G01 Z0.5 F300
G01 X64.94 Y4.21 M03 S255 F150
G01 X59.25 Y8.01 M03 S0 F2000
G01 Z0.5 F300
G01 X62 Y5.98 M03 S255 F150
G01 X56.69 Y10.33 M03 S0 F2000
G01 Z0.5 F300
G01 X59.25 Y8.01 M03 S255 F150
G01 X54.36 Y12.89 M03 S0 F2000
G01 Z0.5 F300
G01 X56.69 Y10.33 M03 S255 F150
G01 X52.33 Y15.64 M03 S0 F2000
G01 Z0.5 F300
G01 X54.36 Y12.89 M03 S255 F150
G01 X50.58 Y18.58 M03 S0 F2000
G01 Z0.5 F300
G01 X52.33 Y15.64 M03 S255 F150
G01 X49.81 Y20.09 M03 S0 F2000
G01 Z0.5 F300
G01 X50.58 Y18.58 M03 S255 F150
G01 X49.13 Y21.65 M03 S0 F2000
G01 Z0.5 F300
G01 X49.81 Y20.09 M03 S255 F150
G01 X48.5 Y23.24 M03 S0 F2000
G01 Z0.5 F300
G01 X49.13 Y21.65 M03 S255 F150
G01 X47.98 Y24.85 M03 S0 F2000
G01 Z0.5 F300
G01 X48.5 Y23.24 M03 S255 F150
G01 X47.51 Y26.5 M03 S0 F2000
G01 Z0.5 F300
G01 X47.98 Y24.85 M03 S255 F150
G01 X47.14 Y28.16 M03 S0 F2000
G01 Z0.5 F300
G01 X47.51 Y26.5 M03 S255 F150
G01 X46.85 Y29.85 M03 S0 F2000
G01 Z0.5 F300
G01 X47.14 Y28.16 M03 S255 F150
G01 X46.64 Y31.55 M03 S0 F2000
G01 Z0.5 F300
G01 X46.85 Y29.85 M03 S255 F150
G01 X46.5 Y33.28 M03 S0 F2000
G01 Z0.5 F300
G01 X46.64 Y31.55 M03 S255 F150
G01 X46.46 Y35 M03 S0 F2000
G01 Z0.5 F300
G01 X46.5 Y33.28 M03 S255 F150
G01 X46.51 Y36.8 M03 S0 F2000
G01 Z0.5 F300
G01 X46.46 Y35 M03 S255 F150
G01 X46.64 Y38.56 M03 S0 F2000
G01 Z0.5 F300
G01 X46.51 Y36.8 M03 S255 F150
G01 X46.86 Y40.31 M03 S0 F2000
G01 Z0.5 F300
G01 X46.64 Y38.56 M03 S255 F150
G01 X47.18 Y42.04 M03 S0 F2000
G01 Z0.5 F300
G01 X46.86 Y40.31 M03 S255 F150
G01 X47.56 Y43.73 M03 S0 F2000
G01 Z0.5 F300
G01 X47.18 Y42.04 M03 S255 F150
G01 X48.04 Y45.38 M03 S0 F2000
G01 Z0.5 F300
G01 X47.56 Y43.73 M03 S255 F150
G01 X48.58 Y47 M03 S0 F2000
G01 Z0.5 F300
G01 X48.04 Y45.38 M03 S255 F150
G01 X49.2 Y48.59 M03 S0 F2000
G01 Z0.5 F300
G01 X48.58 Y47 M03 S255 F150
G01 X50.68 Y51.64 M03 S0 F2000
G01 Z0.5 F300
G01 X49.2 Y48.59 M03 S255 F150
G01 X52.43 Y54.51 M03 S0 F2000
G01 Z0.5 F300
G01 X50.68 Y51.64 M03 S255 F150
G01 X54.44 Y57.2 M03 S0 F2000
G01 Z0.5 F300
G01 X52.43 Y54.51 M03 S255 F150
G01 X56.69 Y59.68 M03 S0 F2000
G01 Z0.5 F300
G01 X54.44 Y57.2 M03 S255 F150
G01 X59.16 Y61.93 M03 S0 F2000
G01 Z0.5 F300
G01 X56.69 Y59.68 M03 S255 F150
G01 X61.85 Y63.94 M03 S0 F2000
G01 Z0.5 F300
G01 X59.16 Y61.93 M03 S255 F150
G01 X64.73 Y65.69 M03 S0 F2000
G01 Z0.5 F300
G01 X61.85 Y63.94 M03 S255 F150
G01 X67.77 Y67.16 M03 S0 F2000
G01 Z0.5 F300
G01 X64.73 Y65.69 M03 S255 F150
G01 X69.36 Y67.79 M03 S0 F2000
G01 Z0.5 F300
G01 X67.77 Y67.16 M03 S255 F150
G01 X70.99 Y68.33 M03 S0 F2000
G01 Z0.5 F300
G01 X69.36 Y67.79 M03 S255 F150
G01 X72.64 Y68.8 M03 S0 F2000
G01 Z0.5 F300
G01 X70.99 Y68.33 M03 S255 F150
G01 X74.33 Y69.19 M03 S0 F2000
G01 Z0.5 F300
G01 X72.64 Y68.8 M03 S255 F150
G01 X76.05 Y69.5 M03 S0 F2000
G01 Z0.5 F300
G01 X74.33 Y69.19 M03 S255 F150
G01 X77.8 Y69.73 M03 S0 F2000
G01 Z0.5 F300
G01 X76.05 Y69.5 M03 S255 F150
G01 X79.56 Y69.85 M03 S0 F2000
G01 Z0.5 F300
G01 X77.8 Y69.73 M03 S255 F150
G01 X81.36 Y69.9 M03 S0 F2000
G01 Z0.5 F300
G01 X79.56 Y69.85 M03 S255 F150
G01 X83.16 Y69.85 M03 S0 F2000
G01 Z0.5 F300
G01 X81.36 Y69.9 M03 S255 F150
G01 X84.93 Y69.73 M03 S0 F2000
G01 Z0.5 F300
G01 X83.16 Y69.85 M03 S255 F150
G01 X86.68 Y69.5 M03 S0 F2000
G01 Z0.5 F300
G01 X84.93 Y69.73 M03 S255 F150
G01 X88.4 Y69.19 M03 S0 F2000
G01 Z0.5 F300
G01 X86.68 Y69.5 M03 S255 F150
G01 X90.09 Y68.8 M03 S0 F2000
G01 Z0.5 F300
G01 X88.4 Y69.19 M03 S255 F150
G01 X91.74 Y68.33 M03 S0 F2000
G01 Z0.5 F300
G01 X90.09 Y68.8 M03 S255 F150
G01 X93.36 Y67.79 M03 S0 F2000
G01 Z0.5 F300
G01 X91.74 Y68.33 M03 S255 F150
G01 X94.95 Y67.16 M03 S0 F2000
G01 Z0.5 F300
G01 X93.36 Y67.79 M03 S255 F150
G01 X98 Y65.69 M03 S0 F2000
G01 Z0.5 F300
G01 X94.95 Y67.16 M03 S255 F150
G01 X100.88 Y63.94 M03 S0 F2000
G01 Z0.5 F300
G01 X98 Y65.69 M03 S255 F150
G01 X103.56 Y61.93 M03 S0 F2000
G01 Z0.5 F300
G01 X100.88 Y63.94 M03 S255 F150
G01 X106.04 Y59.68 M03 S0 F2000
G01 Z0.5 F300
G01 X103.56 Y61.93 M03 S255 F150
G01 X108.29 Y57.2 M03 S0 F2000
G01 Z0.5 F300
G01 X106.04 Y59.68 M03 S255 F150
G01 X110.3 Y54.51 M03 S0 F2000
G01 Z0.5 F300
G01 X108.29 Y57.2 M03 S255 F150
G01 X112.05 Y51.64 M03 S0 F2000
G01 Z0.5 F300
G01 X110.3 Y54.51 M03 S255 F150
G01 X113.53 Y48.59 M03 S0 F2000
G01 Z0.5 F300
G01 X112.05 Y51.64 M03 S255 F150
G01 X114.15 Y47 M03 S0 F2000
G01 Z0.5 F300
G01 X113.53 Y48.59 M03 S255 F150
G01 X114.69 Y45.38 M03 S0 F2000
G01 Z0.5 F300
G01 X114.15 Y47 M03 S255 F150
G01 X115.16 Y43.73 M03 S0 F2000
G01 Z0.5 F300
G01 X114.69 Y45.38 M03 S255 F150
G01 X115.55 Y42.04 M03 S0 F2000
G01 Z0.5 F300
G01 X115.16 Y43.73 M03 S255 F150
G01 X115.86 Y40.31 M03 S0 F2000
G01 Z0.5 F300
G01 X115.55 Y42.04 M03 S255 F150
G01 X116.09 Y38.56 M03 S0 F2000
G01 Z0.5 F300
G01 X115.86 Y40.31 M03 S255 F150
G01 X116.21 Y36.8 M03 S0 F2000
G01 Z0.5 F300
G01 X116.09 Y38.56 M03 S255 F150
G01 X116.26 Y35 M03 S0 F2000
G01 Z0.5 F300
G01 X116.21 Y36.8 M03 S255 F150
G01 X116.26 Y35 M03 S0 F2000
G01 Z0.5 F300
G01 X116.26 Y35 M03 S255 F150
G01 X113.13 Y34.28 M03 S0 F2000
G01 Z0.5 F300
G01 X113.26 Y35 M03 S255 F150
G01 X112.71 Y33.66 M03 S0 F2000
G01 Z0.5 F300
G01 X113.13 Y34.28 M03 S255 F150
G01 X112.1 Y33.25 M03 S0 F2000
G01 Z0.5 F300
G01 X112.71 Y33.66 M03 S255 F150
G01 X111.36 Y33.1 M03 S0 F2000
G01 Z0.5 F300
G01 X112.1 Y33.25 M03 S255 F150
G01 X110.64 Y33.25 M03 S0 F2000
G01 Z0.5 F300
G01 X111.36 Y33.1 M03 S255 F150
G01 X110.03 Y33.66 M03 S0 F2000
G01 Z0.5 F300
G01 X110.64 Y33.25 M03 S255 F150
G01 X109.61 Y34.28 M03 S0 F2000
G01 Z0.5 F300
G01 X110.03 Y33.66 M03 S255 F150
G01 X109.46 Y35 M03 S0 F2000
G01 Z0.5 F300
G01 X109.61 Y34.28 M03 S255 F150
G01 X109.5 Y35.39 M03 S0 F2000
G01 Z0.5 F300
G01 X109.46 Y35 M03 S255 F150
G01 X109.61 Y35.74 M03 S0 F2000
G01 Z0.5 F300
G01 X109.5 Y35.39 M03 S255 F150
G01 X110.03 Y36.35 M03 S0 F2000
G01 Z0.5 F300
G01 X109.61 Y35.74 M03 S255 F150
G01 X110.63 Y36.75 M03 S0 F2000
G01 Z0.5 F300
G01 X110.03 Y36.35 M03 S255 F150
G01 X110.98 Y36.86 M03 S0 F2000
G01 Z0.5 F300
G01 X110.63 Y36.75 M03 S255 F150
G01 X111.36 Y36.9 M03 S0 F2000
G01 Z0.5 F300
G01 X110.98 Y36.86 M03 S255 F150
G01 X111.75 Y36.86 M03 S0 F2000
G01 Z0.5 F300
G01 X111.36 Y36.9 M03 S255 F150
G01 X112.1 Y36.75 M03 S0 F2000
G01 Z0.5 F300
G01 X111.75 Y36.86 M03 S255 F150
G01 X112.71 Y36.35 M03 S0 F2000
G01 Z0.5 F300
G01 X112.1 Y36.75 M03 S255 F150
G01 X113.11 Y35.74 M03 S0 F2000
G01 Z0.5 F300
G01 X112.71 Y36.35 M03 S255 F150
G01 X113.23 Y35.39 M03 S0 F2000
G01 Z0.5 F300
G01 X113.11 Y35.74 M03 S255 F150
G01 X113.26 Y35 M03 S0 F2000
G01 Z0.5 F300
G01 X113.23 Y35.39 M03 S255 F150
G01 X113.26 Y35 M03 S0 F2000
G01 Z0.5 F300
G01 X113.26 Y35 M03 S255 F150
G00 M03 S0
M05
G01 X123.65 Y59.15 M03 S0 F2000
M03 S0
G01 Z1 F300
G01 X123.65 Y17.15 M03 S255 F150
G01 Z1 F300
G01 X123.65 Y14.15 M03 S255 F150
G01 Z1 F300
G01 X123.65 Y7.35 M03 S255 F150
G01 Z1 F300
G01 X128.75 Y7.35 M03 S255 F150
G01 Z1 F300
G01 X128.75 Y10.15 M03 S255 F150
G01 Z1 F300
G01 X158.55 Y10.15 M03 S255 F150
G01 Z1 F300
G01 X158.55 Y7.35 M03 S255 F150
G01 Z1 F300
G01 X163.65 Y7.35 M03 S255 F150
G01 Z1 F300
G01 X163.65 Y14.15 M03 S255 F150
G01 Z1 F300
G01 X163.65 Y17.15 M03 S255 F150
G01 Z1 F300
G01 X163.65 Y59.15 M03 S255 F150
G01 Z1 F300
G01 X156.05 Y59.15 M03 S255 F150
G01 Z1 F300
G01 X156.05 Y55.01 M03 S255 F150
G01 X156.59 Y55.3 M03 S0 F2000
G01 Z1 F300
G01 X156.05 Y55.01 M03 S255 F150
G01 X157.18 Y55.39 M03 S0 F2000
G01 Z1 F300
G01 X156.59 Y55.3 M03 S255 F150
G01 X157.9 Y55.25 M03 S0 F2000
G01 Z1 F300
G01 X157.18 Y55.39 M03 S255 F150
G01 X158.51 Y54.84 M03 S0 F2000
G01 Z1 F300
G01 X157.9 Y55.25 M03 S255 F150
G01 X158.93 Y54.21 M03 S0 F2000
G01 Z1 F300
G01 X158.51 Y54.84 M03 S255 F150
G01 X159.06 Y53.49 M03 S0 F2000
G01 Z1 F300
G01 X158.93 Y54.21 M03 S255 F150
G01 X158.93 Y52.76 M03 S0 F2000
G01 Z1 F300
G01 X159.06 Y53.49 M03 S255 F150
G01 X158.51 Y52.15 M03 S0 F2000
G01 Z1 F300
G01 X158.93 Y52.76 M03 S255 F150
G01 X157.9 Y51.74 M03 S0 F2000
G01 Z1 F300
G01 X158.51 Y52.15 M03 S255 F150
G01 X157.18 Y51.59 M03 S0 F2000
G01 Z1 F300
G01 X157.9 Y51.74 M03 S255 F150
G01 X156.59 Y51.69 M03 S0 F2000
G01 Z1 F300
G01 X157.18 Y51.59 M03 S255 F150
G01 X156.05 Y51.96 M03 S0 F2000
G01 Z1 F300
G01 X156.59 Y51.69 M03 S255 F150
G01 X156.05 Y51.95 M03 S0 F2000
G01 Z1 F300
G01 X156.05 Y47.35 M03 S255 F150
G01 Z1 F300
G01 X131.25 Y47.35 M03 S255 F150
G01 Z1 F300
G01 X131.25 Y47.36 M03 S255 F150
G01 X131.25 Y47.56 M03 S0 F2000
G01 Z1 F300
G01 X131.25 Y47.41 M03 S255 F150
G01 X131.25 Y47.8 M03 S0 F2000
G01 Z1 F300
G01 X131.25 Y47.56 M03 S255 F150
G01 X131.25 Y48.11 M03 S0 F2000
G01 Z1 F300
G01 X131.25 Y47.8 M03 S255 F150
G01 X131.25 Y48.88 M03 S0 F2000
G01 Z1 F300
G01 X131.25 Y48.11 M03 S255 F150
G01 X131.25 Y49.74 M03 S0 F2000
G01 Z1 F300
G01 X131.25 Y48.88 M03 S255 F150
G01 X131.25 Y50.61 M03 S0 F2000
G01 Z1 F300
G01 X131.25 Y49.74 M03 S255 F150
G01 X131.25 Y51.38 M03 S0 F2000
G01 Z1 F300
G01 X131.25 Y50.61 M03 S255 F150
G01 X131.25 Y51.69 M03 S0 F2000
G01 Z1 F300
G01 X131.25 Y51.38 M03 S255 F150
G01 X131.25 Y51.93 M03 S0 F2000
G01 Z1 F300
G01 X131.25 Y51.69 M03 S255 F150
G01 X131.25 Y52.08 M03 S0 F2000
G01 Z1 F300
G01 X131.25 Y51.93 M03 S255 F150
G01 X131.25 Y52.13 M03 S0 F2000
G01 Z1 F300
G01 X131.25 Y52.08 M03 S255 F150
G01 X130.65 Y51.73 M03 S0 F2000
G01 Z1 F300
G01 X131.25 Y52.13 M03 S255 F150
G01 X129.94 Y51.59 M03 S0 F2000
G01 Z1 F300
G01 X130.65 Y51.73 M03 S255 F150
G01 X129.55 Y51.63 M03 S0 F2000
G01 Z1 F300
G01 X129.94 Y51.59 M03 S255 F150
G01 X129.2 Y51.74 M03 S0 F2000
G01 Z1 F300
G01 X129.55 Y51.63 M03 S255 F150
G01 X128.6 Y52.15 M03 S0 F2000
G01 Z1 F300
G01 X129.2 Y51.74 M03 S255 F150
G01 X128.19 Y52.75 M03 S0 F2000
G01 Z1 F300
G01 X128.6 Y52.15 M03 S255 F150
G01 X128.08 Y53.11 M03 S0 F2000
G01 Z1 F300
G01 X128.19 Y52.75 M03 S255 F150
G01 X128.04 Y53.5 M03 S0 F2000
G01 Z1 F300
G01 X128.08 Y53.11 M03 S255 F150
G01 X128.08 Y53.89 M03 S0 F2000
G01 Z1 F300
G01 X128.04 Y53.5 M03 S255 F150
G01 X128.19 Y54.24 M03 S0 F2000
G01 Z1 F300
G01 X128.08 Y53.89 M03 S255 F150
G01 X128.6 Y54.85 M03 S0 F2000
G01 Z1 F300
G01 X128.19 Y54.24 M03 S255 F150
G01 X129.2 Y55.25 M03 S0 F2000
G01 Z1 F300
G01 X128.6 Y54.85 M03 S255 F150
G01 X129.55 Y55.36 M03 S0 F2000
G01 Z1 F300
G01 X129.2 Y55.25 M03 S255 F150
G01 X129.94 Y55.4 M03 S0 F2000
G01 Z1 F300
G01 X129.55 Y55.36 M03 S255 F150
G01 X130.65 Y55.26 M03 S0 F2000
G01 Z1 F300
G01 X129.94 Y55.4 M03 S255 F150
G01 X131.25 Y54.86 M03 S0 F2000
G01 Z1 F300
G01 X130.65 Y55.26 M03 S255 F150
G01 X131.25 Y54.86 M03 S0 F2000
G01 Z1 F300
G01 X131.25 Y59.15 M03 S255 F150
G01 Z1 F300
G01 X123.65 Y59.15 M03 S255 F150
G01 X5.1 Y59.15 M03 S0 F2000
G01 Z1 F300
G01 X5.1 Y56.15 M03 S255 F150
G01 Z1 F300
G01 X0.1 Y56.15 M03 S255 F150
G01 Z1 F300
G01 X0.1 Y16.35 M03 S255 F150
G01 Z1 F300
G01 X39.9 Y16.35 M03 S255 F150
G01 Z1 F300
G01 X39.9 Y56.15 M03 S255 F150
G01 Z1 F300
G01 X34.9 Y56.15 M03 S255 F150
G01 Z1 F300
G01 X34.9 Y59.15 M03 S255 F150
G01 Z1 F300
G01 X5.1 Y59.15 M03 S255 F150
G01 X83.13 Y34.28 M03 S0 F2000
G01 Z1 F300
G01 X83.26 Y35 M03 S255 F150
G01 X82.71 Y33.66 M03 S0 F2000
G01 Z1 F300
G01 X83.13 Y34.28 M03 S255 F150
G01 X82.1 Y33.25 M03 S0 F2000
G01 Z1 F300
G01 X82.71 Y33.66 M03 S255 F150
G01 X81.36 Y33.1 M03 S0 F2000
G01 Z1 F300
G01 X82.1 Y33.25 M03 S255 F150
G01 X80.64 Y33.25 M03 S0 F2000
G01 Z1 F300
G01 X81.36 Y33.1 M03 S255 F150
G01 X80.02 Y33.66 M03 S0 F2000
G01 Z1 F300
G01 X80.64 Y33.25 M03 S255 F150
G01 X79.61 Y34.28 M03 S0 F2000
G01 Z1 F300
G01 X80.02 Y33.66 M03 S255 F150
G01 X79.46 Y35 M03 S0 F2000
G01 Z1 F300
G01 X79.61 Y34.28 M03 S255 F150
G01 X79.5 Y35.39 M03 S0 F2000
G01 Z1 F300
G01 X79.46 Y35 M03 S255 F150
G01 X79.61 Y35.74 M03 S0 F2000
G01 Z1 F300
G01 X79.5 Y35.39 M03 S255 F150
G01 X80.02 Y36.35 M03 S0 F2000
G01 Z1 F300
G01 X79.61 Y35.74 M03 S255 F150
G01 X80.63 Y36.75 M03 S0 F2000
G01 Z1 F300
G01 X80.02 Y36.35 M03 S255 F150
G01 X80.98 Y36.86 M03 S0 F2000
G01 Z1 F300
G01 X80.63 Y36.75 M03 S255 F150
G01 X81.36 Y36.9 M03 S0 F2000
G01 Z1 F300
G01 X80.98 Y36.86 M03 S255 F150
G01 X81.75 Y36.86 M03 S0 F2000
G01 Z1 F300
G01 X81.36 Y36.9 M03 S255 F150
G01 X82.1 Y36.75 M03 S0 F2000
G01 Z1 F300
G01 X81.75 Y36.86 M03 S255 F150
G01 X82.71 Y36.35 M03 S0 F2000
G01 Z1 F300
G01 X82.1 Y36.75 M03 S255 F150
G01 X83.11 Y35.74 M03 S0 F2000
G01 Z1 F300
G01 X82.71 Y36.35 M03 S255 F150
G01 X83.23 Y35.39 M03 S0 F2000
G01 Z1 F300
G01 X83.11 Y35.74 M03 S255 F150
G01 X83.26 Y35 M03 S0 F2000
G01 Z1 F300
G01 X83.23 Y35.39 M03 S255 F150
G01 X83.26 Y35 M03 S0 F2000
G01 Z1 F300
G01 X83.26 Y35 M03 S255 F150
G01 X116.23 Y33.28 M03 S0 F2000
G01 Z1 F300
G01 X116.26 Y35 M03 S255 F150
G01 X116.09 Y31.55 M03 S0 F2000
G01 Z1 F300
G01 X116.23 Y33.28 M03 S255 F150
G01 X115.88 Y29.85 M03 S0 F2000
G01 Z1 F300
G01 X116.09 Y31.55 M03 S255 F150
G01 X115.59 Y28.16 M03 S0 F2000
G01 Z1 F300
G01 X115.88 Y29.85 M03 S255 F150
G01 X115.21 Y26.5 M03 S0 F2000
G01 Z1 F300
G01 X115.59 Y28.16 M03 S255 F150
G01 X114.75 Y24.85 M03 S0 F2000
G01 Z1 F300
G01 X115.21 Y26.5 M03 S255 F150
G01 X114.23 Y23.24 M03 S0 F2000
G01 Z1 F300
G01 X114.75 Y24.85 M03 S255 F150
G01 X113.61 Y21.65 M03 S0 F2000
G01 Z1 F300
G01 X114.23 Y23.24 M03 S255 F150
G01 X112.91 Y20.09 M03 S0 F2000
G01 Z1 F300
G01 X113.61 Y21.65 M03 S255 F150
G01 X112.15 Y18.58 M03 S0 F2000
G01 Z1 F300
G01 X112.91 Y20.09 M03 S255 F150
G01 X110.4 Y15.64 M03 S0 F2000
G01 Z1 F300
G01 X112.15 Y18.58 M03 S255 F150
G01 X108.36 Y12.89 M03 S0 F2000
G01 Z1 F300
G01 X110.4 Y15.64 M03 S255 F150
G01 X106.05 Y10.33 M03 S0 F2000
G01 Z1 F300
G01 X108.36 Y12.89 M03 S255 F150
G01 X103.49 Y8.01 M03 S0 F2000
G01 Z1 F300
G01 X106.05 Y10.33 M03 S255 F150
G01 X100.74 Y5.98 M03 S0 F2000
G01 Z1 F300
G01 X103.49 Y8.01 M03 S255 F150
G01 X97.8 Y4.21 M03 S0 F2000
G01 Z1 F300
G01 X100.74 Y5.98 M03 S255 F150
G01 X96.27 Y3.45 M03 S0 F2000
G01 Z1 F300
G01 X97.8 Y4.21 M03 S255 F150
G01 X94.73 Y2.76 M03 S0 F2000
G01 Z1 F300
G01 X96.27 Y3.45 M03 S255 F150
G01 X93.14 Y2.15 M03 S0 F2000
G01 Z1 F300
G01 X94.73 Y2.76 M03 S255 F150
G01 X91.51 Y1.61 M03 S0 F2000
G01 Z1 F300
G01 X93.14 Y2.15 M03 S255 F150
G01 X89.88 Y1.15 M03 S0 F2000
G01 Z1 F300
G01 X91.51 Y1.61 M03 S255 F150
G01 X88.21 Y0.78 M03 S0 F2000
G01 Z1 F300
G01 X89.88 Y1.15 M03 S255 F150
G01 X86.52 Y0.49 M03 S0 F2000
G01 Z1 F300
G01 X88.21 Y0.78 M03 S255 F150
G01 X84.81 Y0.28 M03 S0 F2000
G01 Z1 F300
G01 X86.52 Y0.49 M03 S255 F150
G01 X83.1 Y0.14 M03 S0 F2000
G01 Z1 F300
G01 X84.81 Y0.28 M03 S255 F150
G01 X81.36 Y0.1 M03 S0 F2000
G01 Z1 F300
G01 X83.1 Y0.14 M03 S255 F150
G01 X79.64 Y0.14 M03 S0 F2000
G01 Z1 F300
G01 X81.36 Y0.1 M03 S255 F150
G01 X77.91 Y0.28 M03 S0 F2000
G01 Z1 F300
G01 X79.64 Y0.14 M03 S255 F150
G01 X76.21 Y0.49 M03 S0 F2000
G01 Z1 F300
G01 X77.91 Y0.28 M03 S255 F150
G01 X74.52 Y0.78 M03 S0 F2000
G01 Z1 F300
G01 X76.21 Y0.49 M03 S255 F150
G01 X72.86 Y1.15 M03 S0 F2000
G01 Z1 F300
G01 X74.52 Y0.78 M03 S255 F150
G01 X71.21 Y1.61 M03 S0 F2000
G01 Z1 F300
G01 X72.86 Y1.15 M03 S255 F150
G01 X69.6 Y2.15 M03 S0 F2000
G01 Z1 F300
G01 X71.21 Y1.61 M03 S255 F150
G01 X68.01 Y2.76 M03 S0 F2000
G01 Z1 F300
G01 X69.6 Y2.15 M03 S255 F150
G01 X66.45 Y3.45 M03 S0 F2000
G01 Z1 F300
G01 X68.01 Y2.76 M03 S255 F150
G01 X64.94 Y4.21 M03 S0 F2000
G01 Z1 F300
G01 X66.45 Y3.45 M03 S255 F150
G01 X62 Y5.98 M03 S0 F2000
G01 Z1 F300
G01 X64.94 Y4.21 M03 S255 F150
G01 X59.25 Y8.01 M03 S0 F2000
G01 Z1 F300
G01 X62 Y5.98 M03 S255 F150
G01 X56.69 Y10.33 M03 S0 F2000
G01 Z1 F300
G01 X59.25 Y8.01 M03 S255 F150
G01 X54.36 Y12.89 M03 S0 F2000
G01 Z1 F300
G01 X56.69 Y10.33 M03 S255 F150
G01 X52.33 Y15.64 M03 S0 F2000
G01 Z1 F300
G01 X54.36 Y12.89 M03 S255 F150
G01 X50.58 Y18.58 M03 S0 F2000
G01 Z1 F300
G01 X52.33 Y15.64 M03 S255 F150
G01 X49.81 Y20.09 M03 S0 F2000
G01 Z1 F300
G01 X50.58 Y18.58 M03 S255 F150
G01 X49.13 Y21.65 M03 S0 F2000
G01 Z1 F300
G01 X49.81 Y20.09 M03 S255 F150
G01 X48.5 Y23.24 M03 S0 F2000
G01 Z1 F300
G01 X49.13 Y21.65 M03 S255 F150
G01 X47.98 Y24.85 M03 S0 F2000
G01 Z1 F300
G01 X48.5 Y23.24 M03 S255 F150
G01 X47.51 Y26.5 M03 S0 F2000
G01 Z1 F300
G01 X47.98 Y24.85 M03 S255 F150
G01 X47.14 Y28.16 M03 S0 F2000
G01 Z1 F300
G01 X47.51 Y26.5 M03 S255 F150
G01 X46.85 Y29.85 M03 S0 F2000
G01 Z1 F300
G01 X47.14 Y28.16 M03 S255 F150
G01 X46.64 Y31.55 M03 S0 F2000
G01 Z1 F300
G01 X46.85 Y29.85 M03 S255 F150
G01 X46.5 Y33.28 M03 S0 F2000
G01 Z1 F300
G01 X46.64 Y31.55 M03 S255 F150
G01 X46.46 Y35 M03 S0 F2000
G01 Z1 F300
G01 X46.5 Y33.28 M03 S255 F150
G01 X46.51 Y36.8 M03 S0 F2000
G01 Z1 F300
G01 X46.46 Y35 M03 S255 F150
G01 X46.64 Y38.56 M03 S0 F2000
G01 Z1 F300
G01 X46.51 Y36.8 M03 S255 F150
G01 X46.86 Y40.31 M03 S0 F2000
G01 Z1 F300
G01 X46.64 Y38.56 M03 S255 F150
G01 X47.18 Y42.04 M03 S0 F2000
G01 Z1 F300
G01 X46.86 Y40.31 M03 S255 F150
G01 X47.56 Y43.73 M03 S0 F2000
G01 Z1 F300
G01 X47.18 Y42.04 M03 S255 F150
G01 X48.04 Y45.38 M03 S0 F2000
G01 Z1 F300
G01 X47.56 Y43.73 M03 S255 F150
G01 X48.58 Y47 M03 S0 F2000
G01 Z1 F300
G01 X48.04 Y45.38 M03 S255 F150
G01 X49.2 Y48.59 M03 S0 F2000
G01 Z1 F300
G01 X48.58 Y47 M03 S255 F150
G01 X50.68 Y51.64 M03 S0 F2000
G01 Z1 F300
G01 X49.2 Y48.59 M03 S255 F150
G01 X52.43 Y54.51 M03 S0 F2000
G01 Z1 F300
G01 X50.68 Y51.64 M03 S255 F150
G01 X54.44 Y57.2 M03 S0 F2000
G01 Z1 F300
G01 X52.43 Y54.51 M03 S255 F150
G01 X56.69 Y59.68 M03 S0 F2000
G01 Z1 F300
G01 X54.44 Y57.2 M03 S255 F150
G01 X59.16 Y61.93 M03 S0 F2000
G01 Z1 F300
G01 X56.69 Y59.68 M03 S255 F150
G01 X61.85 Y63.94 M03 S0 F2000
G01 Z1 F300
G01 X59.16 Y61.93 M03 S255 F150
G01 X64.73 Y65.69 M03 S0 F2000
G01 Z1 F300
G01 X61.85 Y63.94 M03 S255 F150
G01 X67.77 Y67.16 M03 S0 F2000
G01 Z1 F300
G01 X64.73 Y65.69 M03 S255 F150
G01 X69.36 Y67.79 M03 S0 F2000
G01 Z1 F300
G01 X67.77 Y67.16 M03 S255 F150
G01 X70.99 Y68.33 M03 S0 F2000
G01 Z1 F300
G01 X69.36 Y67.79 M03 S255 F150
G01 X72.64 Y68.8 M03 S0 F2000
G01 Z1 F300
G01 X70.99 Y68.33 M03 S255 F150
G01 X74.33 Y69.19 M03 S0 F2000
G01 Z1 F300
G01 X72.64 Y68.8 M03 S255 F150
G01 X76.05 Y69.5 M03 S0 F2000
G01 Z1 F300
G01 X74.33 Y69.19 M03 S255 F150
G01 X77.8 Y69.73 M03 S0 F2000
G01 Z1 F300
G01 X76.05 Y69.5 M03 S255 F150
G01 X79.56 Y69.85 M03 S0 F2000
G01 Z1 F300
G01 X77.8 Y69.73 M03 S255 F150
G01 X81.36 Y69.9 M03 S0 F2000
G01 Z1 F300
G01 X79.56 Y69.85 M03 S255 F150
G01 X83.16 Y69.85 M03 S0 F2000
G01 Z1 F300
G01 X81.36 Y69.9 M03 S255 F150
G01 X84.93 Y69.73 M03 S0 F2000
G01 Z1 F300
G01 X83.16 Y69.85 M03 S255 F150
G01 X86.68 Y69.5 M03 S0 F2000
G01 Z1 F300
G01 X84.93 Y69.73 M03 S255 F150
G01 X88.4 Y69.19 M03 S0 F2000
G01 Z1 F300
G01 X86.68 Y69.5 M03 S255 F150
G01 X90.09 Y68.8 M03 S0 F2000
G01 Z1 F300
G01 X88.4 Y69.19 M03 S255 F150
G01 X91.74 Y68.33 M03 S0 F2000
G01 Z1 F300
G01 X90.09 Y68.8 M03 S255 F150
G01 X93.36 Y67.79 M03 S0 F2000
G01 Z1 F300
G01 X91.74 Y68.33 M03 S255 F150
G01 X94.95 Y67.16 M03 S0 F2000
G01 Z1 F300
G01 X93.36 Y67.79 M03 S255 F150
G01 X98 Y65.69 M03 S0 F2000
G01 Z1 F300
G01 X94.95 Y67.16 M03 S255 F150
G01 X100.88 Y63.94 M03 S0 F2000
G01 Z1 F300
G01 X98 Y65.69 M03 S255 F150
G01 X103.56 Y61.93 M03 S0 F2000
G01 Z1 F300
G01 X100.88 Y63.94 M03 S255 F150
G01 X106.04 Y59.68 M03 S0 F2000
G01 Z1 F300
G01 X103.56 Y61.93 M03 S255 F150
G01 X108.29 Y57.2 M03 S0 F2000
G01 Z1 F300
G01 X106.04 Y59.68 M03 S255 F150
G01 X110.3 Y54.51 M03 S0 F2000
G01 Z1 F300
G01 X108.29 Y57.2 M03 S255 F150
G01 X112.05 Y51.64 M03 S0 F2000
G01 Z1 F300
G01 X110.3 Y54.51 M03 S255 F150
G01 X113.53 Y48.59 M03 S0 F2000
G01 Z1 F300
G01 X112.05 Y51.64 M03 S255 F150
G01 X114.15 Y47 M03 S0 F2000
G01 Z1 F300
G01 X113.53 Y48.59 M03 S255 F150
G01 X114.69 Y45.38 M03 S0 F2000
G01 Z1 F300
G01 X114.15 Y47 M03 S255 F150
G01 X115.16 Y43.73 M03 S0 F2000
G01 Z1 F300
G01 X114.69 Y45.38 M03 S255 F150
G01 X115.55 Y42.04 M03 S0 F2000
G01 Z1 F300
G01 X115.16 Y43.73 M03 S255 F150
G01 X115.86 Y40.31 M03 S0 F2000
G01 Z1 F300
G01 X115.55 Y42.04 M03 S255 F150
G01 X116.09 Y38.56 M03 S0 F2000
G01 Z1 F300
G01 X115.86 Y40.31 M03 S255 F150
G01 X116.21 Y36.8 M03 S0 F2000
G01 Z1 F300
G01 X116.09 Y38.56 M03 S255 F150
G01 X116.26 Y35 M03 S0 F2000
G01 Z1 F300
G01 X116.21 Y36.8 M03 S255 F150
G01 X116.26 Y35 M03 S0 F2000
G01 Z1 F300
G01 X116.26 Y35 M03 S255 F150
G01 X113.13 Y34.28 M03 S0 F2000
G01 Z1 F300
G01 X113.26 Y35 M03 S255 F150
G01 X112.71 Y33.66 M03 S0 F2000
G01 Z1 F300
G01 X113.13 Y34.28 M03 S255 F150
G01 X112.1 Y33.25 M03 S0 F2000
G01 Z1 F300
G01 X112.71 Y33.66 M03 S255 F150
G01 X111.36 Y33.1 M03 S0 F2000
G01 Z1 F300
G01 X112.1 Y33.25 M03 S255 F150
G01 X110.64 Y33.25 M03 S0 F2000
G01 Z1 F300
G01 X111.36 Y33.1 M03 S255 F150
G01 X110.03 Y33.66 M03 S0 F2000
G01 Z1 F300
G01 X110.64 Y33.25 M03 S255 F150
G01 X109.61 Y34.28 M03 S0 F2000
G01 Z1 F300
G01 X110.03 Y33.66 M03 S255 F150
G01 X109.46 Y35 M03 S0 F2000
G01 Z1 F300
G01 X109.61 Y34.28 M03 S255 F150
G01 X109.5 Y35.39 M03 S0 F2000
G01 Z1 F300
G01 X109.46 Y35 M03 S255 F150
G01 X109.61 Y35.74 M03 S0 F2000
G01 Z1 F300
G01 X109.5 Y35.39 M03 S255 F150
G01 X110.03 Y36.35 M03 S0 F2000
G01 Z1 F300
G01 X109.61 Y35.74 M03 S255 F150
G01 X110.63 Y36.75 M03 S0 F2000
G01 Z1 F300
G01 X110.03 Y36.35 M03 S255 F150
G01 X110.98 Y36.86 M03 S0 F2000
G01 Z1 F300
G01 X110.63 Y36.75 M03 S255 F150
G01 X111.36 Y36.9 M03 S0 F2000
G01 Z1 F300
G01 X110.98 Y36.86 M03 S255 F150
G01 X111.75 Y36.86 M03 S0 F2000
G01 Z1 F300
G01 X111.36 Y36.9 M03 S255 F150
G01 X112.1 Y36.75 M03 S0 F2000
G01 Z1 F300
G01 X111.75 Y36.86 M03 S255 F150
G01 X112.71 Y36.35 M03 S0 F2000
G01 Z1 F300
G01 X112.1 Y36.75 M03 S255 F150
G01 X113.11 Y35.74 M03 S0 F2000
G01 Z1 F300
G01 X112.71 Y36.35 M03 S255 F150
G01 X113.23 Y35.39 M03 S0 F2000
G01 Z1 F300
G01 X113.11 Y35.74 M03 S255 F150
G01 X113.26 Y35 M03 S0 F2000
G01 Z1 F300
G01 X113.23 Y35.39 M03 S255 F150
G01 X113.26 Y35 M03 S0 F2000
G01 Z1 F300
G01 X113.26 Y35 M03 S255 F150
G00 M03 S0
M05
G01 X123.65 Y59.15 M03 S0 F2000
M03 S0
G01 Z1.5 F300
G01 X123.65 Y17.15 M03 S255 F150
G01 Z1.5 F300
G01 X123.65 Y14.15 M03 S255 F150
G01 Z1.5 F300
G01 X123.65 Y7.35 M03 S255 F150
G01 Z1.5 F300
G01 X128.75 Y7.35 M03 S255 F150
G01 Z1.5 F300
G01 X128.75 Y10.15 M03 S255 F150
G01 Z1.5 F300
G01 X158.55 Y10.15 M03 S255 F150
G01 Z1.5 F300
G01 X158.55 Y7.35 M03 S255 F150
G01 Z1.5 F300
G01 X163.65 Y7.35 M03 S255 F150
G01 Z1.5 F300
G01 X163.65 Y14.15 M03 S255 F150
G01 Z1.5 F300
G01 X163.65 Y17.15 M03 S255 F150
G01 Z1.5 F300
G01 X163.65 Y59.15 M03 S255 F150
G01 Z1.5 F300
G01 X156.05 Y59.15 M03 S255 F150
G01 Z1.5 F300
G01 X156.05 Y55.01 M03 S255 F150
G01 X156.59 Y55.3 M03 S0 F2000
G01 Z1.5 F300
G01 X156.05 Y55.01 M03 S255 F150
G01 X157.18 Y55.39 M03 S0 F2000
G01 Z1.5 F300
G01 X156.59 Y55.3 M03 S255 F150
G01 X157.9 Y55.25 M03 S0 F2000
G01 Z1.5 F300
G01 X157.18 Y55.39 M03 S255 F150
G01 X158.51 Y54.84 M03 S0 F2000
G01 Z1.5 F300
G01 X157.9 Y55.25 M03 S255 F150
G01 X158.93 Y54.21 M03 S0 F2000
G01 Z1.5 F300
G01 X158.51 Y54.84 M03 S255 F150
G01 X159.06 Y53.49 M03 S0 F2000
G01 Z1.5 F300
G01 X158.93 Y54.21 M03 S255 F150
G01 X158.93 Y52.76 M03 S0 F2000
G01 Z1.5 F300
G01 X159.06 Y53.49 M03 S255 F150
G01 X158.51 Y52.15 M03 S0 F2000
G01 Z1.5 F300
G01 X158.93 Y52.76 M03 S255 F150
G01 X157.9 Y51.74 M03 S0 F2000
G01 Z1.5 F300
G01 X158.51 Y52.15 M03 S255 F150
G01 X157.18 Y51.59 M03 S0 F2000
G01 Z1.5 F300
G01 X157.9 Y51.74 M03 S255 F150
G01 X156.59 Y51.69 M03 S0 F2000
G01 Z1.5 F300
G01 X157.18 Y51.59 M03 S255 F150
G01 X156.05 Y51.96 M03 S0 F2000
G01 Z1.5 F300
G01 X156.59 Y51.69 M03 S255 F150
G01 X156.05 Y51.95 M03 S0 F2000
G01 Z1.5 F300
G01 X156.05 Y47.35 M03 S255 F150
G01 Z1.5 F300
G01 X131.25 Y47.35 M03 S255 F150
G01 Z1.5 F300
G01 X131.25 Y47.36 M03 S255 F150
G01 X131.25 Y47.56 M03 S0 F2000
G01 Z1.5 F300
G01 X131.25 Y47.41 M03 S255 F150
G01 X131.25 Y47.8 M03 S0 F2000
G01 Z1.5 F300
G01 X131.25 Y47.56 M03 S255 F150
G01 X131.25 Y48.11 M03 S0 F2000
G01 Z1.5 F300
G01 X131.25 Y47.8 M03 S255 F150
G01 X131.25 Y48.88 M03 S0 F2000
G01 Z1.5 F300
G01 X131.25 Y48.11 M03 S255 F150
G01 X131.25 Y49.74 M03 S0 F2000
G01 Z1.5 F300
G01 X131.25 Y48.88 M03 S255 F150
G01 X131.25 Y50.61 M03 S0 F2000
G01 Z1.5 F300
G01 X131.25 Y49.74 M03 S255 F150
G01 X131.25 Y51.38 M03 S0 F2000
G01 Z1.5 F300
G01 X131.25 Y50.61 M03 S255 F150
G01 X131.25 Y51.69 M03 S0 F2000
G01 Z1.5 F300
G01 X131.25 Y51.38 M03 S255 F150
G01 X131.25 Y51.93 M03 S0 F2000
G01 Z1.5 F300
G01 X131.25 Y51.69 M03 S255 F150
G01 X131.25 Y52.08 M03 S0 F2000
G01 Z1.5 F300
G01 X131.25 Y51.93 M03 S255 F150
G01 X131.25 Y52.13 M03 S0 F2000
G01 Z1.5 F300
G01 X131.25 Y52.08 M03 S255 F150
G01 X130.65 Y51.73 M03 S0 F2000
G01 Z1.5 F300
G01 X131.25 Y52.13 M03 S255 F150
G01 X129.94 Y51.59 M03 S0 F2000
G01 Z1.5 F300
G01 X130.65 Y51.73 M03 S255 F150
G01 X129.55 Y51.63 M03 S0 F2000
G01 Z1.5 F300
G01 X129.94 Y51.59 M03 S255 F150
G01 X129.2 Y51.74 M03 S0 F2000
G01 Z1.5 F300
G01 X129.55 Y51.63 M03 S255 F150
G01 X128.6 Y52.15 M03 S0 F2000
G01 Z1.5 F300
G01 X129.2 Y51.74 M03 S255 F150
G01 X128.19 Y52.75 M03 S0 F2000
G01 Z1.5 F300
G01 X128.6 Y52.15 M03 S255 F150
G01 X128.08 Y53.11 M03 S0 F2000
G01 Z1.5 F300
G01 X128.19 Y52.75 M03 S255 F150
G01 X128.04 Y53.5 M03 S0 F2000
G01 Z1.5 F300
G01 X128.08 Y53.11 M03 S255 F150
G01 X128.08 Y53.89 M03 S0 F2000
G01 Z1.5 F300
G01 X128.04 Y53.5 M03 S255 F150
G01 X128.19 Y54.24 M03 S0 F2000
G01 Z1.5 F300
G01 X128.08 Y53.89 M03 S255 F150
G01 X128.6 Y54.85 M03 S0 F2000
G01 Z1.5 F300
G01 X128.19 Y54.24 M03 S255 F150
G01 X129.2 Y55.25 M03 S0 F2000
G01 Z1.5 F300
G01 X128.6 Y54.85 M03 S255 F150
G01 X129.55 Y55.36 M03 S0 F2000
G01 Z1.5 F300
G01 X129.2 Y55.25 M03 S255 F150
G01 X129.94 Y55.4 M03 S0 F2000
G01 Z1.5 F300
G01 X129.55 Y55.36 M03 S255 F150
G01 X130.65 Y55.26 M03 S0 F2000
G01 Z1.5 F300
G01 X129.94 Y55.4 M03 S255 F150
G01 X131.25 Y54.86 M03 S0 F2000
G01 Z1.5 F300
G01 X130.65 Y55.26 M03 S255 F150
G01 X131.25 Y54.86 M03 S0 F2000
G01 Z1.5 F300
G01 X131.25 Y59.15 M03 S255 F150
G01 Z1.5 F300
G01 X123.65 Y59.15 M03 S255 F150
G01 X5.1 Y59.15 M03 S0 F2000
G01 Z1.5 F300
G01 X5.1 Y56.15 M03 S255 F150
G01 Z1.5 F300
G01 X0.1 Y56.15 M03 S255 F150
G01 Z1.5 F300
G01 X0.1 Y16.35 M03 S255 F150
G01 Z1.5 F300
G01 X39.9 Y16.35 M03 S255 F150
G01 Z1.5 F300
G01 X39.9 Y56.15 M03 S255 F150
G01 Z1.5 F300
G01 X34.9 Y56.15 M03 S255 F150
G01 Z1.5 F300
G01 X34.9 Y59.15 M03 S255 F150
G01 Z1.5 F300
G01 X5.1 Y59.15 M03 S255 F150
G01 X83.13 Y34.28 M03 S0 F2000
G01 Z1.5 F300
G01 X83.26 Y35 M03 S255 F150
G01 X82.71 Y33.66 M03 S0 F2000
G01 Z1.5 F300
G01 X83.13 Y34.28 M03 S255 F150
G01 X82.1 Y33.25 M03 S0 F2000
G01 Z1.5 F300
G01 X82.71 Y33.66 M03 S255 F150
G01 X81.36 Y33.1 M03 S0 F2000
G01 Z1.5 F300
G01 X82.1 Y33.25 M03 S255 F150
G01 X80.64 Y33.25 M03 S0 F2000
G01 Z1.5 F300
G01 X81.36 Y33.1 M03 S255 F150
G01 X80.02 Y33.66 M03 S0 F2000
G01 Z1.5 F300
G01 X80.64 Y33.25 M03 S255 F150
G01 X79.61 Y34.28 M03 S0 F2000
G01 Z1.5 F300
G01 X80.02 Y33.66 M03 S255 F150
G01 X79.46 Y35 M03 S0 F2000
G01 Z1.5 F300
G01 X79.61 Y34.28 M03 S255 F150
G01 X79.5 Y35.39 M03 S0 F2000
G01 Z1.5 F300
G01 X79.46 Y35 M03 S255 F150
G01 X79.61 Y35.74 M03 S0 F2000
G01 Z1.5 F300
G01 X79.5 Y35.39 M03 S255 F150
G01 X80.02 Y36.35 M03 S0 F2000
G01 Z1.5 F300
G01 X79.61 Y35.74 M03 S255 F150
G01 X80.63 Y36.75 M03 S0 F2000
G01 Z1.5 F300
G01 X80.02 Y36.35 M03 S255 F150
G01 X80.98 Y36.86 M03 S0 F2000
G01 Z1.5 F300
G01 X80.63 Y36.75 M03 S255 F150
G01 X81.36 Y36.9 M03 S0 F2000
G01 Z1.5 F300
G01 X80.98 Y36.86 M03 S255 F150
G01 X81.75 Y36.86 M03 S0 F2000
G01 Z1.5 F300
G01 X81.36 Y36.9 M03 S255 F150
G01 X82.1 Y36.75 M03 S0 F2000
G01 Z1.5 F300
G01 X81.75 Y36.86 M03 S255 F150
G01 X82.71 Y36.35 M03 S0 F2000
G01 Z1.5 F300
G01 X82.1 Y36.75 M03 S255 F150
G01 X83.11 Y35.74 M03 S0 F2000
G01 Z1.5 F300
G01 X82.71 Y36.35 M03 S255 F150
G01 X83.23 Y35.39 M03 S0 F2000
G01 Z1.5 F300
G01 X83.11 Y35.74 M03 S255 F150
G01 X83.26 Y35 M03 S0 F2000
G01 Z1.5 F300
G01 X83.23 Y35.39 M03 S255 F150
G01 X83.26 Y35 M03 S0 F2000
G01 Z1.5 F300
G01 X83.26 Y35 M03 S255 F150
G01 X116.23 Y33.28 M03 S0 F2000
G01 Z1.5 F300
G01 X116.26 Y35 M03 S255 F150
G01 X116.09 Y31.55 M03 S0 F2000
G01 Z1.5 F300
G01 X116.23 Y33.28 M03 S255 F150
G01 X115.88 Y29.85 M03 S0 F2000
G01 Z1.5 F300
G01 X116.09 Y31.55 M03 S255 F150
G01 X115.59 Y28.16 M03 S0 F2000
G01 Z1.5 F300
G01 X115.88 Y29.85 M03 S255 F150
G01 X115.21 Y26.5 M03 S0 F2000
G01 Z1.5 F300
G01 X115.59 Y28.16 M03 S255 F150
G01 X114.75 Y24.85 M03 S0 F2000
G01 Z1.5 F300
G01 X115.21 Y26.5 M03 S255 F150
G01 X114.23 Y23.24 M03 S0 F2000
G01 Z1.5 F300
G01 X114.75 Y24.85 M03 S255 F150
G01 X113.61 Y21.65 M03 S0 F2000
G01 Z1.5 F300
G01 X114.23 Y23.24 M03 S255 F150
G01 X112.91 Y20.09 M03 S0 F2000
G01 Z1.5 F300
G01 X113.61 Y21.65 M03 S255 F150
G01 X112.15 Y18.58 M03 S0 F2000
G01 Z1.5 F300
G01 X112.91 Y20.09 M03 S255 F150
G01 X110.4 Y15.64 M03 S0 F2000
G01 Z1.5 F300
G01 X112.15 Y18.58 M03 S255 F150
G01 X108.36 Y12.89 M03 S0 F2000
G01 Z1.5 F300
G01 X110.4 Y15.64 M03 S255 F150
G01 X106.05 Y10.33 M03 S0 F2000
G01 Z1.5 F300
G01 X108.36 Y12.89 M03 S255 F150
G01 X103.49 Y8.01 M03 S0 F2000
G01 Z1.5 F300
G01 X106.05 Y10.33 M03 S255 F150
G01 X100.74 Y5.98 M03 S0 F2000
G01 Z1.5 F300
G01 X103.49 Y8.01 M03 S255 F150
G01 X97.8 Y4.21 M03 S0 F2000
G01 Z1.5 F300
G01 X100.74 Y5.98 M03 S255 F150
G01 X96.27 Y3.45 M03 S0 F2000
G01 Z1.5 F300
G01 X97.8 Y4.21 M03 S255 F150
G01 X94.73 Y2.76 M03 S0 F2000
G01 Z1.5 F300
G01 X96.27 Y3.45 M03 S255 F150
G01 X93.14 Y2.15 M03 S0 F2000
G01 Z1.5 F300
G01 X94.73 Y2.76 M03 S255 F150
G01 X91.51 Y1.61 M03 S0 F2000
G01 Z1.5 F300
G01 X93.14 Y2.15 M03 S255 F150
G01 X89.88 Y1.15 M03 S0 F2000
G01 Z1.5 F300
G01 X91.51 Y1.61 M03 S255 F150
G01 X88.21 Y0.78 M03 S0 F2000
G01 Z1.5 F300
G01 X89.88 Y1.15 M03 S255 F150
G01 X86.52 Y0.49 M03 S0 F2000
G01 Z1.5 F300
G01 X88.21 Y0.78 M03 S255 F150
G01 X84.81 Y0.28 M03 S0 F2000
G01 Z1.5 F300
G01 X86.52 Y0.49 M03 S255 F150
G01 X83.1 Y0.14 M03 S0 F2000
G01 Z1.5 F300
G01 X84.81 Y0.28 M03 S255 F150
G01 X81.36 Y0.1 M03 S0 F2000
G01 Z1.5 F300
G01 X83.1 Y0.14 M03 S255 F150
G01 X79.64 Y0.14 M03 S0 F2000
G01 Z1.5 F300
G01 X81.36 Y0.1 M03 S255 F150
G01 X77.91 Y0.28 M03 S0 F2000
G01 Z1.5 F300
G01 X79.64 Y0.14 M03 S255 F150
G01 X76.21 Y0.49 M03 S0 F2000
G01 Z1.5 F300
G01 X77.91 Y0.28 M03 S255 F150
G01 X74.52 Y0.78 M03 S0 F2000
G01 Z1.5 F300
G01 X76.21 Y0.49 M03 S255 F150
G01 X72.86 Y1.15 M03 S0 F2000
G01 Z1.5 F300
G01 X74.52 Y0.78 M03 S255 F150
G01 X71.21 Y1.61 M03 S0 F2000
G01 Z1.5 F300
G01 X72.86 Y1.15 M03 S255 F150
G01 X69.6 Y2.15 M03 S0 F2000
G01 Z1.5 F300
G01 X71.21 Y1.61 M03 S255 F150
G01 X68.01 Y2.76 M03 S0 F2000
G01 Z1.5 F300
G01 X69.6 Y2.15 M03 S255 F150
G01 X66.45 Y3.45 M03 S0 F2000
G01 Z1.5 F300
G01 X68.01 Y2.76 M03 S255 F150
G01 X64.94 Y4.21 M03 S0 F2000
G01 Z1.5 F300
G01 X66.45 Y3.45 M03 S255 F150
G01 X62 Y5.98 M03 S0 F2000
G01 Z1.5 F300
G01 X64.94 Y4.21 M03 S255 F150
G01 X59.25 Y8.01 M03 S0 F2000
G01 Z1.5 F300
G01 X62 Y5.98 M03 S255 F150
G01 X56.69 Y10.33 M03 S0 F2000
G01 Z1.5 F300
G01 X59.25 Y8.01 M03 S255 F150
G01 X54.36 Y12.89 M03 S0 F2000
G01 Z1.5 F300
G01 X56.69 Y10.33 M03 S255 F150
G01 X52.33 Y15.64 M03 S0 F2000
G01 Z1.5 F300
G01 X54.36 Y12.89 M03 S255 F150
G01 X50.58 Y18.58 M03 S0 F2000
G01 Z1.5 F300
G01 X52.33 Y15.64 M03 S255 F150
G01 X49.81 Y20.09 M03 S0 F2000
G01 Z1.5 F300
G01 X50.58 Y18.58 M03 S255 F150
G01 X49.13 Y21.65 M03 S0 F2000
G01 Z1.5 F300
G01 X49.81 Y20.09 M03 S255 F150
G01 X48.5 Y23.24 M03 S0 F2000
G01 Z1.5 F300
G01 X49.13 Y21.65 M03 S255 F150
G01 X47.98 Y24.85 M03 S0 F2000
G01 Z1.5 F300
G01 X48.5 Y23.24 M03 S255 F150
G01 X47.51 Y26.5 M03 S0 F2000
G01 Z1.5 F300
G01 X47.98 Y24.85 M03 S255 F150
G01 X47.14 Y28.16 M03 S0 F2000
G01 Z1.5 F300
G01 X47.51 Y26.5 M03 S255 F150
G01 X46.85 Y29.85 M03 S0 F2000
G01 Z1.5 F300
G01 X47.14 Y28.16 M03 S255 F150
G01 X46.64 Y31.55 M03 S0 F2000
G01 Z1.5 F300
G01 X46.85 Y29.85 M03 S255 F150
G01 X46.5 Y33.28 M03 S0 F2000
G01 Z1.5 F300
G01 X46.64 Y31.55 M03 S255 F150
G01 X46.46 Y35 M03 S0 F2000
G01 Z1.5 F300
G01 X46.5 Y33.28 M03 S255 F150
G01 X46.51 Y36.8 M03 S0 F2000
G01 Z1.5 F300
G01 X46.46 Y35 M03 S255 F150
G01 X46.64 Y38.56 M03 S0 F2000
G01 Z1.5 F300
G01 X46.51 Y36.8 M03 S255 F150
G01 X46.86 Y40.31 M03 S0 F2000
G01 Z1.5 F300
G01 X46.64 Y38.56 M03 S255 F150
G01 X47.18 Y42.04 M03 S0 F2000
G01 Z1.5 F300
G01 X46.86 Y40.31 M03 S255 F150
G01 X47.56 Y43.73 M03 S0 F2000
G01 Z1.5 F300
G01 X47.18 Y42.04 M03 S255 F150
G01 X48.04 Y45.38 M03 S0 F2000
G01 Z1.5 F300
G01 X47.56 Y43.73 M03 S255 F150
G01 X48.58 Y47 M03 S0 F2000
G01 Z1.5 F300
G01 X48.04 Y45.38 M03 S255 F150
G01 X49.2 Y48.59 M03 S0 F2000
G01 Z1.5 F300
G01 X48.58 Y47 M03 S255 F150
G01 X50.68 Y51.64 M03 S0 F2000
G01 Z1.5 F300
G01 X49.2 Y48.59 M03 S255 F150
G01 X52.43 Y54.51 M03 S0 F2000
G01 Z1.5 F300
G01 X50.68 Y51.64 M03 S255 F150
G01 X54.44 Y57.2 M03 S0 F2000
G01 Z1.5 F300
G01 X52.43 Y54.51 M03 S255 F150
G01 X56.69 Y59.68 M03 S0 F2000
G01 Z1.5 F300
G01 X54.44 Y57.2 M03 S255 F150
G01 X59.16 Y61.93 M03 S0 F2000
G01 Z1.5 F300
G01 X56.69 Y59.68 M03 S255 F150
G01 X61.85 Y63.94 M03 S0 F2000
G01 Z1.5 F300
G01 X59.16 Y61.93 M03 S255 F150
G01 X64.73 Y65.69 M03 S0 F2000
G01 Z1.5 F300
G01 X61.85 Y63.94 M03 S255 F150
G01 X67.77 Y67.16 M03 S0 F2000
G01 Z1.5 F300
G01 X64.73 Y65.69 M03 S255 F150
G01 X69.36 Y67.79 M03 S0 F2000
G01 Z1.5 F300
G01 X67.77 Y67.16 M03 S255 F150
G01 X70.99 Y68.33 M03 S0 F2000
G01 Z1.5 F300
G01 X69.36 Y67.79 M03 S255 F150
G01 X72.64 Y68.8 M03 S0 F2000
G01 Z1.5 F300
G01 X70.99 Y68.33 M03 S255 F150
G01 X74.33 Y69.19 M03 S0 F2000
G01 Z1.5 F300
G01 X72.64 Y68.8 M03 S255 F150
G01 X76.05 Y69.5 M03 S0 F2000
G01 Z1.5 F300
G01 X74.33 Y69.19 M03 S255 F150
G01 X77.8 Y69.73 M03 S0 F2000
G01 Z1.5 F300
G01 X76.05 Y69.5 M03 S255 F150
G01 X79.56 Y69.85 M03 S0 F2000
G01 Z1.5 F300
G01 X77.8 Y69.73 M03 S255 F150
G01 X81.36 Y69.9 M03 S0 F2000
G01 Z1.5 F300
G01 X79.56 Y69.85 M03 S255 F150
G01 X83.16 Y69.85 M03 S0 F2000
G01 Z1.5 F300
G01 X81.36 Y69.9 M03 S255 F150
G01 X84.93 Y69.73 M03 S0 F2000
G01 Z1.5 F300
G01 X83.16 Y69.85 M03 S255 F150
G01 X86.68 Y69.5 M03 S0 F2000
G01 Z1.5 F300
G01 X84.93 Y69.73 M03 S255 F150
G01 X88.4 Y69.19 M03 S0 F2000
G01 Z1.5 F300
G01 X86.68 Y69.5 M03 S255 F150
G01 X90.09 Y68.8 M03 S0 F2000
G01 Z1.5 F300
G01 X88.4 Y69.19 M03 S255 F150
G01 X91.74 Y68.33 M03 S0 F2000
G01 Z1.5 F300
G01 X90.09 Y68.8 M03 S255 F150
G01 X93.36 Y67.79 M03 S0 F2000
G01 Z1.5 F300
G01 X91.74 Y68.33 M03 S255 F150
G01 X94.95 Y67.16 M03 S0 F2000
G01 Z1.5 F300
G01 X93.36 Y67.79 M03 S255 F150
G01 X98 Y65.69 M03 S0 F2000
G01 Z1.5 F300
G01 X94.95 Y67.16 M03 S255 F150
G01 X100.88 Y63.94 M03 S0 F2000
G01 Z1.5 F300
G01 X98 Y65.69 M03 S255 F150
G01 X103.56 Y61.93 M03 S0 F2000
G01 Z1.5 F300
G01 X100.88 Y63.94 M03 S255 F150
G01 X106.04 Y59.68 M03 S0 F2000
G01 Z1.5 F300
G01 X103.56 Y61.93 M03 S255 F150
G01 X108.29 Y57.2 M03 S0 F2000
G01 Z1.5 F300
G01 X106.04 Y59.68 M03 S255 F150
G01 X110.3 Y54.51 M03 S0 F2000
G01 Z1.5 F300
G01 X108.29 Y57.2 M03 S255 F150
G01 X112.05 Y51.64 M03 S0 F2000
G01 Z1.5 F300
G01 X110.3 Y54.51 M03 S255 F150
G01 X113.53 Y48.59 M03 S0 F2000
G01 Z1.5 F300
G01 X112.05 Y51.64 M03 S255 F150
G01 X114.15 Y47 M03 S0 F2000
G01 Z1.5 F300
G01 X113.53 Y48.59 M03 S255 F150
G01 X114.69 Y45.38 M03 S0 F2000
G01 Z1.5 F300
G01 X114.15 Y47 M03 S255 F150
G01 X115.16 Y43.73 M03 S0 F2000
G01 Z1.5 F300
G01 X114.69 Y45.38 M03 S255 F150
G01 X115.55 Y42.04 M03 S0 F2000
G01 Z1.5 F300
G01 X115.16 Y43.73 M03 S255 F150
G01 X115.86 Y40.31 M03 S0 F2000
G01 Z1.5 F300
G01 X115.55 Y42.04 M03 S255 F150
G01 X116.09 Y38.56 M03 S0 F2000
G01 Z1.5 F300
G01 X115.86 Y40.31 M03 S255 F150
G01 X116.21 Y36.8 M03 S0 F2000
G01 Z1.5 F300
G01 X116.09 Y38.56 M03 S255 F150
G01 X116.26 Y35 M03 S0 F2000
G01 Z1.5 F300
G01 X116.21 Y36.8 M03 S255 F150
G01 X116.26 Y35 M03 S0 F2000
G01 Z1.5 F300
G01 X116.26 Y35 M03 S255 F150
G01 X113.13 Y34.28 M03 S0 F2000
G01 Z1.5 F300
G01 X113.26 Y35 M03 S255 F150
G01 X112.71 Y33.66 M03 S0 F2000
G01 Z1.5 F300
G01 X113.13 Y34.28 M03 S255 F150
G01 X112.1 Y33.25 M03 S0 F2000
G01 Z1.5 F300
G01 X112.71 Y33.66 M03 S255 F150
G01 X111.36 Y33.1 M03 S0 F2000
G01 Z1.5 F300
G01 X112.1 Y33.25 M03 S255 F150
G01 X110.64 Y33.25 M03 S0 F2000
G01 Z1.5 F300
G01 X111.36 Y33.1 M03 S255 F150
G01 X110.03 Y33.66 M03 S0 F2000
G01 Z1.5 F300
G01 X110.64 Y33.25 M03 S255 F150
G01 X109.61 Y34.28 M03 S0 F2000
G01 Z1.5 F300
G01 X110.03 Y33.66 M03 S255 F150
G01 X109.46 Y35 M03 S0 F2000
G01 Z1.5 F300
G01 X109.61 Y34.28 M03 S255 F150
G01 X109.5 Y35.39 M03 S0 F2000
G01 Z1.5 F300
G01 X109.46 Y35 M03 S255 F150
G01 X109.61 Y35.74 M03 S0 F2000
G01 Z1.5 F300
G01 X109.5 Y35.39 M03 S255 F150
G01 X110.03 Y36.35 M03 S0 F2000
G01 Z1.5 F300
G01 X109.61 Y35.74 M03 S255 F150
G01 X110.63 Y36.75 M03 S0 F2000
G01 Z1.5 F300
G01 X110.03 Y36.35 M03 S255 F150
G01 X110.98 Y36.86 M03 S0 F2000
G01 Z1.5 F300
G01 X110.63 Y36.75 M03 S255 F150
G01 X111.36 Y36.9 M03 S0 F2000
G01 Z1.5 F300
G01 X110.98 Y36.86 M03 S255 F150
G01 X111.75 Y36.86 M03 S0 F2000
G01 Z1.5 F300
G01 X111.36 Y36.9 M03 S255 F150
G01 X112.1 Y36.75 M03 S0 F2000
G01 Z1.5 F300
G01 X111.75 Y36.86 M03 S255 F150
G01 X112.71 Y36.35 M03 S0 F2000
G01 Z1.5 F300
G01 X112.1 Y36.75 M03 S255 F150
G01 X113.11 Y35.74 M03 S0 F2000
G01 Z1.5 F300
G01 X112.71 Y36.35 M03 S255 F150
G01 X113.23 Y35.39 M03 S0 F2000
G01 Z1.5 F300
G01 X113.11 Y35.74 M03 S255 F150
G01 X113.26 Y35 M03 S0 F2000
G01 Z1.5 F300
G01 X113.23 Y35.39 M03 S255 F150
G01 X113.26 Y35 M03 S0 F2000
G01 Z1.5 F300
G01 X113.26 Y35 M03 S255 F150
G00 M03 S0
M05
G01 X123.65 Y59.15 M03 S0 F2000
M03 S0
G01 Z2 F300
G01 X123.65 Y17.15 M03 S255 F150
G01 Z2 F300
G01 X123.65 Y14.15 M03 S255 F150
G01 Z2 F300
G01 X123.65 Y7.35 M03 S255 F150
G01 Z2 F300
G01 X128.75 Y7.35 M03 S255 F150
G01 Z2 F300
G01 X128.75 Y10.15 M03 S255 F150
G01 Z2 F300
G01 X158.55 Y10.15 M03 S255 F150
G01 Z2 F300
G01 X158.55 Y7.35 M03 S255 F150
G01 Z2 F300
G01 X163.65 Y7.35 M03 S255 F150
G01 Z2 F300
G01 X163.65 Y14.15 M03 S255 F150
G01 Z2 F300
G01 X163.65 Y17.15 M03 S255 F150
G01 Z2 F300
G01 X163.65 Y59.15 M03 S255 F150
G01 Z2 F300
G01 X156.05 Y59.15 M03 S255 F150
G01 Z2 F300
G01 X156.05 Y55.01 M03 S255 F150
G01 X156.59 Y55.3 M03 S0 F2000
G01 Z2 F300
G01 X156.05 Y55.01 M03 S255 F150
G01 X157.18 Y55.39 M03 S0 F2000
G01 Z2 F300
G01 X156.59 Y55.3 M03 S255 F150
G01 X157.9 Y55.25 M03 S0 F2000
G01 Z2 F300
G01 X157.18 Y55.39 M03 S255 F150
G01 X158.51 Y54.84 M03 S0 F2000
G01 Z2 F300
G01 X157.9 Y55.25 M03 S255 F150
G01 X158.93 Y54.21 M03 S0 F2000
G01 Z2 F300
G01 X158.51 Y54.84 M03 S255 F150
G01 X159.06 Y53.49 M03 S0 F2000
G01 Z2 F300
G01 X158.93 Y54.21 M03 S255 F150
G01 X158.93 Y52.76 M03 S0 F2000
G01 Z2 F300
G01 X159.06 Y53.49 M03 S255 F150
G01 X158.51 Y52.15 M03 S0 F2000
G01 Z2 F300
G01 X158.93 Y52.76 M03 S255 F150
G01 X157.9 Y51.74 M03 S0 F2000
G01 Z2 F300
G01 X158.51 Y52.15 M03 S255 F150
G01 X157.18 Y51.59 M03 S0 F2000
G01 Z2 F300
G01 X157.9 Y51.74 M03 S255 F150
G01 X156.59 Y51.69 M03 S0 F2000
G01 Z2 F300
G01 X157.18 Y51.59 M03 S255 F150
G01 X156.05 Y51.96 M03 S0 F2000
G01 Z2 F300
G01 X156.59 Y51.69 M03 S255 F150
G01 X156.05 Y51.95 M03 S0 F2000
G01 Z2 F300
G01 X156.05 Y47.35 M03 S255 F150
G01 Z2 F300
G01 X131.25 Y47.35 M03 S255 F150
G01 Z2 F300
G01 X131.25 Y47.36 M03 S255 F150
G01 X131.25 Y47.56 M03 S0 F2000
G01 Z2 F300
G01 X131.25 Y47.41 M03 S255 F150
G01 X131.25 Y47.8 M03 S0 F2000
G01 Z2 F300
G01 X131.25 Y47.56 M03 S255 F150
G01 X131.25 Y48.11 M03 S0 F2000
G01 Z2 F300
G01 X131.25 Y47.8 M03 S255 F150
G01 X131.25 Y48.88 M03 S0 F2000
G01 Z2 F300
G01 X131.25 Y48.11 M03 S255 F150
G01 X131.25 Y49.74 M03 S0 F2000
G01 Z2 F300
G01 X131.25 Y48.88 M03 S255 F150
G01 X131.25 Y50.61 M03 S0 F2000
G01 Z2 F300
G01 X131.25 Y49.74 M03 S255 F150
G01 X131.25 Y51.38 M03 S0 F2000
G01 Z2 F300
G01 X131.25 Y50.61 M03 S255 F150
G01 X131.25 Y51.69 M03 S0 F2000
G01 Z2 F300
G01 X131.25 Y51.38 M03 S255 F150
G01 X131.25 Y51.93 M03 S0 F2000
G01 Z2 F300
G01 X131.25 Y51.69 M03 S255 F150
G01 X131.25 Y52.08 M03 S0 F2000
G01 Z2 F300
G01 X131.25 Y51.93 M03 S255 F150
G01 X131.25 Y52.13 M03 S0 F2000
G01 Z2 F300
G01 X131.25 Y52.08 M03 S255 F150
G01 X130.65 Y51.73 M03 S0 F2000
G01 Z2 F300
G01 X131.25 Y52.13 M03 S255 F150
G01 X129.94 Y51.59 M03 S0 F2000
G01 Z2 F300
G01 X130.65 Y51.73 M03 S255 F150
G01 X129.55 Y51.63 M03 S0 F2000
G01 Z2 F300
G01 X129.94 Y51.59 M03 S255 F150
G01 X129.2 Y51.74 M03 S0 F2000
G01 Z2 F300
G01 X129.55 Y51.63 M03 S255 F150
G01 X128.6 Y52.15 M03 S0 F2000
G01 Z2 F300
G01 X129.2 Y51.74 M03 S255 F150
G01 X128.19 Y52.75 M03 S0 F2000
G01 Z2 F300
G01 X128.6 Y52.15 M03 S255 F150
G01 X128.08 Y53.11 M03 S0 F2000
G01 Z2 F300
G01 X128.19 Y52.75 M03 S255 F150
G01 X128.04 Y53.5 M03 S0 F2000
G01 Z2 F300
G01 X128.08 Y53.11 M03 S255 F150
G01 X128.08 Y53.89 M03 S0 F2000
G01 Z2 F300
G01 X128.04 Y53.5 M03 S255 F150
G01 X128.19 Y54.24 M03 S0 F2000
G01 Z2 F300
G01 X128.08 Y53.89 M03 S255 F150
G01 X128.6 Y54.85 M03 S0 F2000
G01 Z2 F300
G01 X128.19 Y54.24 M03 S255 F150
G01 X129.2 Y55.25 M03 S0 F2000
G01 Z2 F300
G01 X128.6 Y54.85 M03 S255 F150
G01 X129.55 Y55.36 M03 S0 F2000
G01 Z2 F300
G01 X129.2 Y55.25 M03 S255 F150
G01 X129.94 Y55.4 M03 S0 F2000
G01 Z2 F300
G01 X129.55 Y55.36 M03 S255 F150
G01 X130.65 Y55.26 M03 S0 F2000
G01 Z2 F300
G01 X129.94 Y55.4 M03 S255 F150
G01 X131.25 Y54.86 M03 S0 F2000
G01 Z2 F300
G01 X130.65 Y55.26 M03 S255 F150
G01 X131.25 Y54.86 M03 S0 F2000
G01 Z2 F300
G01 X131.25 Y59.15 M03 S255 F150
G01 Z2 F300
G01 X123.65 Y59.15 M03 S255 F150
G01 X5.1 Y59.15 M03 S0 F2000
G01 Z2 F300
G01 X5.1 Y56.15 M03 S255 F150
G01 Z2 F300
G01 X0.1 Y56.15 M03 S255 F150
G01 Z2 F300
G01 X0.1 Y16.35 M03 S255 F150
G01 Z2 F300
G01 X39.9 Y16.35 M03 S255 F150
G01 Z2 F300
G01 X39.9 Y56.15 M03 S255 F150
G01 Z2 F300
G01 X34.9 Y56.15 M03 S255 F150
G01 Z2 F300
G01 X34.9 Y59.15 M03 S255 F150
G01 Z2 F300
G01 X5.1 Y59.15 M03 S255 F150
G01 X83.13 Y34.28 M03 S0 F2000
G01 Z2 F300
G01 X83.26 Y35 M03 S255 F150
G01 X82.71 Y33.66 M03 S0 F2000
G01 Z2 F300
G01 X83.13 Y34.28 M03 S255 F150
G01 X82.1 Y33.25 M03 S0 F2000
G01 Z2 F300
G01 X82.71 Y33.66 M03 S255 F150
G01 X81.36 Y33.1 M03 S0 F2000
G01 Z2 F300
G01 X82.1 Y33.25 M03 S255 F150
G01 X80.64 Y33.25 M03 S0 F2000
G01 Z2 F300
G01 X81.36 Y33.1 M03 S255 F150
G01 X80.02 Y33.66 M03 S0 F2000
G01 Z2 F300
G01 X80.64 Y33.25 M03 S255 F150
G01 X79.61 Y34.28 M03 S0 F2000
G01 Z2 F300
G01 X80.02 Y33.66 M03 S255 F150
G01 X79.46 Y35 M03 S0 F2000
G01 Z2 F300
G01 X79.61 Y34.28 M03 S255 F150
G01 X79.5 Y35.39 M03 S0 F2000
G01 Z2 F300
G01 X79.46 Y35 M03 S255 F150
G01 X79.61 Y35.74 M03 S0 F2000
G01 Z2 F300
G01 X79.5 Y35.39 M03 S255 F150
G01 X80.02 Y36.35 M03 S0 F2000
G01 Z2 F300
G01 X79.61 Y35.74 M03 S255 F150
G01 X80.63 Y36.75 M03 S0 F2000
G01 Z2 F300
G01 X80.02 Y36.35 M03 S255 F150
G01 X80.98 Y36.86 M03 S0 F2000
G01 Z2 F300
G01 X80.63 Y36.75 M03 S255 F150
G01 X81.36 Y36.9 M03 S0 F2000
G01 Z2 F300
G01 X80.98 Y36.86 M03 S255 F150
G01 X81.75 Y36.86 M03 S0 F2000
G01 Z2 F300
G01 X81.36 Y36.9 M03 S255 F150
G01 X82.1 Y36.75 M03 S0 F2000
G01 Z2 F300
G01 X81.75 Y36.86 M03 S255 F150
G01 X82.71 Y36.35 M03 S0 F2000
G01 Z2 F300
G01 X82.1 Y36.75 M03 S255 F150
G01 X83.11 Y35.74 M03 S0 F2000
G01 Z2 F300
G01 X82.71 Y36.35 M03 S255 F150
G01 X83.23 Y35.39 M03 S0 F2000
G01 Z2 F300
G01 X83.11 Y35.74 M03 S255 F150
G01 X83.26 Y35 M03 S0 F2000
G01 Z2 F300
G01 X83.23 Y35.39 M03 S255 F150
G01 X83.26 Y35 M03 S0 F2000
G01 Z2 F300
G01 X83.26 Y35 M03 S255 F150
G01 X116.23 Y33.28 M03 S0 F2000
G01 Z2 F300
G01 X116.26 Y35 M03 S255 F150
G01 X116.09 Y31.55 M03 S0 F2000
G01 Z2 F300
G01 X116.23 Y33.28 M03 S255 F150
G01 X115.88 Y29.85 M03 S0 F2000
G01 Z2 F300
G01 X116.09 Y31.55 M03 S255 F150
G01 X115.59 Y28.16 M03 S0 F2000
G01 Z2 F300
G01 X115.88 Y29.85 M03 S255 F150
G01 X115.21 Y26.5 M03 S0 F2000
G01 Z2 F300
G01 X115.59 Y28.16 M03 S255 F150
G01 X114.75 Y24.85 M03 S0 F2000
G01 Z2 F300
G01 X115.21 Y26.5 M03 S255 F150
G01 X114.23 Y23.24 M03 S0 F2000
G01 Z2 F300
G01 X114.75 Y24.85 M03 S255 F150
G01 X113.61 Y21.65 M03 S0 F2000
G01 Z2 F300
G01 X114.23 Y23.24 M03 S255 F150
G01 X112.91 Y20.09 M03 S0 F2000
G01 Z2 F300
G01 X113.61 Y21.65 M03 S255 F150
G01 X112.15 Y18.58 M03 S0 F2000
G01 Z2 F300
G01 X112.91 Y20.09 M03 S255 F150
G01 X110.4 Y15.64 M03 S0 F2000
G01 Z2 F300
G01 X112.15 Y18.58 M03 S255 F150
G01 X108.36 Y12.89 M03 S0 F2000
G01 Z2 F300
G01 X110.4 Y15.64 M03 S255 F150
G01 X106.05 Y10.33 M03 S0 F2000
G01 Z2 F300
G01 X108.36 Y12.89 M03 S255 F150
G01 X103.49 Y8.01 M03 S0 F2000
G01 Z2 F300
G01 X106.05 Y10.33 M03 S255 F150
G01 X100.74 Y5.98 M03 S0 F2000
G01 Z2 F300
G01 X103.49 Y8.01 M03 S255 F150
G01 X97.8 Y4.21 M03 S0 F2000
G01 Z2 F300
G01 X100.74 Y5.98 M03 S255 F150
G01 X96.27 Y3.45 M03 S0 F2000
G01 Z2 F300
G01 X97.8 Y4.21 M03 S255 F150
G01 X94.73 Y2.76 M03 S0 F2000
G01 Z2 F300
G01 X96.27 Y3.45 M03 S255 F150
G01 X93.14 Y2.15 M03 S0 F2000
G01 Z2 F300
G01 X94.73 Y2.76 M03 S255 F150
G01 X91.51 Y1.61 M03 S0 F2000
G01 Z2 F300
G01 X93.14 Y2.15 M03 S255 F150
G01 X89.88 Y1.15 M03 S0 F2000
G01 Z2 F300
G01 X91.51 Y1.61 M03 S255 F150
G01 X88.21 Y0.78 M03 S0 F2000
G01 Z2 F300
G01 X89.88 Y1.15 M03 S255 F150
G01 X86.52 Y0.49 M03 S0 F2000
G01 Z2 F300
G01 X88.21 Y0.78 M03 S255 F150
G01 X84.81 Y0.28 M03 S0 F2000
G01 Z2 F300
G01 X86.52 Y0.49 M03 S255 F150
G01 X83.1 Y0.14 M03 S0 F2000
G01 Z2 F300
G01 X84.81 Y0.28 M03 S255 F150
G01 X81.36 Y0.1 M03 S0 F2000
G01 Z2 F300
G01 X83.1 Y0.14 M03 S255 F150
G01 X79.64 Y0.14 M03 S0 F2000
G01 Z2 F300
G01 X81.36 Y0.1 M03 S255 F150
G01 X77.91 Y0.28 M03 S0 F2000
G01 Z2 F300
G01 X79.64 Y0.14 M03 S255 F150
G01 X76.21 Y0.49 M03 S0 F2000
G01 Z2 F300
G01 X77.91 Y0.28 M03 S255 F150
G01 X74.52 Y0.78 M03 S0 F2000
G01 Z2 F300
G01 X76.21 Y0.49 M03 S255 F150
G01 X72.86 Y1.15 M03 S0 F2000
G01 Z2 F300
G01 X74.52 Y0.78 M03 S255 F150
G01 X71.21 Y1.61 M03 S0 F2000
G01 Z2 F300
G01 X72.86 Y1.15 M03 S255 F150
G01 X69.6 Y2.15 M03 S0 F2000
G01 Z2 F300
G01 X71.21 Y1.61 M03 S255 F150
G01 X68.01 Y2.76 M03 S0 F2000
G01 Z2 F300
G01 X69.6 Y2.15 M03 S255 F150
G01 X66.45 Y3.45 M03 S0 F2000
G01 Z2 F300
G01 X68.01 Y2.76 M03 S255 F150
G01 X64.94 Y4.21 M03 S0 F2000
G01 Z2 F300
G01 X66.45 Y3.45 M03 S255 F150
G01 X62 Y5.98 M03 S0 F2000
G01 Z2 F300
G01 X64.94 Y4.21 M03 S255 F150
G01 X59.25 Y8.01 M03 S0 F2000
G01 Z2 F300
G01 X62 Y5.98 M03 S255 F150
G01 X56.69 Y10.33 M03 S0 F2000
G01 Z2 F300
G01 X59.25 Y8.01 M03 S255 F150
G01 X54.36 Y12.89 M03 S0 F2000
G01 Z2 F300
G01 X56.69 Y10.33 M03 S255 F150
G01 X52.33 Y15.64 M03 S0 F2000
G01 Z2 F300
G01 X54.36 Y12.89 M03 S255 F150
G01 X50.58 Y18.58 M03 S0 F2000
G01 Z2 F300
G01 X52.33 Y15.64 M03 S255 F150
G01 X49.81 Y20.09 M03 S0 F2000
G01 Z2 F300
G01 X50.58 Y18.58 M03 S255 F150
G01 X49.13 Y21.65 M03 S0 F2000
G01 Z2 F300
G01 X49.81 Y20.09 M03 S255 F150
G01 X48.5 Y23.24 M03 S0 F2000
G01 Z2 F300
G01 X49.13 Y21.65 M03 S255 F150
G01 X47.98 Y24.85 M03 S0 F2000
G01 Z2 F300
G01 X48.5 Y23.24 M03 S255 F150
G01 X47.51 Y26.5 M03 S0 F2000
G01 Z2 F300
G01 X47.98 Y24.85 M03 S255 F150
G01 X47.14 Y28.16 M03 S0 F2000
G01 Z2 F300
G01 X47.51 Y26.5 M03 S255 F150
G01 X46.85 Y29.85 M03 S0 F2000
G01 Z2 F300
G01 X47.14 Y28.16 M03 S255 F150
G01 X46.64 Y31.55 M03 S0 F2000
G01 Z2 F300
G01 X46.85 Y29.85 M03 S255 F150
G01 X46.5 Y33.28 M03 S0 F2000
G01 Z2 F300
G01 X46.64 Y31.55 M03 S255 F150
G01 X46.46 Y35 M03 S0 F2000
G01 Z2 F300
G01 X46.5 Y33.28 M03 S255 F150
G01 X46.51 Y36.8 M03 S0 F2000
G01 Z2 F300
G01 X46.46 Y35 M03 S255 F150
G01 X46.64 Y38.56 M03 S0 F2000
G01 Z2 F300
G01 X46.51 Y36.8 M03 S255 F150
G01 X46.86 Y40.31 M03 S0 F2000
G01 Z2 F300
G01 X46.64 Y38.56 M03 S255 F150
G01 X47.18 Y42.04 M03 S0 F2000
G01 Z2 F300
G01 X46.86 Y40.31 M03 S255 F150
G01 X47.56 Y43.73 M03 S0 F2000
G01 Z2 F300
G01 X47.18 Y42.04 M03 S255 F150
G01 X48.04 Y45.38 M03 S0 F2000
G01 Z2 F300
G01 X47.56 Y43.73 M03 S255 F150
G01 X48.58 Y47 M03 S0 F2000
G01 Z2 F300
G01 X48.04 Y45.38 M03 S255 F150
G01 X49.2 Y48.59 M03 S0 F2000
G01 Z2 F300
G01 X48.58 Y47 M03 S255 F150
G01 X50.68 Y51.64 M03 S0 F2000
G01 Z2 F300
G01 X49.2 Y48.59 M03 S255 F150
G01 X52.43 Y54.51 M03 S0 F2000
G01 Z2 F300
G01 X50.68 Y51.64 M03 S255 F150
G01 X54.44 Y57.2 M03 S0 F2000
G01 Z2 F300
G01 X52.43 Y54.51 M03 S255 F150
G01 X56.69 Y59.68 M03 S0 F2000
G01 Z2 F300
G01 X54.44 Y57.2 M03 S255 F150
G01 X59.16 Y61.93 M03 S0 F2000
G01 Z2 F300
G01 X56.69 Y59.68 M03 S255 F150
G01 X61.85 Y63.94 M03 S0 F2000
G01 Z2 F300
G01 X59.16 Y61.93 M03 S255 F150
G01 X64.73 Y65.69 M03 S0 F2000
G01 Z2 F300
G01 X61.85 Y63.94 M03 S255 F150
G01 X67.77 Y67.16 M03 S0 F2000
G01 Z2 F300
G01 X64.73 Y65.69 M03 S255 F150
G01 X69.36 Y67.79 M03 S0 F2000
G01 Z2 F300
G01 X67.77 Y67.16 M03 S255 F150
G01 X70.99 Y68.33 M03 S0 F2000
G01 Z2 F300
G01 X69.36 Y67.79 M03 S255 F150
G01 X72.64 Y68.8 M03 S0 F2000
G01 Z2 F300
G01 X70.99 Y68.33 M03 S255 F150
G01 X74.33 Y69.19 M03 S0 F2000
G01 Z2 F300
G01 X72.64 Y68.8 M03 S255 F150
G01 X76.05 Y69.5 M03 S0 F2000
G01 Z2 F300
G01 X74.33 Y69.19 M03 S255 F150
G01 X77.8 Y69.73 M03 S0 F2000
G01 Z2 F300
G01 X76.05 Y69.5 M03 S255 F150
G01 X79.56 Y69.85 M03 S0 F2000
G01 Z2 F300
G01 X77.8 Y69.73 M03 S255 F150
G01 X81.36 Y69.9 M03 S0 F2000
G01 Z2 F300
G01 X79.56 Y69.85 M03 S255 F150
G01 X83.16 Y69.85 M03 S0 F2000
G01 Z2 F300
G01 X81.36 Y69.9 M03 S255 F150
G01 X84.93 Y69.73 M03 S0 F2000
G01 Z2 F300
G01 X83.16 Y69.85 M03 S255 F150
G01 X86.68 Y69.5 M03 S0 F2000
G01 Z2 F300
G01 X84.93 Y69.73 M03 S255 F150
G01 X88.4 Y69.19 M03 S0 F2000
G01 Z2 F300
G01 X86.68 Y69.5 M03 S255 F150
G01 X90.09 Y68.8 M03 S0 F2000
G01 Z2 F300
G01 X88.4 Y69.19 M03 S255 F150
G01 X91.74 Y68.33 M03 S0 F2000
G01 Z2 F300
G01 X90.09 Y68.8 M03 S255 F150
G01 X93.36 Y67.79 M03 S0 F2000
G01 Z2 F300
G01 X91.74 Y68.33 M03 S255 F150
G01 X94.95 Y67.16 M03 S0 F2000
G01 Z2 F300
G01 X93.36 Y67.79 M03 S255 F150
G01 X98 Y65.69 M03 S0 F2000
G01 Z2 F300
G01 X94.95 Y67.16 M03 S255 F150
G01 X100.88 Y63.94 M03 S0 F2000
G01 Z2 F300
G01 X98 Y65.69 M03 S255 F150
G01 X103.56 Y61.93 M03 S0 F2000
G01 Z2 F300
G01 X100.88 Y63.94 M03 S255 F150
G01 X106.04 Y59.68 M03 S0 F2000
G01 Z2 F300
G01 X103.56 Y61.93 M03 S255 F150
G01 X108.29 Y57.2 M03 S0 F2000
G01 Z2 F300
G01 X106.04 Y59.68 M03 S255 F150
G01 X110.3 Y54.51 M03 S0 F2000
G01 Z2 F300
G01 X108.29 Y57.2 M03 S255 F150
G01 X112.05 Y51.64 M03 S0 F2000
G01 Z2 F300
G01 X110.3 Y54.51 M03 S255 F150
G01 X113.53 Y48.59 M03 S0 F2000
G01 Z2 F300
G01 X112.05 Y51.64 M03 S255 F150
G01 X114.15 Y47 M03 S0 F2000
G01 Z2 F300
G01 X113.53 Y48.59 M03 S255 F150
G01 X114.69 Y45.38 M03 S0 F2000
G01 Z2 F300
G01 X114.15 Y47 M03 S255 F150
G01 X115.16 Y43.73 M03 S0 F2000
G01 Z2 F300
G01 X114.69 Y45.38 M03 S255 F150
G01 X115.55 Y42.04 M03 S0 F2000
G01 Z2 F300
G01 X115.16 Y43.73 M03 S255 F150
G01 X115.86 Y40.31 M03 S0 F2000
G01 Z2 F300
G01 X115.55 Y42.04 M03 S255 F150
G01 X116.09 Y38.56 M03 S0 F2000
G01 Z2 F300
G01 X115.86 Y40.31 M03 S255 F150
G01 X116.21 Y36.8 M03 S0 F2000
G01 Z2 F300
G01 X116.09 Y38.56 M03 S255 F150
G01 X116.26 Y35 M03 S0 F2000
G01 Z2 F300
G01 X116.21 Y36.8 M03 S255 F150
G01 X116.26 Y35 M03 S0 F2000
G01 Z2 F300
G01 X116.26 Y35 M03 S255 F150
G01 X113.13 Y34.28 M03 S0 F2000
G01 Z2 F300
G01 X113.26 Y35 M03 S255 F150
G01 X112.71 Y33.66 M03 S0 F2000
G01 Z2 F300
G01 X113.13 Y34.28 M03 S255 F150
G01 X112.1 Y33.25 M03 S0 F2000
G01 Z2 F300
G01 X112.71 Y33.66 M03 S255 F150
G01 X111.36 Y33.1 M03 S0 F2000
G01 Z2 F300
G01 X112.1 Y33.25 M03 S255 F150
G01 X110.64 Y33.25 M03 S0 F2000
G01 Z2 F300
G01 X111.36 Y33.1 M03 S255 F150
G01 X110.03 Y33.66 M03 S0 F2000
G01 Z2 F300
G01 X110.64 Y33.25 M03 S255 F150
G01 X109.61 Y34.28 M03 S0 F2000
G01 Z2 F300
G01 X110.03 Y33.66 M03 S255 F150
G01 X109.46 Y35 M03 S0 F2000
G01 Z2 F300
G01 X109.61 Y34.28 M03 S255 F150
G01 X109.5 Y35.39 M03 S0 F2000
G01 Z2 F300
G01 X109.46 Y35 M03 S255 F150
G01 X109.61 Y35.74 M03 S0 F2000
G01 Z2 F300
G01 X109.5 Y35.39 M03 S255 F150
G01 X110.03 Y36.35 M03 S0 F2000
G01 Z2 F300
G01 X109.61 Y35.74 M03 S255 F150
G01 X110.63 Y36.75 M03 S0 F2000
G01 Z2 F300
G01 X110.03 Y36.35 M03 S255 F150
G01 X110.98 Y36.86 M03 S0 F2000
G01 Z2 F300
G01 X110.63 Y36.75 M03 S255 F150
G01 X111.36 Y36.9 M03 S0 F2000
G01 Z2 F300
G01 X110.98 Y36.86 M03 S255 F150
G01 X111.75 Y36.86 M03 S0 F2000
G01 Z2 F300
G01 X111.36 Y36.9 M03 S255 F150
G01 X112.1 Y36.75 M03 S0 F2000
G01 Z2 F300
G01 X111.75 Y36.86 M03 S255 F150
G01 X112.71 Y36.35 M03 S0 F2000
G01 Z2 F300
G01 X112.1 Y36.75 M03 S255 F150
G01 X113.11 Y35.74 M03 S0 F2000
G01 Z2 F300
G01 X112.71 Y36.35 M03 S255 F150
G01 X113.23 Y35.39 M03 S0 F2000
G01 Z2 F300
G01 X113.11 Y35.74 M03 S255 F150
G01 X113.26 Y35 M03 S0 F2000
G01 Z2 F300
G01 X113.23 Y35.39 M03 S255 F150
G01 X113.26 Y35 M03 S0 F2000
G01 Z2 F300
G01 X113.26 Y35 M03 S255 F150
G00 M03 S0
M05
G01 X123.65 Y59.15 M03 S0 F2000
M03 S0
G01 Z2.5 F300
G01 X123.65 Y17.15 M03 S255 F150
G01 Z2.5 F300
G01 X123.65 Y14.15 M03 S255 F150
G01 Z2.5 F300
G01 X123.65 Y7.35 M03 S255 F150
G01 Z2.5 F300
G01 X128.75 Y7.35 M03 S255 F150
G01 Z2.5 F300
G01 X128.75 Y10.15 M03 S255 F150
G01 Z2.5 F300
G01 X158.55 Y10.15 M03 S255 F150
G01 Z2.5 F300
G01 X158.55 Y7.35 M03 S255 F150
G01 Z2.5 F300
G01 X163.65 Y7.35 M03 S255 F150
G01 Z2.5 F300
G01 X163.65 Y14.15 M03 S255 F150
G01 Z2.5 F300
G01 X163.65 Y17.15 M03 S255 F150
G01 Z2.5 F300
G01 X163.65 Y59.15 M03 S255 F150
G01 Z2.5 F300
G01 X156.05 Y59.15 M03 S255 F150
G01 Z2.5 F300
G01 X156.05 Y55.01 M03 S255 F150
G01 X156.59 Y55.3 M03 S0 F2000
G01 Z2.5 F300
G01 X156.05 Y55.01 M03 S255 F150
G01 X157.18 Y55.39 M03 S0 F2000
G01 Z2.5 F300
G01 X156.59 Y55.3 M03 S255 F150
G01 X157.9 Y55.25 M03 S0 F2000
G01 Z2.5 F300
G01 X157.18 Y55.39 M03 S255 F150
G01 X158.51 Y54.84 M03 S0 F2000
G01 Z2.5 F300
G01 X157.9 Y55.25 M03 S255 F150
G01 X158.93 Y54.21 M03 S0 F2000
G01 Z2.5 F300
G01 X158.51 Y54.84 M03 S255 F150
G01 X159.06 Y53.49 M03 S0 F2000
G01 Z2.5 F300
G01 X158.93 Y54.21 M03 S255 F150
G01 X158.93 Y52.76 M03 S0 F2000
G01 Z2.5 F300
G01 X159.06 Y53.49 M03 S255 F150
G01 X158.51 Y52.15 M03 S0 F2000
G01 Z2.5 F300
G01 X158.93 Y52.76 M03 S255 F150
G01 X157.9 Y51.74 M03 S0 F2000
G01 Z2.5 F300
G01 X158.51 Y52.15 M03 S255 F150
G01 X157.18 Y51.59 M03 S0 F2000
G01 Z2.5 F300
G01 X157.9 Y51.74 M03 S255 F150
G01 X156.59 Y51.69 M03 S0 F2000
G01 Z2.5 F300
G01 X157.18 Y51.59 M03 S255 F150
G01 X156.05 Y51.96 M03 S0 F2000
G01 Z2.5 F300
G01 X156.59 Y51.69 M03 S255 F150
G01 X156.05 Y51.95 M03 S0 F2000
G01 Z2.5 F300
G01 X156.05 Y47.35 M03 S255 F150
G01 Z2.5 F300
G01 X131.25 Y47.35 M03 S255 F150
G01 Z2.5 F300
G01 X131.25 Y47.36 M03 S255 F150
G01 X131.25 Y47.56 M03 S0 F2000
G01 Z2.5 F300
G01 X131.25 Y47.41 M03 S255 F150
G01 X131.25 Y47.8 M03 S0 F2000
G01 Z2.5 F300
G01 X131.25 Y47.56 M03 S255 F150
G01 X131.25 Y48.11 M03 S0 F2000
G01 Z2.5 F300
G01 X131.25 Y47.8 M03 S255 F150
G01 X131.25 Y48.88 M03 S0 F2000
G01 Z2.5 F300
G01 X131.25 Y48.11 M03 S255 F150
G01 X131.25 Y49.74 M03 S0 F2000
G01 Z2.5 F300
G01 X131.25 Y48.88 M03 S255 F150
G01 X131.25 Y50.61 M03 S0 F2000
G01 Z2.5 F300
G01 X131.25 Y49.74 M03 S255 F150
G01 X131.25 Y51.38 M03 S0 F2000
G01 Z2.5 F300
G01 X131.25 Y50.61 M03 S255 F150
G01 X131.25 Y51.69 M03 S0 F2000
G01 Z2.5 F300
G01 X131.25 Y51.38 M03 S255 F150
G01 X131.25 Y51.93 M03 S0 F2000
G01 Z2.5 F300
G01 X131.25 Y51.69 M03 S255 F150
G01 X131.25 Y52.08 M03 S0 F2000
G01 Z2.5 F300
G01 X131.25 Y51.93 M03 S255 F150
G01 X131.25 Y52.13 M03 S0 F2000
G01 Z2.5 F300
G01 X131.25 Y52.08 M03 S255 F150
G01 X130.65 Y51.73 M03 S0 F2000
G01 Z2.5 F300
G01 X131.25 Y52.13 M03 S255 F150
G01 X129.94 Y51.59 M03 S0 F2000
G01 Z2.5 F300
G01 X130.65 Y51.73 M03 S255 F150
G01 X129.55 Y51.63 M03 S0 F2000
G01 Z2.5 F300
G01 X129.94 Y51.59 M03 S255 F150
G01 X129.2 Y51.74 M03 S0 F2000
G01 Z2.5 F300
G01 X129.55 Y51.63 M03 S255 F150
G01 X128.6 Y52.15 M03 S0 F2000
G01 Z2.5 F300
G01 X129.2 Y51.74 M03 S255 F150
G01 X128.19 Y52.75 M03 S0 F2000
G01 Z2.5 F300
G01 X128.6 Y52.15 M03 S255 F150
G01 X128.08 Y53.11 M03 S0 F2000
G01 Z2.5 F300
G01 X128.19 Y52.75 M03 S255 F150
G01 X128.04 Y53.5 M03 S0 F2000
G01 Z2.5 F300
G01 X128.08 Y53.11 M03 S255 F150
G01 X128.08 Y53.89 M03 S0 F2000
G01 Z2.5 F300
G01 X128.04 Y53.5 M03 S255 F150
G01 X128.19 Y54.24 M03 S0 F2000
G01 Z2.5 F300
G01 X128.08 Y53.89 M03 S255 F150
G01 X128.6 Y54.85 M03 S0 F2000
G01 Z2.5 F300
G01 X128.19 Y54.24 M03 S255 F150
G01 X129.2 Y55.25 M03 S0 F2000
G01 Z2.5 F300
G01 X128.6 Y54.85 M03 S255 F150
G01 X129.55 Y55.36 M03 S0 F2000
G01 Z2.5 F300
G01 X129.2 Y55.25 M03 S255 F150
G01 X129.94 Y55.4 M03 S0 F2000
G01 Z2.5 F300
G01 X129.55 Y55.36 M03 S255 F150
G01 X130.65 Y55.26 M03 S0 F2000
G01 Z2.5 F300
G01 X129.94 Y55.4 M03 S255 F150
G01 X131.25 Y54.86 M03 S0 F2000
G01 Z2.5 F300
G01 X130.65 Y55.26 M03 S255 F150
G01 X131.25 Y54.86 M03 S0 F2000
G01 Z2.5 F300
G01 X131.25 Y59.15 M03 S255 F150
G01 Z2.5 F300
G01 X123.65 Y59.15 M03 S255 F150
G01 X5.1 Y59.15 M03 S0 F2000
G01 Z2.5 F300
G01 X5.1 Y56.15 M03 S255 F150
G01 Z2.5 F300
G01 X0.1 Y56.15 M03 S255 F150
G01 Z2.5 F300
G01 X0.1 Y16.35 M03 S255 F150
G01 Z2.5 F300
G01 X39.9 Y16.35 M03 S255 F150
G01 Z2.5 F300
G01 X39.9 Y56.15 M03 S255 F150
G01 Z2.5 F300
G01 X34.9 Y56.15 M03 S255 F150
G01 Z2.5 F300
G01 X34.9 Y59.15 M03 S255 F150
G01 Z2.5 F300
G01 X5.1 Y59.15 M03 S255 F150
G01 X83.13 Y34.28 M03 S0 F2000
G01 Z2.5 F300
G01 X83.26 Y35 M03 S255 F150
G01 X82.71 Y33.66 M03 S0 F2000
G01 Z2.5 F300
G01 X83.13 Y34.28 M03 S255 F150
G01 X82.1 Y33.25 M03 S0 F2000
G01 Z2.5 F300
G01 X82.71 Y33.66 M03 S255 F150
G01 X81.36 Y33.1 M03 S0 F2000
G01 Z2.5 F300
G01 X82.1 Y33.25 M03 S255 F150
G01 X80.64 Y33.25 M03 S0 F2000
G01 Z2.5 F300
G01 X81.36 Y33.1 M03 S255 F150
G01 X80.02 Y33.66 M03 S0 F2000
G01 Z2.5 F300
G01 X80.64 Y33.25 M03 S255 F150
G01 X79.61 Y34.28 M03 S0 F2000
G01 Z2.5 F300
G01 X80.02 Y33.66 M03 S255 F150
G01 X79.46 Y35 M03 S0 F2000
G01 Z2.5 F300
G01 X79.61 Y34.28 M03 S255 F150
G01 X79.5 Y35.39 M03 S0 F2000
G01 Z2.5 F300
G01 X79.46 Y35 M03 S255 F150
G01 X79.61 Y35.74 M03 S0 F2000
G01 Z2.5 F300
G01 X79.5 Y35.39 M03 S255 F150
G01 X80.02 Y36.35 M03 S0 F2000
G01 Z2.5 F300
G01 X79.61 Y35.74 M03 S255 F150
G01 X80.63 Y36.75 M03 S0 F2000
G01 Z2.5 F300
G01 X80.02 Y36.35 M03 S255 F150
G01 X80.98 Y36.86 M03 S0 F2000
G01 Z2.5 F300
G01 X80.63 Y36.75 M03 S255 F150
G01 X81.36 Y36.9 M03 S0 F2000
G01 Z2.5 F300
G01 X80.98 Y36.86 M03 S255 F150
G01 X81.75 Y36.86 M03 S0 F2000
G01 Z2.5 F300
G01 X81.36 Y36.9 M03 S255 F150
G01 X82.1 Y36.75 M03 S0 F2000
G01 Z2.5 F300
G01 X81.75 Y36.86 M03 S255 F150
G01 X82.71 Y36.35 M03 S0 F2000
G01 Z2.5 F300
G01 X82.1 Y36.75 M03 S255 F150
G01 X83.11 Y35.74 M03 S0 F2000
G01 Z2.5 F300
G01 X82.71 Y36.35 M03 S255 F150
G01 X83.23 Y35.39 M03 S0 F2000
G01 Z2.5 F300
G01 X83.11 Y35.74 M03 S255 F150
G01 X83.26 Y35 M03 S0 F2000
G01 Z2.5 F300
G01 X83.23 Y35.39 M03 S255 F150
G01 X83.26 Y35 M03 S0 F2000
G01 Z2.5 F300
G01 X83.26 Y35 M03 S255 F150
G01 X116.23 Y33.28 M03 S0 F2000
G01 Z2.5 F300
G01 X116.26 Y35 M03 S255 F150
G01 X116.09 Y31.55 M03 S0 F2000
G01 Z2.5 F300
G01 X116.23 Y33.28 M03 S255 F150
G01 X115.88 Y29.85 M03 S0 F2000
G01 Z2.5 F300
G01 X116.09 Y31.55 M03 S255 F150
G01 X115.59 Y28.16 M03 S0 F2000
G01 Z2.5 F300
G01 X115.88 Y29.85 M03 S255 F150
G01 X115.21 Y26.5 M03 S0 F2000
G01 Z2.5 F300
G01 X115.59 Y28.16 M03 S255 F150
G01 X114.75 Y24.85 M03 S0 F2000
G01 Z2.5 F300
G01 X115.21 Y26.5 M03 S255 F150
G01 X114.23 Y23.24 M03 S0 F2000
G01 Z2.5 F300
G01 X114.75 Y24.85 M03 S255 F150
G01 X113.61 Y21.65 M03 S0 F2000
G01 Z2.5 F300
G01 X114.23 Y23.24 M03 S255 F150
G01 X112.91 Y20.09 M03 S0 F2000
G01 Z2.5 F300
G01 X113.61 Y21.65 M03 S255 F150
G01 X112.15 Y18.58 M03 S0 F2000
G01 Z2.5 F300
G01 X112.91 Y20.09 M03 S255 F150
G01 X110.4 Y15.64 M03 S0 F2000
G01 Z2.5 F300
G01 X112.15 Y18.58 M03 S255 F150
G01 X108.36 Y12.89 M03 S0 F2000
G01 Z2.5 F300
G01 X110.4 Y15.64 M03 S255 F150
G01 X106.05 Y10.33 M03 S0 F2000
G01 Z2.5 F300
G01 X108.36 Y12.89 M03 S255 F150
G01 X103.49 Y8.01 M03 S0 F2000
G01 Z2.5 F300
G01 X106.05 Y10.33 M03 S255 F150
G01 X100.74 Y5.98 M03 S0 F2000
G01 Z2.5 F300
G01 X103.49 Y8.01 M03 S255 F150
G01 X97.8 Y4.21 M03 S0 F2000
G01 Z2.5 F300
G01 X100.74 Y5.98 M03 S255 F150
G01 X96.27 Y3.45 M03 S0 F2000
G01 Z2.5 F300
G01 X97.8 Y4.21 M03 S255 F150
G01 X94.73 Y2.76 M03 S0 F2000
G01 Z2.5 F300
G01 X96.27 Y3.45 M03 S255 F150
G01 X93.14 Y2.15 M03 S0 F2000
G01 Z2.5 F300
G01 X94.73 Y2.76 M03 S255 F150
G01 X91.51 Y1.61 M03 S0 F2000
G01 Z2.5 F300
G01 X93.14 Y2.15 M03 S255 F150
G01 X89.88 Y1.15 M03 S0 F2000
G01 Z2.5 F300
G01 X91.51 Y1.61 M03 S255 F150
G01 X88.21 Y0.78 M03 S0 F2000
G01 Z2.5 F300
G01 X89.88 Y1.15 M03 S255 F150
G01 X86.52 Y0.49 M03 S0 F2000
G01 Z2.5 F300
G01 X88.21 Y0.78 M03 S255 F150
G01 X84.81 Y0.28 M03 S0 F2000
G01 Z2.5 F300
G01 X86.52 Y0.49 M03 S255 F150
G01 X83.1 Y0.14 M03 S0 F2000
G01 Z2.5 F300
G01 X84.81 Y0.28 M03 S255 F150
G01 X81.36 Y0.1 M03 S0 F2000
G01 Z2.5 F300
G01 X83.1 Y0.14 M03 S255 F150
G01 X79.64 Y0.14 M03 S0 F2000
G01 Z2.5 F300
G01 X81.36 Y0.1 M03 S255 F150
G01 X77.91 Y0.28 M03 S0 F2000
G01 Z2.5 F300
G01 X79.64 Y0.14 M03 S255 F150
G01 X76.21 Y0.49 M03 S0 F2000
G01 Z2.5 F300
G01 X77.91 Y0.28 M03 S255 F150
G01 X74.52 Y0.78 M03 S0 F2000
G01 Z2.5 F300
G01 X76.21 Y0.49 M03 S255 F150
G01 X72.86 Y1.15 M03 S0 F2000
G01 Z2.5 F300
G01 X74.52 Y0.78 M03 S255 F150
G01 X71.21 Y1.61 M03 S0 F2000
G01 Z2.5 F300
G01 X72.86 Y1.15 M03 S255 F150
G01 X69.6 Y2.15 M03 S0 F2000
G01 Z2.5 F300
G01 X71.21 Y1.61 M03 S255 F150
G01 X68.01 Y2.76 M03 S0 F2000
G01 Z2.5 F300
G01 X69.6 Y2.15 M03 S255 F150
G01 X66.45 Y3.45 M03 S0 F2000
G01 Z2.5 F300
G01 X68.01 Y2.76 M03 S255 F150
G01 X64.94 Y4.21 M03 S0 F2000
G01 Z2.5 F300
G01 X66.45 Y3.45 M03 S255 F150
G01 X62 Y5.98 M03 S0 F2000
G01 Z2.5 F300
G01 X64.94 Y4.21 M03 S255 F150
G01 X59.25 Y8.01 M03 S0 F2000
G01 Z2.5 F300
G01 X62 Y5.98 M03 S255 F150
G01 X56.69 Y10.33 M03 S0 F2000
G01 Z2.5 F300
G01 X59.25 Y8.01 M03 S255 F150
G01 X54.36 Y12.89 M03 S0 F2000
G01 Z2.5 F300
G01 X56.69 Y10.33 M03 S255 F150
G01 X52.33 Y15.64 M03 S0 F2000
G01 Z2.5 F300
G01 X54.36 Y12.89 M03 S255 F150
G01 X50.58 Y18.58 M03 S0 F2000
G01 Z2.5 F300
G01 X52.33 Y15.64 M03 S255 F150
G01 X49.81 Y20.09 M03 S0 F2000
G01 Z2.5 F300
G01 X50.58 Y18.58 M03 S255 F150
G01 X49.13 Y21.65 M03 S0 F2000
G01 Z2.5 F300
G01 X49.81 Y20.09 M03 S255 F150
G01 X48.5 Y23.24 M03 S0 F2000
G01 Z2.5 F300
G01 X49.13 Y21.65 M03 S255 F150
G01 X47.98 Y24.85 M03 S0 F2000
G01 Z2.5 F300
G01 X48.5 Y23.24 M03 S255 F150
G01 X47.51 Y26.5 M03 S0 F2000
G01 Z2.5 F300
G01 X47.98 Y24.85 M03 S255 F150
G01 X47.14 Y28.16 M03 S0 F2000
G01 Z2.5 F300
G01 X47.51 Y26.5 M03 S255 F150
G01 X46.85 Y29.85 M03 S0 F2000
G01 Z2.5 F300
G01 X47.14 Y28.16 M03 S255 F150
G01 X46.64 Y31.55 M03 S0 F2000
G01 Z2.5 F300
G01 X46.85 Y29.85 M03 S255 F150
G01 X46.5 Y33.28 M03 S0 F2000
G01 Z2.5 F300
G01 X46.64 Y31.55 M03 S255 F150
G01 X46.46 Y35 M03 S0 F2000
G01 Z2.5 F300
G01 X46.5 Y33.28 M03 S255 F150
G01 X46.51 Y36.8 M03 S0 F2000
G01 Z2.5 F300
G01 X46.46 Y35 M03 S255 F150
G01 X46.64 Y38.56 M03 S0 F2000
G01 Z2.5 F300
G01 X46.51 Y36.8 M03 S255 F150
G01 X46.86 Y40.31 M03 S0 F2000
G01 Z2.5 F300
G01 X46.64 Y38.56 M03 S255 F150
G01 X47.18 Y42.04 M03 S0 F2000
G01 Z2.5 F300
G01 X46.86 Y40.31 M03 S255 F150
G01 X47.56 Y43.73 M03 S0 F2000
G01 Z2.5 F300
G01 X47.18 Y42.04 M03 S255 F150
G01 X48.04 Y45.38 M03 S0 F2000
G01 Z2.5 F300
G01 X47.56 Y43.73 M03 S255 F150
G01 X48.58 Y47 M03 S0 F2000
G01 Z2.5 F300
G01 X48.04 Y45.38 M03 S255 F150
G01 X49.2 Y48.59 M03 S0 F2000
G01 Z2.5 F300
G01 X48.58 Y47 M03 S255 F150
G01 X50.68 Y51.64 M03 S0 F2000
G01 Z2.5 F300
G01 X49.2 Y48.59 M03 S255 F150
G01 X52.43 Y54.51 M03 S0 F2000
G01 Z2.5 F300
G01 X50.68 Y51.64 M03 S255 F150
G01 X54.44 Y57.2 M03 S0 F2000
G01 Z2.5 F300
G01 X52.43 Y54.51 M03 S255 F150
G01 X56.69 Y59.68 M03 S0 F2000
G01 Z2.5 F300
G01 X54.44 Y57.2 M03 S255 F150
G01 X59.16 Y61.93 M03 S0 F2000
G01 Z2.5 F300
G01 X56.69 Y59.68 M03 S255 F150
G01 X61.85 Y63.94 M03 S0 F2000
G01 Z2.5 F300
G01 X59.16 Y61.93 M03 S255 F150
G01 X64.73 Y65.69 M03 S0 F2000
G01 Z2.5 F300
G01 X61.85 Y63.94 M03 S255 F150
G01 X67.77 Y67.16 M03 S0 F2000
G01 Z2.5 F300
G01 X64.73 Y65.69 M03 S255 F150
G01 X69.36 Y67.79 M03 S0 F2000
G01 Z2.5 F300
G01 X67.77 Y67.16 M03 S255 F150
G01 X70.99 Y68.33 M03 S0 F2000
G01 Z2.5 F300
G01 X69.36 Y67.79 M03 S255 F150
G01 X72.64 Y68.8 M03 S0 F2000
G01 Z2.5 F300
G01 X70.99 Y68.33 M03 S255 F150
G01 X74.33 Y69.19 M03 S0 F2000
G01 Z2.5 F300
G01 X72.64 Y68.8 M03 S255 F150
G01 X76.05 Y69.5 M03 S0 F2000
G01 Z2.5 F300
G01 X74.33 Y69.19 M03 S255 F150
G01 X77.8 Y69.73 M03 S0 F2000
G01 Z2.5 F300
G01 X76.05 Y69.5 M03 S255 F150
G01 X79.56 Y69.85 M03 S0 F2000
G01 Z2.5 F300
G01 X77.8 Y69.73 M03 S255 F150
G01 X81.36 Y69.9 M03 S0 F2000
G01 Z2.5 F300
G01 X79.56 Y69.85 M03 S255 F150
G01 X83.16 Y69.85 M03 S0 F2000
G01 Z2.5 F300
G01 X81.36 Y69.9 M03 S255 F150
G01 X84.93 Y69.73 M03 S0 F2000
G01 Z2.5 F300
G01 X83.16 Y69.85 M03 S255 F150
G01 X86.68 Y69.5 M03 S0 F2000
G01 Z2.5 F300
G01 X84.93 Y69.73 M03 S255 F150
G01 X88.4 Y69.19 M03 S0 F2000
G01 Z2.5 F300
G01 X86.68 Y69.5 M03 S255 F150
G01 X90.09 Y68.8 M03 S0 F2000
G01 Z2.5 F300
G01 X88.4 Y69.19 M03 S255 F150
G01 X91.74 Y68.33 M03 S0 F2000
G01 Z2.5 F300
G01 X90.09 Y68.8 M03 S255 F150
G01 X93.36 Y67.79 M03 S0 F2000
G01 Z2.5 F300
G01 X91.74 Y68.33 M03 S255 F150
G01 X94.95 Y67.16 M03 S0 F2000
G01 Z2.5 F300
G01 X93.36 Y67.79 M03 S255 F150
G01 X98 Y65.69 M03 S0 F2000
G01 Z2.5 F300
G01 X94.95 Y67.16 M03 S255 F150
G01 X100.88 Y63.94 M03 S0 F2000
G01 Z2.5 F300
G01 X98 Y65.69 M03 S255 F150
G01 X103.56 Y61.93 M03 S0 F2000
G01 Z2.5 F300
G01 X100.88 Y63.94 M03 S255 F150
G01 X106.04 Y59.68 M03 S0 F2000
G01 Z2.5 F300
G01 X103.56 Y61.93 M03 S255 F150
G01 X108.29 Y57.2 M03 S0 F2000
G01 Z2.5 F300
G01 X106.04 Y59.68 M03 S255 F150
G01 X110.3 Y54.51 M03 S0 F2000
G01 Z2.5 F300
G01 X108.29 Y57.2 M03 S255 F150
G01 X112.05 Y51.64 M03 S0 F2000
G01 Z2.5 F300
G01 X110.3 Y54.51 M03 S255 F150
G01 X113.53 Y48.59 M03 S0 F2000
G01 Z2.5 F300
G01 X112.05 Y51.64 M03 S255 F150
G01 X114.15 Y47 M03 S0 F2000
G01 Z2.5 F300
G01 X113.53 Y48.59 M03 S255 F150
G01 X114.69 Y45.38 M03 S0 F2000
G01 Z2.5 F300
G01 X114.15 Y47 M03 S255 F150
G01 X115.16 Y43.73 M03 S0 F2000
G01 Z2.5 F300
G01 X114.69 Y45.38 M03 S255 F150
G01 X115.55 Y42.04 M03 S0 F2000
G01 Z2.5 F300
G01 X115.16 Y43.73 M03 S255 F150
G01 X115.86 Y40.31 M03 S0 F2000
G01 Z2.5 F300
G01 X115.55 Y42.04 M03 S255 F150
G01 X116.09 Y38.56 M03 S0 F2000
G01 Z2.5 F300
G01 X115.86 Y40.31 M03 S255 F150
G01 X116.21 Y36.8 M03 S0 F2000
G01 Z2.5 F300
G01 X116.09 Y38.56 M03 S255 F150
G01 X116.26 Y35 M03 S0 F2000
G01 Z2.5 F300
G01 X116.21 Y36.8 M03 S255 F150
G01 X116.26 Y35 M03 S0 F2000
G01 Z2.5 F300
G01 X116.26 Y35 M03 S255 F150
G01 X113.13 Y34.28 M03 S0 F2000
G01 Z2.5 F300
G01 X113.26 Y35 M03 S255 F150
G01 X112.71 Y33.66 M03 S0 F2000
G01 Z2.5 F300
G01 X113.13 Y34.28 M03 S255 F150
G01 X112.1 Y33.25 M03 S0 F2000
G01 Z2.5 F300
G01 X112.71 Y33.66 M03 S255 F150
G01 X111.36 Y33.1 M03 S0 F2000
G01 Z2.5 F300
G01 X112.1 Y33.25 M03 S255 F150
G01 X110.64 Y33.25 M03 S0 F2000
G01 Z2.5 F300
G01 X111.36 Y33.1 M03 S255 F150
G01 X110.03 Y33.66 M03 S0 F2000
G01 Z2.5 F300
G01 X110.64 Y33.25 M03 S255 F150
G01 X109.61 Y34.28 M03 S0 F2000
G01 Z2.5 F300
G01 X110.03 Y33.66 M03 S255 F150
G01 X109.46 Y35 M03 S0 F2000
G01 Z2.5 F300
G01 X109.61 Y34.28 M03 S255 F150
G01 X109.5 Y35.39 M03 S0 F2000
G01 Z2.5 F300
G01 X109.46 Y35 M03 S255 F150
G01 X109.61 Y35.74 M03 S0 F2000
G01 Z2.5 F300
G01 X109.5 Y35.39 M03 S255 F150
G01 X110.03 Y36.35 M03 S0 F2000
G01 Z2.5 F300
G01 X109.61 Y35.74 M03 S255 F150
G01 X110.63 Y36.75 M03 S0 F2000
G01 Z2.5 F300
G01 X110.03 Y36.35 M03 S255 F150
G01 X110.98 Y36.86 M03 S0 F2000
G01 Z2.5 F300
G01 X110.63 Y36.75 M03 S255 F150
G01 X111.36 Y36.9 M03 S0 F2000
G01 Z2.5 F300
G01 X110.98 Y36.86 M03 S255 F150
G01 X111.75 Y36.86 M03 S0 F2000
G01 Z2.5 F300
G01 X111.36 Y36.9 M03 S255 F150
G01 X112.1 Y36.75 M03 S0 F2000
G01 Z2.5 F300
G01 X111.75 Y36.86 M03 S255 F150
G01 X112.71 Y36.35 M03 S0 F2000
G01 Z2.5 F300
G01 X112.1 Y36.75 M03 S255 F150
G01 X113.11 Y35.74 M03 S0 F2000
G01 Z2.5 F300
G01 X112.71 Y36.35 M03 S255 F150
G01 X113.23 Y35.39 M03 S0 F2000
G01 Z2.5 F300
G01 X113.11 Y35.74 M03 S255 F150
G01 X113.26 Y35 M03 S0 F2000
G01 Z2.5 F300
G01 X113.23 Y35.39 M03 S255 F150
G01 X113.26 Y35 M03 S0 F2000
G01 Z2.5 F300
G01 X113.26 Y35 M03 S255 F150
G00 Z0 M03 S0
M05
G00 X0 Y0 
