( Generated by T2Laser ) 
(  DXF2Gcode for Grbl  )
( Start Point: LL      )
( Frame Mode : Extents )
( X Maximum  : 85.8    )
( Y Maximum  : 60.8    )
( Laser Power: 255     )
( Vector Rate: 150     )
( Rapid Feed : 2000    )
( Vector Name: BirdServo.dxf )
G21
G90
F150
M05
G00 Z0 
G01 X0.1 Y60.78 F2000
M03 S0
G01 Z0 F300
G01 X0.1 Y15.78 M03 S255 F150
G01 Z0 F300
G01 X5.2 Y15.78 M03 S255 F150
G01 Z0 F300
G01 X5.2 Y18.58 M03 S255 F150
G01 Z0 F300
G01 X35 Y18.58 M03 S255 F150
G01 Z0 F300
G01 X35 Y15.78 M03 S255 F150
G01 Z0 F300
G01 X40.1 Y15.78 M03 S255 F150
G01 Z0 F300
G01 X40.1 Y60.78 M03 S255 F150
G01 Z0 F300
G01 X32.5 Y60.78 M03 S255 F150
G01 Z0 F300
G01 X32.5 Y60.79 M03 S255 F150
G01 X32.5 Y60.61 M03 S0 F2000
G01 Z0 F300
G01 X32.5 Y60.74 M03 S255 F150
G01 X32.5 Y60.14 M03 S0 F2000
G01 Z0 F300
G01 X32.5 Y60.61 M03 S255 F150
G01 X32.5 Y59.48 M03 S0 F2000
G01 Z0 F300
G01 X32.5 Y60.14 M03 S255 F150
G01 X32.5 Y58.71 M03 S0 F2000
G01 Z0 F300
G01 X32.5 Y59.48 M03 S255 F150
G01 X32.5 Y57.95 M03 S0 F2000
G01 Z0 F300
G01 X32.5 Y58.71 M03 S255 F150
G01 X32.5 Y57.29 M03 S0 F2000
G01 Z0 F300
G01 X32.5 Y57.95 M03 S255 F150
G01 X32.5 Y56.81 M03 S0 F2000
G01 Z0 F300
G01 X32.5 Y57.29 M03 S255 F150
G01 X32.5 Y56.69 M03 S0 F2000
G01 Z0 F300
G01 X32.5 Y56.81 M03 S255 F150
G01 X32.5 Y56.64 M03 S0 F2000
G01 Z0 F300
G01 X32.5 Y56.69 M03 S255 F150
G01 X33.04 Y56.93 M03 S0 F2000
G01 Z0 F300
G01 X32.5 Y56.64 M03 S255 F150
G01 X33.63 Y57.01 M03 S0 F2000
G01 Z0 F300
G01 X33.04 Y56.93 M03 S255 F150
G01 X34.35 Y56.88 M03 S0 F2000
G01 Z0 F300
G01 X33.63 Y57.01 M03 S255 F150
G01 X34.96 Y56.46 M03 S0 F2000
G01 Z0 F300
G01 X34.35 Y56.88 M03 S255 F150
G01 X35.38 Y55.84 M03 S0 F2000
G01 Z0 F300
G01 X34.96 Y56.46 M03 S255 F150
G01 X35.53 Y55.11 M03 S0 F2000
G01 Z0 F300
G01 X35.38 Y55.84 M03 S255 F150
G01 X35.38 Y54.39 M03 S0 F2000
G01 Z0 F300
G01 X35.53 Y55.11 M03 S255 F150
G01 X34.96 Y53.78 M03 S0 F2000
G01 Z0 F300
G01 X35.38 Y54.39 M03 S255 F150
G01 X34.35 Y53.36 M03 S0 F2000
G01 Z0 F300
G01 X34.96 Y53.78 M03 S255 F150
G01 X33.63 Y53.21 M03 S0 F2000
G01 Z0 F300
G01 X34.35 Y53.36 M03 S255 F150
G01 X33.04 Y53.31 M03 S0 F2000
G01 Z0 F300
G01 X33.63 Y53.21 M03 S255 F150
G01 X32.5 Y53.59 M03 S0 F2000
G01 Z0 F300
G01 X33.04 Y53.31 M03 S255 F150
G01 X32.5 Y53.58 M03 S0 F2000
G01 Z0 F300
G01 X32.5 Y48.98 M03 S255 F150
G01 Z0 F300
G01 X7.7 Y48.98 M03 S255 F150
G01 Z0 F300
G01 X7.7 Y48.99 M03 S255 F150
G01 X7.7 Y49.19 M03 S0 F2000
G01 Z0 F300
G01 X7.7 Y49.04 M03 S255 F150
G01 X7.7 Y49.43 M03 S0 F2000
G01 Z0 F300
G01 X7.7 Y49.19 M03 S255 F150
G01 X7.7 Y49.74 M03 S0 F2000
G01 Z0 F300
G01 X7.7 Y49.43 M03 S255 F150
G01 X7.7 Y50.5 M03 S0 F2000
G01 Z0 F300
G01 X7.7 Y49.74 M03 S255 F150
G01 X7.7 Y51.36 M03 S0 F2000
G01 Z0 F300
G01 X7.7 Y50.5 M03 S255 F150
G01 X7.7 Y52.24 M03 S0 F2000
G01 Z0 F300
G01 X7.7 Y51.36 M03 S255 F150
G01 X7.7 Y53 M03 S0 F2000
G01 Z0 F300
G01 X7.7 Y52.24 M03 S255 F150
G01 X7.7 Y53.31 M03 S0 F2000
G01 Z0 F300
G01 X7.7 Y53 M03 S255 F150
G01 X7.7 Y53.55 M03 S0 F2000
G01 Z0 F300
G01 X7.7 Y53.31 M03 S255 F150
G01 X7.7 Y53.7 M03 S0 F2000
G01 Z0 F300
G01 X7.7 Y53.55 M03 S255 F150
G01 X7.7 Y53.75 M03 S0 F2000
G01 Z0 F300
G01 X7.7 Y53.7 M03 S255 F150
G01 X7.1 Y53.35 M03 S0 F2000
G01 Z0 F300
G01 X7.7 Y53.75 M03 S255 F150
G01 X6.39 Y53.21 M03 S0 F2000
G01 Z0 F300
G01 X7.1 Y53.35 M03 S255 F150
G01 X6 Y53.25 M03 S0 F2000
G01 Z0 F300
G01 X6.39 Y53.21 M03 S255 F150
G01 X5.65 Y53.36 M03 S0 F2000
G01 Z0 F300
G01 X6 Y53.25 M03 S255 F150
G01 X5.05 Y53.78 M03 S0 F2000
G01 Z0 F300
G01 X5.65 Y53.36 M03 S255 F150
G01 X4.64 Y54.38 M03 S0 F2000
G01 Z0 F300
G01 X5.05 Y53.78 M03 S255 F150
G01 X4.53 Y54.74 M03 S0 F2000
G01 Z0 F300
G01 X4.64 Y54.38 M03 S255 F150
G01 X4.49 Y55.13 M03 S0 F2000
G01 Z0 F300
G01 X4.53 Y54.74 M03 S255 F150
G01 X4.53 Y55.51 M03 S0 F2000
G01 Z0 F300
G01 X4.49 Y55.13 M03 S255 F150
G01 X4.64 Y55.86 M03 S0 F2000
G01 Z0 F300
G01 X4.53 Y55.51 M03 S255 F150
G01 X5.05 Y56.48 M03 S0 F2000
G01 Z0 F300
G01 X4.64 Y55.86 M03 S255 F150
G01 X5.65 Y56.88 M03 S0 F2000
G01 Z0 F300
G01 X5.05 Y56.48 M03 S255 F150
G01 X6 Y56.99 M03 S0 F2000
G01 Z0 F300
G01 X5.65 Y56.88 M03 S255 F150
G01 X6.39 Y57.03 M03 S0 F2000
G01 Z0 F300
G01 X6 Y56.99 M03 S255 F150
G01 X7.1 Y56.89 M03 S0 F2000
G01 Z0 F300
G01 X6.39 Y57.03 M03 S255 F150
G01 X7.7 Y56.49 M03 S0 F2000
G01 Z0 F300
G01 X7.1 Y56.89 M03 S255 F150
G01 X7.7 Y56.48 M03 S0 F2000
G01 Z0 F300
G01 X7.7 Y60.78 M03 S255 F150
G01 Z0 F300
G01 X0.1 Y60.78 M03 S255 F150
G01 X51.04 Y58.08 M03 S0 F2000
G01 Z0 F300
G01 X51.04 Y55.08 M03 S255 F150
G01 Z0 F300
G01 X46.04 Y55.08 M03 S255 F150
G01 Z0 F300
G01 X46.04 Y15.28 M03 S255 F150
G01 Z0 F300
G01 X85.84 Y15.28 M03 S255 F150
G01 Z0 F300
G01 X85.84 Y55.08 M03 S255 F150
G01 Z0 F300
G01 X80.84 Y55.08 M03 S255 F150
G01 Z0 F300
G01 X80.84 Y58.08 M03 S255 F150
G01 Z0 F300
G01 X51.04 Y58.08 M03 S255 F150
G01 X35.79 Y5.28 M03 S0 F2000
G01 Z0 F300
G01 X35.8 Y5.05 M03 S255 F150
G01 X35.74 Y5.56 M03 S0 F2000
G01 Z0 F300
G01 X35.79 Y5.28 M03 S255 F150
G01 X35.5 Y6.21 M03 S0 F2000
G01 Z0 F300
G01 X35.74 Y5.56 M03 S255 F150
G01 X35.04 Y6.83 M03 S0 F2000
G01 Z0 F300
G01 X35.5 Y6.21 M03 S255 F150
G01 X34.7 Y7.06 M03 S0 F2000
G01 Z0 F300
G01 X35.04 Y6.83 M03 S255 F150
G01 X34.3 Y7.23 M03 S0 F2000
G01 Z0 F300
G01 X34.7 Y7.06 M03 S255 F150
G01 X33.1 Y7.5 M03 S0 F2000
G01 Z0 F300
G01 X34.3 Y7.23 M03 S255 F150
G01 X31.71 Y7.76 M03 S0 F2000
G01 Z0 F300
G01 X33.1 Y7.5 M03 S255 F150
G01 X30.16 Y8.03 M03 S0 F2000
G01 Z0 F300
G01 X31.71 Y7.76 M03 S255 F150
G01 X28.49 Y8.26 M03 S0 F2000
G01 Z0 F300
G01 X30.16 Y8.03 M03 S255 F150
G01 X26.71 Y8.5 M03 S0 F2000
G01 Z0 F300
G01 X28.49 Y8.26 M03 S255 F150
G01 X24.9 Y8.72 M03 S0 F2000
G01 Z0 F300
G01 X26.71 Y8.5 M03 S255 F150
G01 X21.21 Y9.11 M03 S0 F2000
G01 Z0 F300
G01 X24.9 Y8.72 M03 S255 F150
G01 X19.41 Y9.29 M03 S0 F2000
G01 Z0 F300
G01 X21.21 Y9.11 M03 S255 F150
G01 X17.7 Y9.44 M03 S0 F2000
G01 Z0 F300
G01 X19.41 Y9.29 M03 S255 F150
G01 X16.09 Y9.58 M03 S0 F2000
G01 Z0 F300
G01 X17.7 Y9.44 M03 S255 F150
G01 X14.63 Y9.69 M03 S0 F2000
G01 Z0 F300
G01 X16.09 Y9.58 M03 S255 F150
G01 X13.34 Y9.78 M03 S0 F2000
G01 Z0 F300
G01 X14.63 Y9.69 M03 S255 F150
G01 X12.26 Y9.85 M03 S0 F2000
G01 Z0 F300
G01 X13.34 Y9.78 M03 S255 F150
G01 X11.43 Y9.89 M03 S0 F2000
G01 Z0 F300
G01 X12.26 Y9.85 M03 S255 F150
G01 X11.1 Y9.9 M03 S0 F2000
G01 Z0 F300
G01 X11.43 Y9.89 M03 S255 F150
G01 X10.86 Y9.9 M03 S0 F2000
G01 Z0 F300
G01 X11.1 Y9.9 M03 S255 F150
G01 X9.88 Y9.8 M03 S0 F2000
G01 Z0 F300
G01 X10.86 Y9.9 M03 S255 F150
G01 X8.96 Y9.51 M03 S0 F2000
G01 Z0 F300
G01 X9.88 Y9.8 M03 S255 F150
G01 X8.13 Y9.06 M03 S0 F2000
G01 Z0 F300
G01 X8.96 Y9.51 M03 S255 F150
G01 X7.4 Y8.46 M03 S0 F2000
G01 Z0 F300
G01 X8.13 Y9.06 M03 S255 F150
G01 X6.8 Y7.74 M03 S0 F2000
G01 Z0 F300
G01 X7.4 Y8.46 M03 S255 F150
G01 X6.35 Y6.91 M03 S0 F2000
G01 Z0 F300
G01 X6.8 Y7.74 M03 S255 F150
G01 X6.06 Y5.99 M03 S0 F2000
G01 Z0 F300
G01 X6.35 Y6.91 M03 S255 F150
G01 X5.96 Y5 M03 S0 F2000
G01 Z0 F300
G01 X6.06 Y5.99 M03 S255 F150
G01 X6.06 Y4.01 M03 S0 F2000
G01 Z0 F300
G01 X5.96 Y5 M03 S255 F150
G01 X6.35 Y3.1 M03 S0 F2000
G01 Z0 F300
G01 X6.06 Y4.01 M03 S255 F150
G01 X6.8 Y2.26 M03 S0 F2000
G01 Z0 F300
G01 X6.35 Y3.1 M03 S255 F150
G01 X7.4 Y1.54 M03 S0 F2000
G01 Z0 F300
G01 X6.8 Y2.26 M03 S255 F150
G01 X8.13 Y0.94 M03 S0 F2000
G01 Z0 F300
G01 X7.4 Y1.54 M03 S255 F150
G01 X8.96 Y0.49 M03 S0 F2000
G01 Z0 F300
G01 X8.13 Y0.94 M03 S255 F150
G01 X9.88 Y0.2 M03 S0 F2000
G01 Z0 F300
G01 X8.96 Y0.49 M03 S255 F150
G01 X10.86 Y0.1 M03 S0 F2000
G01 Z0 F300
G01 X9.88 Y0.2 M03 S255 F150
G01 X11.11 Y0.1 M03 S0 F2000
G01 Z0 F300
G01 X10.86 Y0.1 M03 S255 F150
G01 X11.44 Y0.11 M03 S0 F2000
G01 Z0 F300
G01 X11.11 Y0.1 M03 S255 F150
G01 X12.29 Y0.16 M03 S0 F2000
G01 Z0 F300
G01 X11.44 Y0.11 M03 S255 F150
G01 X13.38 Y0.23 M03 S0 F2000
G01 Z0 F300
G01 X12.29 Y0.16 M03 S255 F150
G01 X14.66 Y0.31 M03 S0 F2000
G01 Z0 F300
G01 X13.38 Y0.23 M03 S255 F150
G01 X16.13 Y0.44 M03 S0 F2000
G01 Z0 F300
G01 X14.66 Y0.31 M03 S255 F150
G01 X17.74 Y0.58 M03 S0 F2000
G01 Z0 F300
G01 X16.13 Y0.44 M03 S255 F150
G01 X19.45 Y0.73 M03 S0 F2000
G01 Z0 F300
G01 X17.74 Y0.58 M03 S255 F150
G01 X21.24 Y0.9 M03 S0 F2000
G01 Z0 F300
G01 X19.45 Y0.73 M03 S255 F150
G01 X24.9 Y1.3 M03 S0 F2000
G01 Z0 F300
G01 X21.24 Y0.9 M03 S255 F150
G01 X26.73 Y1.53 M03 S0 F2000
G01 Z0 F300
G01 X24.9 Y1.3 M03 S255 F150
G01 X28.48 Y1.75 M03 S0 F2000
G01 Z0 F300
G01 X26.73 Y1.53 M03 S255 F150
G01 X30.14 Y2 M03 S0 F2000
G01 Z0 F300
G01 X28.48 Y1.75 M03 S255 F150
G01 X31.69 Y2.25 M03 S0 F2000
G01 Z0 F300
G01 X30.14 Y2 M03 S255 F150
G01 X33.08 Y2.51 M03 S0 F2000
G01 Z0 F300
G01 X31.69 Y2.25 M03 S255 F150
G01 X34.28 Y2.78 M03 S0 F2000
G01 Z0 F300
G01 X33.08 Y2.51 M03 S255 F150
G01 X34.63 Y2.93 M03 S0 F2000
G01 Z0 F300
G01 X34.28 Y2.78 M03 S255 F150
G01 X34.94 Y3.18 M03 S0 F2000
G01 Z0 F300
G01 X34.63 Y2.93 M03 S255 F150
G01 X35.41 Y3.85 M03 S0 F2000
G01 Z0 F300
G01 X34.94 Y3.18 M03 S255 F150
G01 X35.7 Y4.56 M03 S0 F2000
G01 Z0 F300
G01 X35.41 Y3.85 M03 S255 F150
G01 X35.78 Y4.85 M03 S0 F2000
G01 Z0 F300
G01 X35.7 Y4.56 M03 S255 F150
G01 X35.8 Y5.05 M03 S0 F2000
G01 Z0 F300
G01 X35.78 Y4.85 M03 S255 F150
G01 X35.8 Y5.04 M03 S0 F2000
G01 Z0 F300
G01 X35.8 Y5.04 M03 S255 F150
G01 X12.63 Y4.28 M03 S0 F2000
G01 Z0 F300
G01 X12.76 Y5 M03 S255 F150
G01 X12.21 Y3.65 M03 S0 F2000
G01 Z0 F300
G01 X12.63 Y4.28 M03 S255 F150
G01 X11.59 Y3.25 M03 S0 F2000
G01 Z0 F300
G01 X12.21 Y3.65 M03 S255 F150
G01 X10.86 Y3.1 M03 S0 F2000
G01 Z0 F300
G01 X11.59 Y3.25 M03 S255 F150
G01 X10.14 Y3.25 M03 S0 F2000
G01 Z0 F300
G01 X10.86 Y3.1 M03 S255 F150
G01 X9.53 Y3.65 M03 S0 F2000
G01 Z0 F300
G01 X10.14 Y3.25 M03 S255 F150
G01 X9.11 Y4.28 M03 S0 F2000
G01 Z0 F300
G01 X9.53 Y3.65 M03 S255 F150
G01 X8.96 Y5 M03 S0 F2000
G01 Z0 F300
G01 X9.11 Y4.28 M03 S255 F150
G01 X9 Y5.39 M03 S0 F2000
G01 Z0 F300
G01 X8.96 Y5 M03 S255 F150
G01 X9.11 Y5.74 M03 S0 F2000
G01 Z0 F300
G01 X9 Y5.39 M03 S255 F150
G01 X9.53 Y6.35 M03 S0 F2000
G01 Z0 F300
G01 X9.11 Y5.74 M03 S255 F150
G01 X10.13 Y6.75 M03 S0 F2000
G01 Z0 F300
G01 X9.53 Y6.35 M03 S255 F150
G01 X10.48 Y6.86 M03 S0 F2000
G01 Z0 F300
G01 X10.13 Y6.75 M03 S255 F150
G01 X10.86 Y6.9 M03 S0 F2000
G01 Z0 F300
G01 X10.48 Y6.86 M03 S255 F150
G01 X11.59 Y6.75 M03 S0 F2000
G01 Z0 F300
G01 X10.86 Y6.9 M03 S255 F150
G01 X12.21 Y6.34 M03 S0 F2000
G01 Z0 F300
G01 X11.59 Y6.75 M03 S255 F150
G01 X12.63 Y5.73 M03 S0 F2000
G01 Z0 F300
G01 X12.21 Y6.34 M03 S255 F150
G01 X12.76 Y5 M03 S0 F2000
G01 Z0 F300
G01 X12.63 Y5.73 M03 S255 F150
G01 X12.76 Y4.99 M03 S0 F2000
G01 Z0 F300
G01 X12.76 Y4.99 M03 S255 F150
G00 M03 S0
M05
G01 X0.1 Y60.78 M03 S0 F2000
M03 S0
G01 Z0.5 F300
G01 X0.1 Y15.78 M03 S255 F150
G01 Z0.5 F300
G01 X5.2 Y15.78 M03 S255 F150
G01 Z0.5 F300
G01 X5.2 Y18.58 M03 S255 F150
G01 Z0.5 F300
G01 X35 Y18.58 M03 S255 F150
G01 Z0.5 F300
G01 X35 Y15.78 M03 S255 F150
G01 Z0.5 F300
G01 X40.1 Y15.78 M03 S255 F150
G01 Z0.5 F300
G01 X40.1 Y60.78 M03 S255 F150
G01 Z0.5 F300
G01 X32.5 Y60.78 M03 S255 F150
G01 Z0.5 F300
G01 X32.5 Y60.79 M03 S255 F150
G01 X32.5 Y60.61 M03 S0 F2000
G01 Z0.5 F300
G01 X32.5 Y60.74 M03 S255 F150
G01 X32.5 Y60.14 M03 S0 F2000
G01 Z0.5 F300
G01 X32.5 Y60.61 M03 S255 F150
G01 X32.5 Y59.48 M03 S0 F2000
G01 Z0.5 F300
G01 X32.5 Y60.14 M03 S255 F150
G01 X32.5 Y58.71 M03 S0 F2000
G01 Z0.5 F300
G01 X32.5 Y59.48 M03 S255 F150
G01 X32.5 Y57.95 M03 S0 F2000
G01 Z0.5 F300
G01 X32.5 Y58.71 M03 S255 F150
G01 X32.5 Y57.29 M03 S0 F2000
G01 Z0.5 F300
G01 X32.5 Y57.95 M03 S255 F150
G01 X32.5 Y56.81 M03 S0 F2000
G01 Z0.5 F300
G01 X32.5 Y57.29 M03 S255 F150
G01 X32.5 Y56.69 M03 S0 F2000
G01 Z0.5 F300
G01 X32.5 Y56.81 M03 S255 F150
G01 X32.5 Y56.64 M03 S0 F2000
G01 Z0.5 F300
G01 X32.5 Y56.69 M03 S255 F150
G01 X33.04 Y56.93 M03 S0 F2000
G01 Z0.5 F300
G01 X32.5 Y56.64 M03 S255 F150
G01 X33.63 Y57.01 M03 S0 F2000
G01 Z0.5 F300
G01 X33.04 Y56.93 M03 S255 F150
G01 X34.35 Y56.88 M03 S0 F2000
G01 Z0.5 F300
G01 X33.63 Y57.01 M03 S255 F150
G01 X34.96 Y56.46 M03 S0 F2000
G01 Z0.5 F300
G01 X34.35 Y56.88 M03 S255 F150
G01 X35.38 Y55.84 M03 S0 F2000
G01 Z0.5 F300
G01 X34.96 Y56.46 M03 S255 F150
G01 X35.53 Y55.11 M03 S0 F2000
G01 Z0.5 F300
G01 X35.38 Y55.84 M03 S255 F150
G01 X35.38 Y54.39 M03 S0 F2000
G01 Z0.5 F300
G01 X35.53 Y55.11 M03 S255 F150
G01 X34.96 Y53.78 M03 S0 F2000
G01 Z0.5 F300
G01 X35.38 Y54.39 M03 S255 F150
G01 X34.35 Y53.36 M03 S0 F2000
G01 Z0.5 F300
G01 X34.96 Y53.78 M03 S255 F150
G01 X33.63 Y53.21 M03 S0 F2000
G01 Z0.5 F300
G01 X34.35 Y53.36 M03 S255 F150
G01 X33.04 Y53.31 M03 S0 F2000
G01 Z0.5 F300
G01 X33.63 Y53.21 M03 S255 F150
G01 X32.5 Y53.59 M03 S0 F2000
G01 Z0.5 F300
G01 X33.04 Y53.31 M03 S255 F150
G01 X32.5 Y53.58 M03 S0 F2000
G01 Z0.5 F300
G01 X32.5 Y48.98 M03 S255 F150
G01 Z0.5 F300
G01 X7.7 Y48.98 M03 S255 F150
G01 Z0.5 F300
G01 X7.7 Y48.99 M03 S255 F150
G01 X7.7 Y49.19 M03 S0 F2000
G01 Z0.5 F300
G01 X7.7 Y49.04 M03 S255 F150
G01 X7.7 Y49.43 M03 S0 F2000
G01 Z0.5 F300
G01 X7.7 Y49.19 M03 S255 F150
G01 X7.7 Y49.74 M03 S0 F2000
G01 Z0.5 F300
G01 X7.7 Y49.43 M03 S255 F150
G01 X7.7 Y50.5 M03 S0 F2000
G01 Z0.5 F300
G01 X7.7 Y49.74 M03 S255 F150
G01 X7.7 Y51.36 M03 S0 F2000
G01 Z0.5 F300
G01 X7.7 Y50.5 M03 S255 F150
G01 X7.7 Y52.24 M03 S0 F2000
G01 Z0.5 F300
G01 X7.7 Y51.36 M03 S255 F150
G01 X7.7 Y53 M03 S0 F2000
G01 Z0.5 F300
G01 X7.7 Y52.24 M03 S255 F150
G01 X7.7 Y53.31 M03 S0 F2000
G01 Z0.5 F300
G01 X7.7 Y53 M03 S255 F150
G01 X7.7 Y53.55 M03 S0 F2000
G01 Z0.5 F300
G01 X7.7 Y53.31 M03 S255 F150
G01 X7.7 Y53.7 M03 S0 F2000
G01 Z0.5 F300
G01 X7.7 Y53.55 M03 S255 F150
G01 X7.7 Y53.75 M03 S0 F2000
G01 Z0.5 F300
G01 X7.7 Y53.7 M03 S255 F150
G01 X7.1 Y53.35 M03 S0 F2000
G01 Z0.5 F300
G01 X7.7 Y53.75 M03 S255 F150
G01 X6.39 Y53.21 M03 S0 F2000
G01 Z0.5 F300
G01 X7.1 Y53.35 M03 S255 F150
G01 X6 Y53.25 M03 S0 F2000
G01 Z0.5 F300
G01 X6.39 Y53.21 M03 S255 F150
G01 X5.65 Y53.36 M03 S0 F2000
G01 Z0.5 F300
G01 X6 Y53.25 M03 S255 F150
G01 X5.05 Y53.78 M03 S0 F2000
G01 Z0.5 F300
G01 X5.65 Y53.36 M03 S255 F150
G01 X4.64 Y54.38 M03 S0 F2000
G01 Z0.5 F300
G01 X5.05 Y53.78 M03 S255 F150
G01 X4.53 Y54.74 M03 S0 F2000
G01 Z0.5 F300
G01 X4.64 Y54.38 M03 S255 F150
G01 X4.49 Y55.13 M03 S0 F2000
G01 Z0.5 F300
G01 X4.53 Y54.74 M03 S255 F150
G01 X4.53 Y55.51 M03 S0 F2000
G01 Z0.5 F300
G01 X4.49 Y55.13 M03 S255 F150
G01 X4.64 Y55.86 M03 S0 F2000
G01 Z0.5 F300
G01 X4.53 Y55.51 M03 S255 F150
G01 X5.05 Y56.48 M03 S0 F2000
G01 Z0.5 F300
G01 X4.64 Y55.86 M03 S255 F150
G01 X5.65 Y56.88 M03 S0 F2000
G01 Z0.5 F300
G01 X5.05 Y56.48 M03 S255 F150
G01 X6 Y56.99 M03 S0 F2000
G01 Z0.5 F300
G01 X5.65 Y56.88 M03 S255 F150
G01 X6.39 Y57.03 M03 S0 F2000
G01 Z0.5 F300
G01 X6 Y56.99 M03 S255 F150
G01 X7.1 Y56.89 M03 S0 F2000
G01 Z0.5 F300
G01 X6.39 Y57.03 M03 S255 F150
G01 X7.7 Y56.49 M03 S0 F2000
G01 Z0.5 F300
G01 X7.1 Y56.89 M03 S255 F150
G01 X7.7 Y56.48 M03 S0 F2000
G01 Z0.5 F300
G01 X7.7 Y60.78 M03 S255 F150
G01 Z0.5 F300
G01 X0.1 Y60.78 M03 S255 F150
G01 X51.04 Y58.08 M03 S0 F2000
G01 Z0.5 F300
G01 X51.04 Y55.08 M03 S255 F150
G01 Z0.5 F300
G01 X46.04 Y55.08 M03 S255 F150
G01 Z0.5 F300
G01 X46.04 Y15.28 M03 S255 F150
G01 Z0.5 F300
G01 X85.84 Y15.28 M03 S255 F150
G01 Z0.5 F300
G01 X85.84 Y55.08 M03 S255 F150
G01 Z0.5 F300
G01 X80.84 Y55.08 M03 S255 F150
G01 Z0.5 F300
G01 X80.84 Y58.08 M03 S255 F150
G01 Z0.5 F300
G01 X51.04 Y58.08 M03 S255 F150
G01 X35.79 Y5.28 M03 S0 F2000
G01 Z0.5 F300
G01 X35.8 Y5.05 M03 S255 F150
G01 X35.74 Y5.56 M03 S0 F2000
G01 Z0.5 F300
G01 X35.79 Y5.28 M03 S255 F150
G01 X35.5 Y6.21 M03 S0 F2000
G01 Z0.5 F300
G01 X35.74 Y5.56 M03 S255 F150
G01 X35.04 Y6.83 M03 S0 F2000
G01 Z0.5 F300
G01 X35.5 Y6.21 M03 S255 F150
G01 X34.7 Y7.06 M03 S0 F2000
G01 Z0.5 F300
G01 X35.04 Y6.83 M03 S255 F150
G01 X34.3 Y7.23 M03 S0 F2000
G01 Z0.5 F300
G01 X34.7 Y7.06 M03 S255 F150
G01 X33.1 Y7.5 M03 S0 F2000
G01 Z0.5 F300
G01 X34.3 Y7.23 M03 S255 F150
G01 X31.71 Y7.76 M03 S0 F2000
G01 Z0.5 F300
G01 X33.1 Y7.5 M03 S255 F150
G01 X30.16 Y8.03 M03 S0 F2000
G01 Z0.5 F300
G01 X31.71 Y7.76 M03 S255 F150
G01 X28.49 Y8.26 M03 S0 F2000
G01 Z0.5 F300
G01 X30.16 Y8.03 M03 S255 F150
G01 X26.71 Y8.5 M03 S0 F2000
G01 Z0.5 F300
G01 X28.49 Y8.26 M03 S255 F150
G01 X24.9 Y8.72 M03 S0 F2000
G01 Z0.5 F300
G01 X26.71 Y8.5 M03 S255 F150
G01 X21.21 Y9.11 M03 S0 F2000
G01 Z0.5 F300
G01 X24.9 Y8.72 M03 S255 F150
G01 X19.41 Y9.29 M03 S0 F2000
G01 Z0.5 F300
G01 X21.21 Y9.11 M03 S255 F150
G01 X17.7 Y9.44 M03 S0 F2000
G01 Z0.5 F300
G01 X19.41 Y9.29 M03 S255 F150
G01 X16.09 Y9.58 M03 S0 F2000
G01 Z0.5 F300
G01 X17.7 Y9.44 M03 S255 F150
G01 X14.63 Y9.69 M03 S0 F2000
G01 Z0.5 F300
G01 X16.09 Y9.58 M03 S255 F150
G01 X13.34 Y9.78 M03 S0 F2000
G01 Z0.5 F300
G01 X14.63 Y9.69 M03 S255 F150
G01 X12.26 Y9.85 M03 S0 F2000
G01 Z0.5 F300
G01 X13.34 Y9.78 M03 S255 F150
G01 X11.43 Y9.89 M03 S0 F2000
G01 Z0.5 F300
G01 X12.26 Y9.85 M03 S255 F150
G01 X11.1 Y9.9 M03 S0 F2000
G01 Z0.5 F300
G01 X11.43 Y9.89 M03 S255 F150
G01 X10.86 Y9.9 M03 S0 F2000
G01 Z0.5 F300
G01 X11.1 Y9.9 M03 S255 F150
G01 X9.88 Y9.8 M03 S0 F2000
G01 Z0.5 F300
G01 X10.86 Y9.9 M03 S255 F150
G01 X8.96 Y9.51 M03 S0 F2000
G01 Z0.5 F300
G01 X9.88 Y9.8 M03 S255 F150
G01 X8.13 Y9.06 M03 S0 F2000
G01 Z0.5 F300
G01 X8.96 Y9.51 M03 S255 F150
G01 X7.4 Y8.46 M03 S0 F2000
G01 Z0.5 F300
G01 X8.13 Y9.06 M03 S255 F150
G01 X6.8 Y7.74 M03 S0 F2000
G01 Z0.5 F300
G01 X7.4 Y8.46 M03 S255 F150
G01 X6.35 Y6.91 M03 S0 F2000
G01 Z0.5 F300
G01 X6.8 Y7.74 M03 S255 F150
G01 X6.06 Y5.99 M03 S0 F2000
G01 Z0.5 F300
G01 X6.35 Y6.91 M03 S255 F150
G01 X5.96 Y5 M03 S0 F2000
G01 Z0.5 F300
G01 X6.06 Y5.99 M03 S255 F150
G01 X6.06 Y4.01 M03 S0 F2000
G01 Z0.5 F300
G01 X5.96 Y5 M03 S255 F150
G01 X6.35 Y3.1 M03 S0 F2000
G01 Z0.5 F300
G01 X6.06 Y4.01 M03 S255 F150
G01 X6.8 Y2.26 M03 S0 F2000
G01 Z0.5 F300
G01 X6.35 Y3.1 M03 S255 F150
G01 X7.4 Y1.54 M03 S0 F2000
G01 Z0.5 F300
G01 X6.8 Y2.26 M03 S255 F150
G01 X8.13 Y0.94 M03 S0 F2000
G01 Z0.5 F300
G01 X7.4 Y1.54 M03 S255 F150
G01 X8.96 Y0.49 M03 S0 F2000
G01 Z0.5 F300
G01 X8.13 Y0.94 M03 S255 F150
G01 X9.88 Y0.2 M03 S0 F2000
G01 Z0.5 F300
G01 X8.96 Y0.49 M03 S255 F150
G01 X10.86 Y0.1 M03 S0 F2000
G01 Z0.5 F300
G01 X9.88 Y0.2 M03 S255 F150
G01 X11.11 Y0.1 M03 S0 F2000
G01 Z0.5 F300
G01 X10.86 Y0.1 M03 S255 F150
G01 X11.44 Y0.11 M03 S0 F2000
G01 Z0.5 F300
G01 X11.11 Y0.1 M03 S255 F150
G01 X12.29 Y0.16 M03 S0 F2000
G01 Z0.5 F300
G01 X11.44 Y0.11 M03 S255 F150
G01 X13.38 Y0.23 M03 S0 F2000
G01 Z0.5 F300
G01 X12.29 Y0.16 M03 S255 F150
G01 X14.66 Y0.31 M03 S0 F2000
G01 Z0.5 F300
G01 X13.38 Y0.23 M03 S255 F150
G01 X16.13 Y0.44 M03 S0 F2000
G01 Z0.5 F300
G01 X14.66 Y0.31 M03 S255 F150
G01 X17.74 Y0.58 M03 S0 F2000
G01 Z0.5 F300
G01 X16.13 Y0.44 M03 S255 F150
G01 X19.45 Y0.73 M03 S0 F2000
G01 Z0.5 F300
G01 X17.74 Y0.58 M03 S255 F150
G01 X21.24 Y0.9 M03 S0 F2000
G01 Z0.5 F300
G01 X19.45 Y0.73 M03 S255 F150
G01 X24.9 Y1.3 M03 S0 F2000
G01 Z0.5 F300
G01 X21.24 Y0.9 M03 S255 F150
G01 X26.73 Y1.53 M03 S0 F2000
G01 Z0.5 F300
G01 X24.9 Y1.3 M03 S255 F150
G01 X28.48 Y1.75 M03 S0 F2000
G01 Z0.5 F300
G01 X26.73 Y1.53 M03 S255 F150
G01 X30.14 Y2 M03 S0 F2000
G01 Z0.5 F300
G01 X28.48 Y1.75 M03 S255 F150
G01 X31.69 Y2.25 M03 S0 F2000
G01 Z0.5 F300
G01 X30.14 Y2 M03 S255 F150
G01 X33.08 Y2.51 M03 S0 F2000
G01 Z0.5 F300
G01 X31.69 Y2.25 M03 S255 F150
G01 X34.28 Y2.78 M03 S0 F2000
G01 Z0.5 F300
G01 X33.08 Y2.51 M03 S255 F150
G01 X34.63 Y2.93 M03 S0 F2000
G01 Z0.5 F300
G01 X34.28 Y2.78 M03 S255 F150
G01 X34.94 Y3.18 M03 S0 F2000
G01 Z0.5 F300
G01 X34.63 Y2.93 M03 S255 F150
G01 X35.41 Y3.85 M03 S0 F2000
G01 Z0.5 F300
G01 X34.94 Y3.18 M03 S255 F150
G01 X35.7 Y4.56 M03 S0 F2000
G01 Z0.5 F300
G01 X35.41 Y3.85 M03 S255 F150
G01 X35.78 Y4.85 M03 S0 F2000
G01 Z0.5 F300
G01 X35.7 Y4.56 M03 S255 F150
G01 X35.8 Y5.05 M03 S0 F2000
G01 Z0.5 F300
G01 X35.78 Y4.85 M03 S255 F150
G01 X35.8 Y5.04 M03 S0 F2000
G01 Z0.5 F300
G01 X35.8 Y5.04 M03 S255 F150
G01 X12.63 Y4.28 M03 S0 F2000
G01 Z0.5 F300
G01 X12.76 Y5 M03 S255 F150
G01 X12.21 Y3.65 M03 S0 F2000
G01 Z0.5 F300
G01 X12.63 Y4.28 M03 S255 F150
G01 X11.59 Y3.25 M03 S0 F2000
G01 Z0.5 F300
G01 X12.21 Y3.65 M03 S255 F150
G01 X10.86 Y3.1 M03 S0 F2000
G01 Z0.5 F300
G01 X11.59 Y3.25 M03 S255 F150
G01 X10.14 Y3.25 M03 S0 F2000
G01 Z0.5 F300
G01 X10.86 Y3.1 M03 S255 F150
G01 X9.53 Y3.65 M03 S0 F2000
G01 Z0.5 F300
G01 X10.14 Y3.25 M03 S255 F150
G01 X9.11 Y4.28 M03 S0 F2000
G01 Z0.5 F300
G01 X9.53 Y3.65 M03 S255 F150
G01 X8.96 Y5 M03 S0 F2000
G01 Z0.5 F300
G01 X9.11 Y4.28 M03 S255 F150
G01 X9 Y5.39 M03 S0 F2000
G01 Z0.5 F300
G01 X8.96 Y5 M03 S255 F150
G01 X9.11 Y5.74 M03 S0 F2000
G01 Z0.5 F300
G01 X9 Y5.39 M03 S255 F150
G01 X9.53 Y6.35 M03 S0 F2000
G01 Z0.5 F300
G01 X9.11 Y5.74 M03 S255 F150
G01 X10.13 Y6.75 M03 S0 F2000
G01 Z0.5 F300
G01 X9.53 Y6.35 M03 S255 F150
G01 X10.48 Y6.86 M03 S0 F2000
G01 Z0.5 F300
G01 X10.13 Y6.75 M03 S255 F150
G01 X10.86 Y6.9 M03 S0 F2000
G01 Z0.5 F300
G01 X10.48 Y6.86 M03 S255 F150
G01 X11.59 Y6.75 M03 S0 F2000
G01 Z0.5 F300
G01 X10.86 Y6.9 M03 S255 F150
G01 X12.21 Y6.34 M03 S0 F2000
G01 Z0.5 F300
G01 X11.59 Y6.75 M03 S255 F150
G01 X12.63 Y5.73 M03 S0 F2000
G01 Z0.5 F300
G01 X12.21 Y6.34 M03 S255 F150
G01 X12.76 Y5 M03 S0 F2000
G01 Z0.5 F300
G01 X12.63 Y5.73 M03 S255 F150
G01 X12.76 Y4.99 M03 S0 F2000
G01 Z0.5 F300
G01 X12.76 Y4.99 M03 S255 F150
G00 M03 S0
M05
G01 X0.1 Y60.78 M03 S0 F2000
M03 S0
G01 Z1 F300
G01 X0.1 Y15.78 M03 S255 F150
G01 Z1 F300
G01 X5.2 Y15.78 M03 S255 F150
G01 Z1 F300
G01 X5.2 Y18.58 M03 S255 F150
G01 Z1 F300
G01 X35 Y18.58 M03 S255 F150
G01 Z1 F300
G01 X35 Y15.78 M03 S255 F150
G01 Z1 F300
G01 X40.1 Y15.78 M03 S255 F150
G01 Z1 F300
G01 X40.1 Y60.78 M03 S255 F150
G01 Z1 F300
G01 X32.5 Y60.78 M03 S255 F150
G01 Z1 F300
G01 X32.5 Y60.79 M03 S255 F150
G01 X32.5 Y60.61 M03 S0 F2000
G01 Z1 F300
G01 X32.5 Y60.74 M03 S255 F150
G01 X32.5 Y60.14 M03 S0 F2000
G01 Z1 F300
G01 X32.5 Y60.61 M03 S255 F150
G01 X32.5 Y59.48 M03 S0 F2000
G01 Z1 F300
G01 X32.5 Y60.14 M03 S255 F150
G01 X32.5 Y58.71 M03 S0 F2000
G01 Z1 F300
G01 X32.5 Y59.48 M03 S255 F150
G01 X32.5 Y57.95 M03 S0 F2000
G01 Z1 F300
G01 X32.5 Y58.71 M03 S255 F150
G01 X32.5 Y57.29 M03 S0 F2000
G01 Z1 F300
G01 X32.5 Y57.95 M03 S255 F150
G01 X32.5 Y56.81 M03 S0 F2000
G01 Z1 F300
G01 X32.5 Y57.29 M03 S255 F150
G01 X32.5 Y56.69 M03 S0 F2000
G01 Z1 F300
G01 X32.5 Y56.81 M03 S255 F150
G01 X32.5 Y56.64 M03 S0 F2000
G01 Z1 F300
G01 X32.5 Y56.69 M03 S255 F150
G01 X33.04 Y56.93 M03 S0 F2000
G01 Z1 F300
G01 X32.5 Y56.64 M03 S255 F150
G01 X33.63 Y57.01 M03 S0 F2000
G01 Z1 F300
G01 X33.04 Y56.93 M03 S255 F150
G01 X34.35 Y56.88 M03 S0 F2000
G01 Z1 F300
G01 X33.63 Y57.01 M03 S255 F150
G01 X34.96 Y56.46 M03 S0 F2000
G01 Z1 F300
G01 X34.35 Y56.88 M03 S255 F150
G01 X35.38 Y55.84 M03 S0 F2000
G01 Z1 F300
G01 X34.96 Y56.46 M03 S255 F150
G01 X35.53 Y55.11 M03 S0 F2000
G01 Z1 F300
G01 X35.38 Y55.84 M03 S255 F150
G01 X35.38 Y54.39 M03 S0 F2000
G01 Z1 F300
G01 X35.53 Y55.11 M03 S255 F150
G01 X34.96 Y53.78 M03 S0 F2000
G01 Z1 F300
G01 X35.38 Y54.39 M03 S255 F150
G01 X34.35 Y53.36 M03 S0 F2000
G01 Z1 F300
G01 X34.96 Y53.78 M03 S255 F150
G01 X33.63 Y53.21 M03 S0 F2000
G01 Z1 F300
G01 X34.35 Y53.36 M03 S255 F150
G01 X33.04 Y53.31 M03 S0 F2000
G01 Z1 F300
G01 X33.63 Y53.21 M03 S255 F150
G01 X32.5 Y53.59 M03 S0 F2000
G01 Z1 F300
G01 X33.04 Y53.31 M03 S255 F150
G01 X32.5 Y53.58 M03 S0 F2000
G01 Z1 F300
G01 X32.5 Y48.98 M03 S255 F150
G01 Z1 F300
G01 X7.7 Y48.98 M03 S255 F150
G01 Z1 F300
G01 X7.7 Y48.99 M03 S255 F150
G01 X7.7 Y49.19 M03 S0 F2000
G01 Z1 F300
G01 X7.7 Y49.04 M03 S255 F150
G01 X7.7 Y49.43 M03 S0 F2000
G01 Z1 F300
G01 X7.7 Y49.19 M03 S255 F150
G01 X7.7 Y49.74 M03 S0 F2000
G01 Z1 F300
G01 X7.7 Y49.43 M03 S255 F150
G01 X7.7 Y50.5 M03 S0 F2000
G01 Z1 F300
G01 X7.7 Y49.74 M03 S255 F150
G01 X7.7 Y51.36 M03 S0 F2000
G01 Z1 F300
G01 X7.7 Y50.5 M03 S255 F150
G01 X7.7 Y52.24 M03 S0 F2000
G01 Z1 F300
G01 X7.7 Y51.36 M03 S255 F150
G01 X7.7 Y53 M03 S0 F2000
G01 Z1 F300
G01 X7.7 Y52.24 M03 S255 F150
G01 X7.7 Y53.31 M03 S0 F2000
G01 Z1 F300
G01 X7.7 Y53 M03 S255 F150
G01 X7.7 Y53.55 M03 S0 F2000
G01 Z1 F300
G01 X7.7 Y53.31 M03 S255 F150
G01 X7.7 Y53.7 M03 S0 F2000
G01 Z1 F300
G01 X7.7 Y53.55 M03 S255 F150
G01 X7.7 Y53.75 M03 S0 F2000
G01 Z1 F300
G01 X7.7 Y53.7 M03 S255 F150
G01 X7.1 Y53.35 M03 S0 F2000
G01 Z1 F300
G01 X7.7 Y53.75 M03 S255 F150
G01 X6.39 Y53.21 M03 S0 F2000
G01 Z1 F300
G01 X7.1 Y53.35 M03 S255 F150
G01 X6 Y53.25 M03 S0 F2000
G01 Z1 F300
G01 X6.39 Y53.21 M03 S255 F150
G01 X5.65 Y53.36 M03 S0 F2000
G01 Z1 F300
G01 X6 Y53.25 M03 S255 F150
G01 X5.05 Y53.78 M03 S0 F2000
G01 Z1 F300
G01 X5.65 Y53.36 M03 S255 F150
G01 X4.64 Y54.38 M03 S0 F2000
G01 Z1 F300
G01 X5.05 Y53.78 M03 S255 F150
G01 X4.53 Y54.74 M03 S0 F2000
G01 Z1 F300
G01 X4.64 Y54.38 M03 S255 F150
G01 X4.49 Y55.13 M03 S0 F2000
G01 Z1 F300
G01 X4.53 Y54.74 M03 S255 F150
G01 X4.53 Y55.51 M03 S0 F2000
G01 Z1 F300
G01 X4.49 Y55.13 M03 S255 F150
G01 X4.64 Y55.86 M03 S0 F2000
G01 Z1 F300
G01 X4.53 Y55.51 M03 S255 F150
G01 X5.05 Y56.48 M03 S0 F2000
G01 Z1 F300
G01 X4.64 Y55.86 M03 S255 F150
G01 X5.65 Y56.88 M03 S0 F2000
G01 Z1 F300
G01 X5.05 Y56.48 M03 S255 F150
G01 X6 Y56.99 M03 S0 F2000
G01 Z1 F300
G01 X5.65 Y56.88 M03 S255 F150
G01 X6.39 Y57.03 M03 S0 F2000
G01 Z1 F300
G01 X6 Y56.99 M03 S255 F150
G01 X7.1 Y56.89 M03 S0 F2000
G01 Z1 F300
G01 X6.39 Y57.03 M03 S255 F150
G01 X7.7 Y56.49 M03 S0 F2000
G01 Z1 F300
G01 X7.1 Y56.89 M03 S255 F150
G01 X7.7 Y56.48 M03 S0 F2000
G01 Z1 F300
G01 X7.7 Y60.78 M03 S255 F150
G01 Z1 F300
G01 X0.1 Y60.78 M03 S255 F150
G01 X51.04 Y58.08 M03 S0 F2000
G01 Z1 F300
G01 X51.04 Y55.08 M03 S255 F150
G01 Z1 F300
G01 X46.04 Y55.08 M03 S255 F150
G01 Z1 F300
G01 X46.04 Y15.28 M03 S255 F150
G01 Z1 F300
G01 X85.84 Y15.28 M03 S255 F150
G01 Z1 F300
G01 X85.84 Y55.08 M03 S255 F150
G01 Z1 F300
G01 X80.84 Y55.08 M03 S255 F150
G01 Z1 F300
G01 X80.84 Y58.08 M03 S255 F150
G01 Z1 F300
G01 X51.04 Y58.08 M03 S255 F150
G01 X35.79 Y5.28 M03 S0 F2000
G01 Z1 F300
G01 X35.8 Y5.05 M03 S255 F150
G01 X35.74 Y5.56 M03 S0 F2000
G01 Z1 F300
G01 X35.79 Y5.28 M03 S255 F150
G01 X35.5 Y6.21 M03 S0 F2000
G01 Z1 F300
G01 X35.74 Y5.56 M03 S255 F150
G01 X35.04 Y6.83 M03 S0 F2000
G01 Z1 F300
G01 X35.5 Y6.21 M03 S255 F150
G01 X34.7 Y7.06 M03 S0 F2000
G01 Z1 F300
G01 X35.04 Y6.83 M03 S255 F150
G01 X34.3 Y7.23 M03 S0 F2000
G01 Z1 F300
G01 X34.7 Y7.06 M03 S255 F150
G01 X33.1 Y7.5 M03 S0 F2000
G01 Z1 F300
G01 X34.3 Y7.23 M03 S255 F150
G01 X31.71 Y7.76 M03 S0 F2000
G01 Z1 F300
G01 X33.1 Y7.5 M03 S255 F150
G01 X30.16 Y8.03 M03 S0 F2000
G01 Z1 F300
G01 X31.71 Y7.76 M03 S255 F150
G01 X28.49 Y8.26 M03 S0 F2000
G01 Z1 F300
G01 X30.16 Y8.03 M03 S255 F150
G01 X26.71 Y8.5 M03 S0 F2000
G01 Z1 F300
G01 X28.49 Y8.26 M03 S255 F150
G01 X24.9 Y8.72 M03 S0 F2000
G01 Z1 F300
G01 X26.71 Y8.5 M03 S255 F150
G01 X21.21 Y9.11 M03 S0 F2000
G01 Z1 F300
G01 X24.9 Y8.72 M03 S255 F150
G01 X19.41 Y9.29 M03 S0 F2000
G01 Z1 F300
G01 X21.21 Y9.11 M03 S255 F150
G01 X17.7 Y9.44 M03 S0 F2000
G01 Z1 F300
G01 X19.41 Y9.29 M03 S255 F150
G01 X16.09 Y9.58 M03 S0 F2000
G01 Z1 F300
G01 X17.7 Y9.44 M03 S255 F150
G01 X14.63 Y9.69 M03 S0 F2000
G01 Z1 F300
G01 X16.09 Y9.58 M03 S255 F150
G01 X13.34 Y9.78 M03 S0 F2000
G01 Z1 F300
G01 X14.63 Y9.69 M03 S255 F150
G01 X12.26 Y9.85 M03 S0 F2000
G01 Z1 F300
G01 X13.34 Y9.78 M03 S255 F150
G01 X11.43 Y9.89 M03 S0 F2000
G01 Z1 F300
G01 X12.26 Y9.85 M03 S255 F150
G01 X11.1 Y9.9 M03 S0 F2000
G01 Z1 F300
G01 X11.43 Y9.89 M03 S255 F150
G01 X10.86 Y9.9 M03 S0 F2000
G01 Z1 F300
G01 X11.1 Y9.9 M03 S255 F150
G01 X9.88 Y9.8 M03 S0 F2000
G01 Z1 F300
G01 X10.86 Y9.9 M03 S255 F150
G01 X8.96 Y9.51 M03 S0 F2000
G01 Z1 F300
G01 X9.88 Y9.8 M03 S255 F150
G01 X8.13 Y9.06 M03 S0 F2000
G01 Z1 F300
G01 X8.96 Y9.51 M03 S255 F150
G01 X7.4 Y8.46 M03 S0 F2000
G01 Z1 F300
G01 X8.13 Y9.06 M03 S255 F150
G01 X6.8 Y7.74 M03 S0 F2000
G01 Z1 F300
G01 X7.4 Y8.46 M03 S255 F150
G01 X6.35 Y6.91 M03 S0 F2000
G01 Z1 F300
G01 X6.8 Y7.74 M03 S255 F150
G01 X6.06 Y5.99 M03 S0 F2000
G01 Z1 F300
G01 X6.35 Y6.91 M03 S255 F150
G01 X5.96 Y5 M03 S0 F2000
G01 Z1 F300
G01 X6.06 Y5.99 M03 S255 F150
G01 X6.06 Y4.01 M03 S0 F2000
G01 Z1 F300
G01 X5.96 Y5 M03 S255 F150
G01 X6.35 Y3.1 M03 S0 F2000
G01 Z1 F300
G01 X6.06 Y4.01 M03 S255 F150
G01 X6.8 Y2.26 M03 S0 F2000
G01 Z1 F300
G01 X6.35 Y3.1 M03 S255 F150
G01 X7.4 Y1.54 M03 S0 F2000
G01 Z1 F300
G01 X6.8 Y2.26 M03 S255 F150
G01 X8.13 Y0.94 M03 S0 F2000
G01 Z1 F300
G01 X7.4 Y1.54 M03 S255 F150
G01 X8.96 Y0.49 M03 S0 F2000
G01 Z1 F300
G01 X8.13 Y0.94 M03 S255 F150
G01 X9.88 Y0.2 M03 S0 F2000
G01 Z1 F300
G01 X8.96 Y0.49 M03 S255 F150
G01 X10.86 Y0.1 M03 S0 F2000
G01 Z1 F300
G01 X9.88 Y0.2 M03 S255 F150
G01 X11.11 Y0.1 M03 S0 F2000
G01 Z1 F300
G01 X10.86 Y0.1 M03 S255 F150
G01 X11.44 Y0.11 M03 S0 F2000
G01 Z1 F300
G01 X11.11 Y0.1 M03 S255 F150
G01 X12.29 Y0.16 M03 S0 F2000
G01 Z1 F300
G01 X11.44 Y0.11 M03 S255 F150
G01 X13.38 Y0.23 M03 S0 F2000
G01 Z1 F300
G01 X12.29 Y0.16 M03 S255 F150
G01 X14.66 Y0.31 M03 S0 F2000
G01 Z1 F300
G01 X13.38 Y0.23 M03 S255 F150
G01 X16.13 Y0.44 M03 S0 F2000
G01 Z1 F300
G01 X14.66 Y0.31 M03 S255 F150
G01 X17.74 Y0.58 M03 S0 F2000
G01 Z1 F300
G01 X16.13 Y0.44 M03 S255 F150
G01 X19.45 Y0.73 M03 S0 F2000
G01 Z1 F300
G01 X17.74 Y0.58 M03 S255 F150
G01 X21.24 Y0.9 M03 S0 F2000
G01 Z1 F300
G01 X19.45 Y0.73 M03 S255 F150
G01 X24.9 Y1.3 M03 S0 F2000
G01 Z1 F300
G01 X21.24 Y0.9 M03 S255 F150
G01 X26.73 Y1.53 M03 S0 F2000
G01 Z1 F300
G01 X24.9 Y1.3 M03 S255 F150
G01 X28.48 Y1.75 M03 S0 F2000
G01 Z1 F300
G01 X26.73 Y1.53 M03 S255 F150
G01 X30.14 Y2 M03 S0 F2000
G01 Z1 F300
G01 X28.48 Y1.75 M03 S255 F150
G01 X31.69 Y2.25 M03 S0 F2000
G01 Z1 F300
G01 X30.14 Y2 M03 S255 F150
G01 X33.08 Y2.51 M03 S0 F2000
G01 Z1 F300
G01 X31.69 Y2.25 M03 S255 F150
G01 X34.28 Y2.78 M03 S0 F2000
G01 Z1 F300
G01 X33.08 Y2.51 M03 S255 F150
G01 X34.63 Y2.93 M03 S0 F2000
G01 Z1 F300
G01 X34.28 Y2.78 M03 S255 F150
G01 X34.94 Y3.18 M03 S0 F2000
G01 Z1 F300
G01 X34.63 Y2.93 M03 S255 F150
G01 X35.41 Y3.85 M03 S0 F2000
G01 Z1 F300
G01 X34.94 Y3.18 M03 S255 F150
G01 X35.7 Y4.56 M03 S0 F2000
G01 Z1 F300
G01 X35.41 Y3.85 M03 S255 F150
G01 X35.78 Y4.85 M03 S0 F2000
G01 Z1 F300
G01 X35.7 Y4.56 M03 S255 F150
G01 X35.8 Y5.05 M03 S0 F2000
G01 Z1 F300
G01 X35.78 Y4.85 M03 S255 F150
G01 X35.8 Y5.04 M03 S0 F2000
G01 Z1 F300
G01 X35.8 Y5.04 M03 S255 F150
G01 X12.63 Y4.28 M03 S0 F2000
G01 Z1 F300
G01 X12.76 Y5 M03 S255 F150
G01 X12.21 Y3.65 M03 S0 F2000
G01 Z1 F300
G01 X12.63 Y4.28 M03 S255 F150
G01 X11.59 Y3.25 M03 S0 F2000
G01 Z1 F300
G01 X12.21 Y3.65 M03 S255 F150
G01 X10.86 Y3.1 M03 S0 F2000
G01 Z1 F300
G01 X11.59 Y3.25 M03 S255 F150
G01 X10.14 Y3.25 M03 S0 F2000
G01 Z1 F300
G01 X10.86 Y3.1 M03 S255 F150
G01 X9.53 Y3.65 M03 S0 F2000
G01 Z1 F300
G01 X10.14 Y3.25 M03 S255 F150
G01 X9.11 Y4.28 M03 S0 F2000
G01 Z1 F300
G01 X9.53 Y3.65 M03 S255 F150
G01 X8.96 Y5 M03 S0 F2000
G01 Z1 F300
G01 X9.11 Y4.28 M03 S255 F150
G01 X9 Y5.39 M03 S0 F2000
G01 Z1 F300
G01 X8.96 Y5 M03 S255 F150
G01 X9.11 Y5.74 M03 S0 F2000
G01 Z1 F300
G01 X9 Y5.39 M03 S255 F150
G01 X9.53 Y6.35 M03 S0 F2000
G01 Z1 F300
G01 X9.11 Y5.74 M03 S255 F150
G01 X10.13 Y6.75 M03 S0 F2000
G01 Z1 F300
G01 X9.53 Y6.35 M03 S255 F150
G01 X10.48 Y6.86 M03 S0 F2000
G01 Z1 F300
G01 X10.13 Y6.75 M03 S255 F150
G01 X10.86 Y6.9 M03 S0 F2000
G01 Z1 F300
G01 X10.48 Y6.86 M03 S255 F150
G01 X11.59 Y6.75 M03 S0 F2000
G01 Z1 F300
G01 X10.86 Y6.9 M03 S255 F150
G01 X12.21 Y6.34 M03 S0 F2000
G01 Z1 F300
G01 X11.59 Y6.75 M03 S255 F150
G01 X12.63 Y5.73 M03 S0 F2000
G01 Z1 F300
G01 X12.21 Y6.34 M03 S255 F150
G01 X12.76 Y5 M03 S0 F2000
G01 Z1 F300
G01 X12.63 Y5.73 M03 S255 F150
G01 X12.76 Y4.99 M03 S0 F2000
G01 Z1 F300
G01 X12.76 Y4.99 M03 S255 F150
G00 M03 S0
M05
G01 X0.1 Y60.78 M03 S0 F2000
M03 S0
G01 Z1.5 F300
G01 X0.1 Y15.78 M03 S255 F150
G01 Z1.5 F300
G01 X5.2 Y15.78 M03 S255 F150
G01 Z1.5 F300
G01 X5.2 Y18.58 M03 S255 F150
G01 Z1.5 F300
G01 X35 Y18.58 M03 S255 F150
G01 Z1.5 F300
G01 X35 Y15.78 M03 S255 F150
G01 Z1.5 F300
G01 X40.1 Y15.78 M03 S255 F150
G01 Z1.5 F300
G01 X40.1 Y60.78 M03 S255 F150
G01 Z1.5 F300
G01 X32.5 Y60.78 M03 S255 F150
G01 Z1.5 F300
G01 X32.5 Y60.79 M03 S255 F150
G01 X32.5 Y60.61 M03 S0 F2000
G01 Z1.5 F300
G01 X32.5 Y60.74 M03 S255 F150
G01 X32.5 Y60.14 M03 S0 F2000
G01 Z1.5 F300
G01 X32.5 Y60.61 M03 S255 F150
G01 X32.5 Y59.48 M03 S0 F2000
G01 Z1.5 F300
G01 X32.5 Y60.14 M03 S255 F150
G01 X32.5 Y58.71 M03 S0 F2000
G01 Z1.5 F300
G01 X32.5 Y59.48 M03 S255 F150
G01 X32.5 Y57.95 M03 S0 F2000
G01 Z1.5 F300
G01 X32.5 Y58.71 M03 S255 F150
G01 X32.5 Y57.29 M03 S0 F2000
G01 Z1.5 F300
G01 X32.5 Y57.95 M03 S255 F150
G01 X32.5 Y56.81 M03 S0 F2000
G01 Z1.5 F300
G01 X32.5 Y57.29 M03 S255 F150
G01 X32.5 Y56.69 M03 S0 F2000
G01 Z1.5 F300
G01 X32.5 Y56.81 M03 S255 F150
G01 X32.5 Y56.64 M03 S0 F2000
G01 Z1.5 F300
G01 X32.5 Y56.69 M03 S255 F150
G01 X33.04 Y56.93 M03 S0 F2000
G01 Z1.5 F300
G01 X32.5 Y56.64 M03 S255 F150
G01 X33.63 Y57.01 M03 S0 F2000
G01 Z1.5 F300
G01 X33.04 Y56.93 M03 S255 F150
G01 X34.35 Y56.88 M03 S0 F2000
G01 Z1.5 F300
G01 X33.63 Y57.01 M03 S255 F150
G01 X34.96 Y56.46 M03 S0 F2000
G01 Z1.5 F300
G01 X34.35 Y56.88 M03 S255 F150
G01 X35.38 Y55.84 M03 S0 F2000
G01 Z1.5 F300
G01 X34.96 Y56.46 M03 S255 F150
G01 X35.53 Y55.11 M03 S0 F2000
G01 Z1.5 F300
G01 X35.38 Y55.84 M03 S255 F150
G01 X35.38 Y54.39 M03 S0 F2000
G01 Z1.5 F300
G01 X35.53 Y55.11 M03 S255 F150
G01 X34.96 Y53.78 M03 S0 F2000
G01 Z1.5 F300
G01 X35.38 Y54.39 M03 S255 F150
G01 X34.35 Y53.36 M03 S0 F2000
G01 Z1.5 F300
G01 X34.96 Y53.78 M03 S255 F150
G01 X33.63 Y53.21 M03 S0 F2000
G01 Z1.5 F300
G01 X34.35 Y53.36 M03 S255 F150
G01 X33.04 Y53.31 M03 S0 F2000
G01 Z1.5 F300
G01 X33.63 Y53.21 M03 S255 F150
G01 X32.5 Y53.59 M03 S0 F2000
G01 Z1.5 F300
G01 X33.04 Y53.31 M03 S255 F150
G01 X32.5 Y53.58 M03 S0 F2000
G01 Z1.5 F300
G01 X32.5 Y48.98 M03 S255 F150
G01 Z1.5 F300
G01 X7.7 Y48.98 M03 S255 F150
G01 Z1.5 F300
G01 X7.7 Y48.99 M03 S255 F150
G01 X7.7 Y49.19 M03 S0 F2000
G01 Z1.5 F300
G01 X7.7 Y49.04 M03 S255 F150
G01 X7.7 Y49.43 M03 S0 F2000
G01 Z1.5 F300
G01 X7.7 Y49.19 M03 S255 F150
G01 X7.7 Y49.74 M03 S0 F2000
G01 Z1.5 F300
G01 X7.7 Y49.43 M03 S255 F150
G01 X7.7 Y50.5 M03 S0 F2000
G01 Z1.5 F300
G01 X7.7 Y49.74 M03 S255 F150
G01 X7.7 Y51.36 M03 S0 F2000
G01 Z1.5 F300
G01 X7.7 Y50.5 M03 S255 F150
G01 X7.7 Y52.24 M03 S0 F2000
G01 Z1.5 F300
G01 X7.7 Y51.36 M03 S255 F150
G01 X7.7 Y53 M03 S0 F2000
G01 Z1.5 F300
G01 X7.7 Y52.24 M03 S255 F150
G01 X7.7 Y53.31 M03 S0 F2000
G01 Z1.5 F300
G01 X7.7 Y53 M03 S255 F150
G01 X7.7 Y53.55 M03 S0 F2000
G01 Z1.5 F300
G01 X7.7 Y53.31 M03 S255 F150
G01 X7.7 Y53.7 M03 S0 F2000
G01 Z1.5 F300
G01 X7.7 Y53.55 M03 S255 F150
G01 X7.7 Y53.75 M03 S0 F2000
G01 Z1.5 F300
G01 X7.7 Y53.7 M03 S255 F150
G01 X7.1 Y53.35 M03 S0 F2000
G01 Z1.5 F300
G01 X7.7 Y53.75 M03 S255 F150
G01 X6.39 Y53.21 M03 S0 F2000
G01 Z1.5 F300
G01 X7.1 Y53.35 M03 S255 F150
G01 X6 Y53.25 M03 S0 F2000
G01 Z1.5 F300
G01 X6.39 Y53.21 M03 S255 F150
G01 X5.65 Y53.36 M03 S0 F2000
G01 Z1.5 F300
G01 X6 Y53.25 M03 S255 F150
G01 X5.05 Y53.78 M03 S0 F2000
G01 Z1.5 F300
G01 X5.65 Y53.36 M03 S255 F150
G01 X4.64 Y54.38 M03 S0 F2000
G01 Z1.5 F300
G01 X5.05 Y53.78 M03 S255 F150
G01 X4.53 Y54.74 M03 S0 F2000
G01 Z1.5 F300
G01 X4.64 Y54.38 M03 S255 F150
G01 X4.49 Y55.13 M03 S0 F2000
G01 Z1.5 F300
G01 X4.53 Y54.74 M03 S255 F150
G01 X4.53 Y55.51 M03 S0 F2000
G01 Z1.5 F300
G01 X4.49 Y55.13 M03 S255 F150
G01 X4.64 Y55.86 M03 S0 F2000
G01 Z1.5 F300
G01 X4.53 Y55.51 M03 S255 F150
G01 X5.05 Y56.48 M03 S0 F2000
G01 Z1.5 F300
G01 X4.64 Y55.86 M03 S255 F150
G01 X5.65 Y56.88 M03 S0 F2000
G01 Z1.5 F300
G01 X5.05 Y56.48 M03 S255 F150
G01 X6 Y56.99 M03 S0 F2000
G01 Z1.5 F300
G01 X5.65 Y56.88 M03 S255 F150
G01 X6.39 Y57.03 M03 S0 F2000
G01 Z1.5 F300
G01 X6 Y56.99 M03 S255 F150
G01 X7.1 Y56.89 M03 S0 F2000
G01 Z1.5 F300
G01 X6.39 Y57.03 M03 S255 F150
G01 X7.7 Y56.49 M03 S0 F2000
G01 Z1.5 F300
G01 X7.1 Y56.89 M03 S255 F150
G01 X7.7 Y56.48 M03 S0 F2000
G01 Z1.5 F300
G01 X7.7 Y60.78 M03 S255 F150
G01 Z1.5 F300
G01 X0.1 Y60.78 M03 S255 F150
G01 X51.04 Y58.08 M03 S0 F2000
G01 Z1.5 F300
G01 X51.04 Y55.08 M03 S255 F150
G01 Z1.5 F300
G01 X46.04 Y55.08 M03 S255 F150
G01 Z1.5 F300
G01 X46.04 Y15.28 M03 S255 F150
G01 Z1.5 F300
G01 X85.84 Y15.28 M03 S255 F150
G01 Z1.5 F300
G01 X85.84 Y55.08 M03 S255 F150
G01 Z1.5 F300
G01 X80.84 Y55.08 M03 S255 F150
G01 Z1.5 F300
G01 X80.84 Y58.08 M03 S255 F150
G01 Z1.5 F300
G01 X51.04 Y58.08 M03 S255 F150
G01 X35.79 Y5.28 M03 S0 F2000
G01 Z1.5 F300
G01 X35.8 Y5.05 M03 S255 F150
G01 X35.74 Y5.56 M03 S0 F2000
G01 Z1.5 F300
G01 X35.79 Y5.28 M03 S255 F150
G01 X35.5 Y6.21 M03 S0 F2000
G01 Z1.5 F300
G01 X35.74 Y5.56 M03 S255 F150
G01 X35.04 Y6.83 M03 S0 F2000
G01 Z1.5 F300
G01 X35.5 Y6.21 M03 S255 F150
G01 X34.7 Y7.06 M03 S0 F2000
G01 Z1.5 F300
G01 X35.04 Y6.83 M03 S255 F150
G01 X34.3 Y7.23 M03 S0 F2000
G01 Z1.5 F300
G01 X34.7 Y7.06 M03 S255 F150
G01 X33.1 Y7.5 M03 S0 F2000
G01 Z1.5 F300
G01 X34.3 Y7.23 M03 S255 F150
G01 X31.71 Y7.76 M03 S0 F2000
G01 Z1.5 F300
G01 X33.1 Y7.5 M03 S255 F150
G01 X30.16 Y8.03 M03 S0 F2000
G01 Z1.5 F300
G01 X31.71 Y7.76 M03 S255 F150
G01 X28.49 Y8.26 M03 S0 F2000
G01 Z1.5 F300
G01 X30.16 Y8.03 M03 S255 F150
G01 X26.71 Y8.5 M03 S0 F2000
G01 Z1.5 F300
G01 X28.49 Y8.26 M03 S255 F150
G01 X24.9 Y8.72 M03 S0 F2000
G01 Z1.5 F300
G01 X26.71 Y8.5 M03 S255 F150
G01 X21.21 Y9.11 M03 S0 F2000
G01 Z1.5 F300
G01 X24.9 Y8.72 M03 S255 F150
G01 X19.41 Y9.29 M03 S0 F2000
G01 Z1.5 F300
G01 X21.21 Y9.11 M03 S255 F150
G01 X17.7 Y9.44 M03 S0 F2000
G01 Z1.5 F300
G01 X19.41 Y9.29 M03 S255 F150
G01 X16.09 Y9.58 M03 S0 F2000
G01 Z1.5 F300
G01 X17.7 Y9.44 M03 S255 F150
G01 X14.63 Y9.69 M03 S0 F2000
G01 Z1.5 F300
G01 X16.09 Y9.58 M03 S255 F150
G01 X13.34 Y9.78 M03 S0 F2000
G01 Z1.5 F300
G01 X14.63 Y9.69 M03 S255 F150
G01 X12.26 Y9.85 M03 S0 F2000
G01 Z1.5 F300
G01 X13.34 Y9.78 M03 S255 F150
G01 X11.43 Y9.89 M03 S0 F2000
G01 Z1.5 F300
G01 X12.26 Y9.85 M03 S255 F150
G01 X11.1 Y9.9 M03 S0 F2000
G01 Z1.5 F300
G01 X11.43 Y9.89 M03 S255 F150
G01 X10.86 Y9.9 M03 S0 F2000
G01 Z1.5 F300
G01 X11.1 Y9.9 M03 S255 F150
G01 X9.88 Y9.8 M03 S0 F2000
G01 Z1.5 F300
G01 X10.86 Y9.9 M03 S255 F150
G01 X8.96 Y9.51 M03 S0 F2000
G01 Z1.5 F300
G01 X9.88 Y9.8 M03 S255 F150
G01 X8.13 Y9.06 M03 S0 F2000
G01 Z1.5 F300
G01 X8.96 Y9.51 M03 S255 F150
G01 X7.4 Y8.46 M03 S0 F2000
G01 Z1.5 F300
G01 X8.13 Y9.06 M03 S255 F150
G01 X6.8 Y7.74 M03 S0 F2000
G01 Z1.5 F300
G01 X7.4 Y8.46 M03 S255 F150
G01 X6.35 Y6.91 M03 S0 F2000
G01 Z1.5 F300
G01 X6.8 Y7.74 M03 S255 F150
G01 X6.06 Y5.99 M03 S0 F2000
G01 Z1.5 F300
G01 X6.35 Y6.91 M03 S255 F150
G01 X5.96 Y5 M03 S0 F2000
G01 Z1.5 F300
G01 X6.06 Y5.99 M03 S255 F150
G01 X6.06 Y4.01 M03 S0 F2000
G01 Z1.5 F300
G01 X5.96 Y5 M03 S255 F150
G01 X6.35 Y3.1 M03 S0 F2000
G01 Z1.5 F300
G01 X6.06 Y4.01 M03 S255 F150
G01 X6.8 Y2.26 M03 S0 F2000
G01 Z1.5 F300
G01 X6.35 Y3.1 M03 S255 F150
G01 X7.4 Y1.54 M03 S0 F2000
G01 Z1.5 F300
G01 X6.8 Y2.26 M03 S255 F150
G01 X8.13 Y0.94 M03 S0 F2000
G01 Z1.5 F300
G01 X7.4 Y1.54 M03 S255 F150
G01 X8.96 Y0.49 M03 S0 F2000
G01 Z1.5 F300
G01 X8.13 Y0.94 M03 S255 F150
G01 X9.88 Y0.2 M03 S0 F2000
G01 Z1.5 F300
G01 X8.96 Y0.49 M03 S255 F150
G01 X10.86 Y0.1 M03 S0 F2000
G01 Z1.5 F300
G01 X9.88 Y0.2 M03 S255 F150
G01 X11.11 Y0.1 M03 S0 F2000
G01 Z1.5 F300
G01 X10.86 Y0.1 M03 S255 F150
G01 X11.44 Y0.11 M03 S0 F2000
G01 Z1.5 F300
G01 X11.11 Y0.1 M03 S255 F150
G01 X12.29 Y0.16 M03 S0 F2000
G01 Z1.5 F300
G01 X11.44 Y0.11 M03 S255 F150
G01 X13.38 Y0.23 M03 S0 F2000
G01 Z1.5 F300
G01 X12.29 Y0.16 M03 S255 F150
G01 X14.66 Y0.31 M03 S0 F2000
G01 Z1.5 F300
G01 X13.38 Y0.23 M03 S255 F150
G01 X16.13 Y0.44 M03 S0 F2000
G01 Z1.5 F300
G01 X14.66 Y0.31 M03 S255 F150
G01 X17.74 Y0.58 M03 S0 F2000
G01 Z1.5 F300
G01 X16.13 Y0.44 M03 S255 F150
G01 X19.45 Y0.73 M03 S0 F2000
G01 Z1.5 F300
G01 X17.74 Y0.58 M03 S255 F150
G01 X21.24 Y0.9 M03 S0 F2000
G01 Z1.5 F300
G01 X19.45 Y0.73 M03 S255 F150
G01 X24.9 Y1.3 M03 S0 F2000
G01 Z1.5 F300
G01 X21.24 Y0.9 M03 S255 F150
G01 X26.73 Y1.53 M03 S0 F2000
G01 Z1.5 F300
G01 X24.9 Y1.3 M03 S255 F150
G01 X28.48 Y1.75 M03 S0 F2000
G01 Z1.5 F300
G01 X26.73 Y1.53 M03 S255 F150
G01 X30.14 Y2 M03 S0 F2000
G01 Z1.5 F300
G01 X28.48 Y1.75 M03 S255 F150
G01 X31.69 Y2.25 M03 S0 F2000
G01 Z1.5 F300
G01 X30.14 Y2 M03 S255 F150
G01 X33.08 Y2.51 M03 S0 F2000
G01 Z1.5 F300
G01 X31.69 Y2.25 M03 S255 F150
G01 X34.28 Y2.78 M03 S0 F2000
G01 Z1.5 F300
G01 X33.08 Y2.51 M03 S255 F150
G01 X34.63 Y2.93 M03 S0 F2000
G01 Z1.5 F300
G01 X34.28 Y2.78 M03 S255 F150
G01 X34.94 Y3.18 M03 S0 F2000
G01 Z1.5 F300
G01 X34.63 Y2.93 M03 S255 F150
G01 X35.41 Y3.85 M03 S0 F2000
G01 Z1.5 F300
G01 X34.94 Y3.18 M03 S255 F150
G01 X35.7 Y4.56 M03 S0 F2000
G01 Z1.5 F300
G01 X35.41 Y3.85 M03 S255 F150
G01 X35.78 Y4.85 M03 S0 F2000
G01 Z1.5 F300
G01 X35.7 Y4.56 M03 S255 F150
G01 X35.8 Y5.05 M03 S0 F2000
G01 Z1.5 F300
G01 X35.78 Y4.85 M03 S255 F150
G01 X35.8 Y5.04 M03 S0 F2000
G01 Z1.5 F300
G01 X35.8 Y5.04 M03 S255 F150
G01 X12.63 Y4.28 M03 S0 F2000
G01 Z1.5 F300
G01 X12.76 Y5 M03 S255 F150
G01 X12.21 Y3.65 M03 S0 F2000
G01 Z1.5 F300
G01 X12.63 Y4.28 M03 S255 F150
G01 X11.59 Y3.25 M03 S0 F2000
G01 Z1.5 F300
G01 X12.21 Y3.65 M03 S255 F150
G01 X10.86 Y3.1 M03 S0 F2000
G01 Z1.5 F300
G01 X11.59 Y3.25 M03 S255 F150
G01 X10.14 Y3.25 M03 S0 F2000
G01 Z1.5 F300
G01 X10.86 Y3.1 M03 S255 F150
G01 X9.53 Y3.65 M03 S0 F2000
G01 Z1.5 F300
G01 X10.14 Y3.25 M03 S255 F150
G01 X9.11 Y4.28 M03 S0 F2000
G01 Z1.5 F300
G01 X9.53 Y3.65 M03 S255 F150
G01 X8.96 Y5 M03 S0 F2000
G01 Z1.5 F300
G01 X9.11 Y4.28 M03 S255 F150
G01 X9 Y5.39 M03 S0 F2000
G01 Z1.5 F300
G01 X8.96 Y5 M03 S255 F150
G01 X9.11 Y5.74 M03 S0 F2000
G01 Z1.5 F300
G01 X9 Y5.39 M03 S255 F150
G01 X9.53 Y6.35 M03 S0 F2000
G01 Z1.5 F300
G01 X9.11 Y5.74 M03 S255 F150
G01 X10.13 Y6.75 M03 S0 F2000
G01 Z1.5 F300
G01 X9.53 Y6.35 M03 S255 F150
G01 X10.48 Y6.86 M03 S0 F2000
G01 Z1.5 F300
G01 X10.13 Y6.75 M03 S255 F150
G01 X10.86 Y6.9 M03 S0 F2000
G01 Z1.5 F300
G01 X10.48 Y6.86 M03 S255 F150
G01 X11.59 Y6.75 M03 S0 F2000
G01 Z1.5 F300
G01 X10.86 Y6.9 M03 S255 F150
G01 X12.21 Y6.34 M03 S0 F2000
G01 Z1.5 F300
G01 X11.59 Y6.75 M03 S255 F150
G01 X12.63 Y5.73 M03 S0 F2000
G01 Z1.5 F300
G01 X12.21 Y6.34 M03 S255 F150
G01 X12.76 Y5 M03 S0 F2000
G01 Z1.5 F300
G01 X12.63 Y5.73 M03 S255 F150
G01 X12.76 Y4.99 M03 S0 F2000
G01 Z1.5 F300
G01 X12.76 Y4.99 M03 S255 F150
G00 M03 S0
M05
G01 X0.1 Y60.78 M03 S0 F2000
M03 S0
G01 Z2 F300
G01 X0.1 Y15.78 M03 S255 F150
G01 Z2 F300
G01 X5.2 Y15.78 M03 S255 F150
G01 Z2 F300
G01 X5.2 Y18.58 M03 S255 F150
G01 Z2 F300
G01 X35 Y18.58 M03 S255 F150
G01 Z2 F300
G01 X35 Y15.78 M03 S255 F150
G01 Z2 F300
G01 X40.1 Y15.78 M03 S255 F150
G01 Z2 F300
G01 X40.1 Y60.78 M03 S255 F150
G01 Z2 F300
G01 X32.5 Y60.78 M03 S255 F150
G01 Z2 F300
G01 X32.5 Y60.79 M03 S255 F150
G01 X32.5 Y60.61 M03 S0 F2000
G01 Z2 F300
G01 X32.5 Y60.74 M03 S255 F150
G01 X32.5 Y60.14 M03 S0 F2000
G01 Z2 F300
G01 X32.5 Y60.61 M03 S255 F150
G01 X32.5 Y59.48 M03 S0 F2000
G01 Z2 F300
G01 X32.5 Y60.14 M03 S255 F150
G01 X32.5 Y58.71 M03 S0 F2000
G01 Z2 F300
G01 X32.5 Y59.48 M03 S255 F150
G01 X32.5 Y57.95 M03 S0 F2000
G01 Z2 F300
G01 X32.5 Y58.71 M03 S255 F150
G01 X32.5 Y57.29 M03 S0 F2000
G01 Z2 F300
G01 X32.5 Y57.95 M03 S255 F150
G01 X32.5 Y56.81 M03 S0 F2000
G01 Z2 F300
G01 X32.5 Y57.29 M03 S255 F150
G01 X32.5 Y56.69 M03 S0 F2000
G01 Z2 F300
G01 X32.5 Y56.81 M03 S255 F150
G01 X32.5 Y56.64 M03 S0 F2000
G01 Z2 F300
G01 X32.5 Y56.69 M03 S255 F150
G01 X33.04 Y56.93 M03 S0 F2000
G01 Z2 F300
G01 X32.5 Y56.64 M03 S255 F150
G01 X33.63 Y57.01 M03 S0 F2000
G01 Z2 F300
G01 X33.04 Y56.93 M03 S255 F150
G01 X34.35 Y56.88 M03 S0 F2000
G01 Z2 F300
G01 X33.63 Y57.01 M03 S255 F150
G01 X34.96 Y56.46 M03 S0 F2000
G01 Z2 F300
G01 X34.35 Y56.88 M03 S255 F150
G01 X35.38 Y55.84 M03 S0 F2000
G01 Z2 F300
G01 X34.96 Y56.46 M03 S255 F150
G01 X35.53 Y55.11 M03 S0 F2000
G01 Z2 F300
G01 X35.38 Y55.84 M03 S255 F150
G01 X35.38 Y54.39 M03 S0 F2000
G01 Z2 F300
G01 X35.53 Y55.11 M03 S255 F150
G01 X34.96 Y53.78 M03 S0 F2000
G01 Z2 F300
G01 X35.38 Y54.39 M03 S255 F150
G01 X34.35 Y53.36 M03 S0 F2000
G01 Z2 F300
G01 X34.96 Y53.78 M03 S255 F150
G01 X33.63 Y53.21 M03 S0 F2000
G01 Z2 F300
G01 X34.35 Y53.36 M03 S255 F150
G01 X33.04 Y53.31 M03 S0 F2000
G01 Z2 F300
G01 X33.63 Y53.21 M03 S255 F150
G01 X32.5 Y53.59 M03 S0 F2000
G01 Z2 F300
G01 X33.04 Y53.31 M03 S255 F150
G01 X32.5 Y53.58 M03 S0 F2000
G01 Z2 F300
G01 X32.5 Y48.98 M03 S255 F150
G01 Z2 F300
G01 X7.7 Y48.98 M03 S255 F150
G01 Z2 F300
G01 X7.7 Y48.99 M03 S255 F150
G01 X7.7 Y49.19 M03 S0 F2000
G01 Z2 F300
G01 X7.7 Y49.04 M03 S255 F150
G01 X7.7 Y49.43 M03 S0 F2000
G01 Z2 F300
G01 X7.7 Y49.19 M03 S255 F150
G01 X7.7 Y49.74 M03 S0 F2000
G01 Z2 F300
G01 X7.7 Y49.43 M03 S255 F150
G01 X7.7 Y50.5 M03 S0 F2000
G01 Z2 F300
G01 X7.7 Y49.74 M03 S255 F150
G01 X7.7 Y51.36 M03 S0 F2000
G01 Z2 F300
G01 X7.7 Y50.5 M03 S255 F150
G01 X7.7 Y52.24 M03 S0 F2000
G01 Z2 F300
G01 X7.7 Y51.36 M03 S255 F150
G01 X7.7 Y53 M03 S0 F2000
G01 Z2 F300
G01 X7.7 Y52.24 M03 S255 F150
G01 X7.7 Y53.31 M03 S0 F2000
G01 Z2 F300
G01 X7.7 Y53 M03 S255 F150
G01 X7.7 Y53.55 M03 S0 F2000
G01 Z2 F300
G01 X7.7 Y53.31 M03 S255 F150
G01 X7.7 Y53.7 M03 S0 F2000
G01 Z2 F300
G01 X7.7 Y53.55 M03 S255 F150
G01 X7.7 Y53.75 M03 S0 F2000
G01 Z2 F300
G01 X7.7 Y53.7 M03 S255 F150
G01 X7.1 Y53.35 M03 S0 F2000
G01 Z2 F300
G01 X7.7 Y53.75 M03 S255 F150
G01 X6.39 Y53.21 M03 S0 F2000
G01 Z2 F300
G01 X7.1 Y53.35 M03 S255 F150
G01 X6 Y53.25 M03 S0 F2000
G01 Z2 F300
G01 X6.39 Y53.21 M03 S255 F150
G01 X5.65 Y53.36 M03 S0 F2000
G01 Z2 F300
G01 X6 Y53.25 M03 S255 F150
G01 X5.05 Y53.78 M03 S0 F2000
G01 Z2 F300
G01 X5.65 Y53.36 M03 S255 F150
G01 X4.64 Y54.38 M03 S0 F2000
G01 Z2 F300
G01 X5.05 Y53.78 M03 S255 F150
G01 X4.53 Y54.74 M03 S0 F2000
G01 Z2 F300
G01 X4.64 Y54.38 M03 S255 F150
G01 X4.49 Y55.13 M03 S0 F2000
G01 Z2 F300
G01 X4.53 Y54.74 M03 S255 F150
G01 X4.53 Y55.51 M03 S0 F2000
G01 Z2 F300
G01 X4.49 Y55.13 M03 S255 F150
G01 X4.64 Y55.86 M03 S0 F2000
G01 Z2 F300
G01 X4.53 Y55.51 M03 S255 F150
G01 X5.05 Y56.48 M03 S0 F2000
G01 Z2 F300
G01 X4.64 Y55.86 M03 S255 F150
G01 X5.65 Y56.88 M03 S0 F2000
G01 Z2 F300
G01 X5.05 Y56.48 M03 S255 F150
G01 X6 Y56.99 M03 S0 F2000
G01 Z2 F300
G01 X5.65 Y56.88 M03 S255 F150
G01 X6.39 Y57.03 M03 S0 F2000
G01 Z2 F300
G01 X6 Y56.99 M03 S255 F150
G01 X7.1 Y56.89 M03 S0 F2000
G01 Z2 F300
G01 X6.39 Y57.03 M03 S255 F150
G01 X7.7 Y56.49 M03 S0 F2000
G01 Z2 F300
G01 X7.1 Y56.89 M03 S255 F150
G01 X7.7 Y56.48 M03 S0 F2000
G01 Z2 F300
G01 X7.7 Y60.78 M03 S255 F150
G01 Z2 F300
G01 X0.1 Y60.78 M03 S255 F150
G01 X51.04 Y58.08 M03 S0 F2000
G01 Z2 F300
G01 X51.04 Y55.08 M03 S255 F150
G01 Z2 F300
G01 X46.04 Y55.08 M03 S255 F150
G01 Z2 F300
G01 X46.04 Y15.28 M03 S255 F150
G01 Z2 F300
G01 X85.84 Y15.28 M03 S255 F150
G01 Z2 F300
G01 X85.84 Y55.08 M03 S255 F150
G01 Z2 F300
G01 X80.84 Y55.08 M03 S255 F150
G01 Z2 F300
G01 X80.84 Y58.08 M03 S255 F150
G01 Z2 F300
G01 X51.04 Y58.08 M03 S255 F150
G01 X35.79 Y5.28 M03 S0 F2000
G01 Z2 F300
G01 X35.8 Y5.05 M03 S255 F150
G01 X35.74 Y5.56 M03 S0 F2000
G01 Z2 F300
G01 X35.79 Y5.28 M03 S255 F150
G01 X35.5 Y6.21 M03 S0 F2000
G01 Z2 F300
G01 X35.74 Y5.56 M03 S255 F150
G01 X35.04 Y6.83 M03 S0 F2000
G01 Z2 F300
G01 X35.5 Y6.21 M03 S255 F150
G01 X34.7 Y7.06 M03 S0 F2000
G01 Z2 F300
G01 X35.04 Y6.83 M03 S255 F150
G01 X34.3 Y7.23 M03 S0 F2000
G01 Z2 F300
G01 X34.7 Y7.06 M03 S255 F150
G01 X33.1 Y7.5 M03 S0 F2000
G01 Z2 F300
G01 X34.3 Y7.23 M03 S255 F150
G01 X31.71 Y7.76 M03 S0 F2000
G01 Z2 F300
G01 X33.1 Y7.5 M03 S255 F150
G01 X30.16 Y8.03 M03 S0 F2000
G01 Z2 F300
G01 X31.71 Y7.76 M03 S255 F150
G01 X28.49 Y8.26 M03 S0 F2000
G01 Z2 F300
G01 X30.16 Y8.03 M03 S255 F150
G01 X26.71 Y8.5 M03 S0 F2000
G01 Z2 F300
G01 X28.49 Y8.26 M03 S255 F150
G01 X24.9 Y8.72 M03 S0 F2000
G01 Z2 F300
G01 X26.71 Y8.5 M03 S255 F150
G01 X21.21 Y9.11 M03 S0 F2000
G01 Z2 F300
G01 X24.9 Y8.72 M03 S255 F150
G01 X19.41 Y9.29 M03 S0 F2000
G01 Z2 F300
G01 X21.21 Y9.11 M03 S255 F150
G01 X17.7 Y9.44 M03 S0 F2000
G01 Z2 F300
G01 X19.41 Y9.29 M03 S255 F150
G01 X16.09 Y9.58 M03 S0 F2000
G01 Z2 F300
G01 X17.7 Y9.44 M03 S255 F150
G01 X14.63 Y9.69 M03 S0 F2000
G01 Z2 F300
G01 X16.09 Y9.58 M03 S255 F150
G01 X13.34 Y9.78 M03 S0 F2000
G01 Z2 F300
G01 X14.63 Y9.69 M03 S255 F150
G01 X12.26 Y9.85 M03 S0 F2000
G01 Z2 F300
G01 X13.34 Y9.78 M03 S255 F150
G01 X11.43 Y9.89 M03 S0 F2000
G01 Z2 F300
G01 X12.26 Y9.85 M03 S255 F150
G01 X11.1 Y9.9 M03 S0 F2000
G01 Z2 F300
G01 X11.43 Y9.89 M03 S255 F150
G01 X10.86 Y9.9 M03 S0 F2000
G01 Z2 F300
G01 X11.1 Y9.9 M03 S255 F150
G01 X9.88 Y9.8 M03 S0 F2000
G01 Z2 F300
G01 X10.86 Y9.9 M03 S255 F150
G01 X8.96 Y9.51 M03 S0 F2000
G01 Z2 F300
G01 X9.88 Y9.8 M03 S255 F150
G01 X8.13 Y9.06 M03 S0 F2000
G01 Z2 F300
G01 X8.96 Y9.51 M03 S255 F150
G01 X7.4 Y8.46 M03 S0 F2000
G01 Z2 F300
G01 X8.13 Y9.06 M03 S255 F150
G01 X6.8 Y7.74 M03 S0 F2000
G01 Z2 F300
G01 X7.4 Y8.46 M03 S255 F150
G01 X6.35 Y6.91 M03 S0 F2000
G01 Z2 F300
G01 X6.8 Y7.74 M03 S255 F150
G01 X6.06 Y5.99 M03 S0 F2000
G01 Z2 F300
G01 X6.35 Y6.91 M03 S255 F150
G01 X5.96 Y5 M03 S0 F2000
G01 Z2 F300
G01 X6.06 Y5.99 M03 S255 F150
G01 X6.06 Y4.01 M03 S0 F2000
G01 Z2 F300
G01 X5.96 Y5 M03 S255 F150
G01 X6.35 Y3.1 M03 S0 F2000
G01 Z2 F300
G01 X6.06 Y4.01 M03 S255 F150
G01 X6.8 Y2.26 M03 S0 F2000
G01 Z2 F300
G01 X6.35 Y3.1 M03 S255 F150
G01 X7.4 Y1.54 M03 S0 F2000
G01 Z2 F300
G01 X6.8 Y2.26 M03 S255 F150
G01 X8.13 Y0.94 M03 S0 F2000
G01 Z2 F300
G01 X7.4 Y1.54 M03 S255 F150
G01 X8.96 Y0.49 M03 S0 F2000
G01 Z2 F300
G01 X8.13 Y0.94 M03 S255 F150
G01 X9.88 Y0.2 M03 S0 F2000
G01 Z2 F300
G01 X8.96 Y0.49 M03 S255 F150
G01 X10.86 Y0.1 M03 S0 F2000
G01 Z2 F300
G01 X9.88 Y0.2 M03 S255 F150
G01 X11.11 Y0.1 M03 S0 F2000
G01 Z2 F300
G01 X10.86 Y0.1 M03 S255 F150
G01 X11.44 Y0.11 M03 S0 F2000
G01 Z2 F300
G01 X11.11 Y0.1 M03 S255 F150
G01 X12.29 Y0.16 M03 S0 F2000
G01 Z2 F300
G01 X11.44 Y0.11 M03 S255 F150
G01 X13.38 Y0.23 M03 S0 F2000
G01 Z2 F300
G01 X12.29 Y0.16 M03 S255 F150
G01 X14.66 Y0.31 M03 S0 F2000
G01 Z2 F300
G01 X13.38 Y0.23 M03 S255 F150
G01 X16.13 Y0.44 M03 S0 F2000
G01 Z2 F300
G01 X14.66 Y0.31 M03 S255 F150
G01 X17.74 Y0.58 M03 S0 F2000
G01 Z2 F300
G01 X16.13 Y0.44 M03 S255 F150
G01 X19.45 Y0.73 M03 S0 F2000
G01 Z2 F300
G01 X17.74 Y0.58 M03 S255 F150
G01 X21.24 Y0.9 M03 S0 F2000
G01 Z2 F300
G01 X19.45 Y0.73 M03 S255 F150
G01 X24.9 Y1.3 M03 S0 F2000
G01 Z2 F300
G01 X21.24 Y0.9 M03 S255 F150
G01 X26.73 Y1.53 M03 S0 F2000
G01 Z2 F300
G01 X24.9 Y1.3 M03 S255 F150
G01 X28.48 Y1.75 M03 S0 F2000
G01 Z2 F300
G01 X26.73 Y1.53 M03 S255 F150
G01 X30.14 Y2 M03 S0 F2000
G01 Z2 F300
G01 X28.48 Y1.75 M03 S255 F150
G01 X31.69 Y2.25 M03 S0 F2000
G01 Z2 F300
G01 X30.14 Y2 M03 S255 F150
G01 X33.08 Y2.51 M03 S0 F2000
G01 Z2 F300
G01 X31.69 Y2.25 M03 S255 F150
G01 X34.28 Y2.78 M03 S0 F2000
G01 Z2 F300
G01 X33.08 Y2.51 M03 S255 F150
G01 X34.63 Y2.93 M03 S0 F2000
G01 Z2 F300
G01 X34.28 Y2.78 M03 S255 F150
G01 X34.94 Y3.18 M03 S0 F2000
G01 Z2 F300
G01 X34.63 Y2.93 M03 S255 F150
G01 X35.41 Y3.85 M03 S0 F2000
G01 Z2 F300
G01 X34.94 Y3.18 M03 S255 F150
G01 X35.7 Y4.56 M03 S0 F2000
G01 Z2 F300
G01 X35.41 Y3.85 M03 S255 F150
G01 X35.78 Y4.85 M03 S0 F2000
G01 Z2 F300
G01 X35.7 Y4.56 M03 S255 F150
G01 X35.8 Y5.05 M03 S0 F2000
G01 Z2 F300
G01 X35.78 Y4.85 M03 S255 F150
G01 X35.8 Y5.04 M03 S0 F2000
G01 Z2 F300
G01 X35.8 Y5.04 M03 S255 F150
G01 X12.63 Y4.28 M03 S0 F2000
G01 Z2 F300
G01 X12.76 Y5 M03 S255 F150
G01 X12.21 Y3.65 M03 S0 F2000
G01 Z2 F300
G01 X12.63 Y4.28 M03 S255 F150
G01 X11.59 Y3.25 M03 S0 F2000
G01 Z2 F300
G01 X12.21 Y3.65 M03 S255 F150
G01 X10.86 Y3.1 M03 S0 F2000
G01 Z2 F300
G01 X11.59 Y3.25 M03 S255 F150
G01 X10.14 Y3.25 M03 S0 F2000
G01 Z2 F300
G01 X10.86 Y3.1 M03 S255 F150
G01 X9.53 Y3.65 M03 S0 F2000
G01 Z2 F300
G01 X10.14 Y3.25 M03 S255 F150
G01 X9.11 Y4.28 M03 S0 F2000
G01 Z2 F300
G01 X9.53 Y3.65 M03 S255 F150
G01 X8.96 Y5 M03 S0 F2000
G01 Z2 F300
G01 X9.11 Y4.28 M03 S255 F150
G01 X9 Y5.39 M03 S0 F2000
G01 Z2 F300
G01 X8.96 Y5 M03 S255 F150
G01 X9.11 Y5.74 M03 S0 F2000
G01 Z2 F300
G01 X9 Y5.39 M03 S255 F150
G01 X9.53 Y6.35 M03 S0 F2000
G01 Z2 F300
G01 X9.11 Y5.74 M03 S255 F150
G01 X10.13 Y6.75 M03 S0 F2000
G01 Z2 F300
G01 X9.53 Y6.35 M03 S255 F150
G01 X10.48 Y6.86 M03 S0 F2000
G01 Z2 F300
G01 X10.13 Y6.75 M03 S255 F150
G01 X10.86 Y6.9 M03 S0 F2000
G01 Z2 F300
G01 X10.48 Y6.86 M03 S255 F150
G01 X11.59 Y6.75 M03 S0 F2000
G01 Z2 F300
G01 X10.86 Y6.9 M03 S255 F150
G01 X12.21 Y6.34 M03 S0 F2000
G01 Z2 F300
G01 X11.59 Y6.75 M03 S255 F150
G01 X12.63 Y5.73 M03 S0 F2000
G01 Z2 F300
G01 X12.21 Y6.34 M03 S255 F150
G01 X12.76 Y5 M03 S0 F2000
G01 Z2 F300
G01 X12.63 Y5.73 M03 S255 F150
G01 X12.76 Y4.99 M03 S0 F2000
G01 Z2 F300
G01 X12.76 Y4.99 M03 S255 F150
G00 M03 S0
M05
G01 X0.1 Y60.78 M03 S0 F2000
M03 S0
G01 Z2.5 F300
G01 X0.1 Y15.78 M03 S255 F150
G01 Z2.5 F300
G01 X5.2 Y15.78 M03 S255 F150
G01 Z2.5 F300
G01 X5.2 Y18.58 M03 S255 F150
G01 Z2.5 F300
G01 X35 Y18.58 M03 S255 F150
G01 Z2.5 F300
G01 X35 Y15.78 M03 S255 F150
G01 Z2.5 F300
G01 X40.1 Y15.78 M03 S255 F150
G01 Z2.5 F300
G01 X40.1 Y60.78 M03 S255 F150
G01 Z2.5 F300
G01 X32.5 Y60.78 M03 S255 F150
G01 Z2.5 F300
G01 X32.5 Y60.79 M03 S255 F150
G01 X32.5 Y60.61 M03 S0 F2000
G01 Z2.5 F300
G01 X32.5 Y60.74 M03 S255 F150
G01 X32.5 Y60.14 M03 S0 F2000
G01 Z2.5 F300
G01 X32.5 Y60.61 M03 S255 F150
G01 X32.5 Y59.48 M03 S0 F2000
G01 Z2.5 F300
G01 X32.5 Y60.14 M03 S255 F150
G01 X32.5 Y58.71 M03 S0 F2000
G01 Z2.5 F300
G01 X32.5 Y59.48 M03 S255 F150
G01 X32.5 Y57.95 M03 S0 F2000
G01 Z2.5 F300
G01 X32.5 Y58.71 M03 S255 F150
G01 X32.5 Y57.29 M03 S0 F2000
G01 Z2.5 F300
G01 X32.5 Y57.95 M03 S255 F150
G01 X32.5 Y56.81 M03 S0 F2000
G01 Z2.5 F300
G01 X32.5 Y57.29 M03 S255 F150
G01 X32.5 Y56.69 M03 S0 F2000
G01 Z2.5 F300
G01 X32.5 Y56.81 M03 S255 F150
G01 X32.5 Y56.64 M03 S0 F2000
G01 Z2.5 F300
G01 X32.5 Y56.69 M03 S255 F150
G01 X33.04 Y56.93 M03 S0 F2000
G01 Z2.5 F300
G01 X32.5 Y56.64 M03 S255 F150
G01 X33.63 Y57.01 M03 S0 F2000
G01 Z2.5 F300
G01 X33.04 Y56.93 M03 S255 F150
G01 X34.35 Y56.88 M03 S0 F2000
G01 Z2.5 F300
G01 X33.63 Y57.01 M03 S255 F150
G01 X34.96 Y56.46 M03 S0 F2000
G01 Z2.5 F300
G01 X34.35 Y56.88 M03 S255 F150
G01 X35.38 Y55.84 M03 S0 F2000
G01 Z2.5 F300
G01 X34.96 Y56.46 M03 S255 F150
G01 X35.53 Y55.11 M03 S0 F2000
G01 Z2.5 F300
G01 X35.38 Y55.84 M03 S255 F150
G01 X35.38 Y54.39 M03 S0 F2000
G01 Z2.5 F300
G01 X35.53 Y55.11 M03 S255 F150
G01 X34.96 Y53.78 M03 S0 F2000
G01 Z2.5 F300
G01 X35.38 Y54.39 M03 S255 F150
G01 X34.35 Y53.36 M03 S0 F2000
G01 Z2.5 F300
G01 X34.96 Y53.78 M03 S255 F150
G01 X33.63 Y53.21 M03 S0 F2000
G01 Z2.5 F300
G01 X34.35 Y53.36 M03 S255 F150
G01 X33.04 Y53.31 M03 S0 F2000
G01 Z2.5 F300
G01 X33.63 Y53.21 M03 S255 F150
G01 X32.5 Y53.59 M03 S0 F2000
G01 Z2.5 F300
G01 X33.04 Y53.31 M03 S255 F150
G01 X32.5 Y53.58 M03 S0 F2000
G01 Z2.5 F300
G01 X32.5 Y48.98 M03 S255 F150
G01 Z2.5 F300
G01 X7.7 Y48.98 M03 S255 F150
G01 Z2.5 F300
G01 X7.7 Y48.99 M03 S255 F150
G01 X7.7 Y49.19 M03 S0 F2000
G01 Z2.5 F300
G01 X7.7 Y49.04 M03 S255 F150
G01 X7.7 Y49.43 M03 S0 F2000
G01 Z2.5 F300
G01 X7.7 Y49.19 M03 S255 F150
G01 X7.7 Y49.74 M03 S0 F2000
G01 Z2.5 F300
G01 X7.7 Y49.43 M03 S255 F150
G01 X7.7 Y50.5 M03 S0 F2000
G01 Z2.5 F300
G01 X7.7 Y49.74 M03 S255 F150
G01 X7.7 Y51.36 M03 S0 F2000
G01 Z2.5 F300
G01 X7.7 Y50.5 M03 S255 F150
G01 X7.7 Y52.24 M03 S0 F2000
G01 Z2.5 F300
G01 X7.7 Y51.36 M03 S255 F150
G01 X7.7 Y53 M03 S0 F2000
G01 Z2.5 F300
G01 X7.7 Y52.24 M03 S255 F150
G01 X7.7 Y53.31 M03 S0 F2000
G01 Z2.5 F300
G01 X7.7 Y53 M03 S255 F150
G01 X7.7 Y53.55 M03 S0 F2000
G01 Z2.5 F300
G01 X7.7 Y53.31 M03 S255 F150
G01 X7.7 Y53.7 M03 S0 F2000
G01 Z2.5 F300
G01 X7.7 Y53.55 M03 S255 F150
G01 X7.7 Y53.75 M03 S0 F2000
G01 Z2.5 F300
G01 X7.7 Y53.7 M03 S255 F150
G01 X7.1 Y53.35 M03 S0 F2000
G01 Z2.5 F300
G01 X7.7 Y53.75 M03 S255 F150
G01 X6.39 Y53.21 M03 S0 F2000
G01 Z2.5 F300
G01 X7.1 Y53.35 M03 S255 F150
G01 X6 Y53.25 M03 S0 F2000
G01 Z2.5 F300
G01 X6.39 Y53.21 M03 S255 F150
G01 X5.65 Y53.36 M03 S0 F2000
G01 Z2.5 F300
G01 X6 Y53.25 M03 S255 F150
G01 X5.05 Y53.78 M03 S0 F2000
G01 Z2.5 F300
G01 X5.65 Y53.36 M03 S255 F150
G01 X4.64 Y54.38 M03 S0 F2000
G01 Z2.5 F300
G01 X5.05 Y53.78 M03 S255 F150
G01 X4.53 Y54.74 M03 S0 F2000
G01 Z2.5 F300
G01 X4.64 Y54.38 M03 S255 F150
G01 X4.49 Y55.13 M03 S0 F2000
G01 Z2.5 F300
G01 X4.53 Y54.74 M03 S255 F150
G01 X4.53 Y55.51 M03 S0 F2000
G01 Z2.5 F300
G01 X4.49 Y55.13 M03 S255 F150
G01 X4.64 Y55.86 M03 S0 F2000
G01 Z2.5 F300
G01 X4.53 Y55.51 M03 S255 F150
G01 X5.05 Y56.48 M03 S0 F2000
G01 Z2.5 F300
G01 X4.64 Y55.86 M03 S255 F150
G01 X5.65 Y56.88 M03 S0 F2000
G01 Z2.5 F300
G01 X5.05 Y56.48 M03 S255 F150
G01 X6 Y56.99 M03 S0 F2000
G01 Z2.5 F300
G01 X5.65 Y56.88 M03 S255 F150
G01 X6.39 Y57.03 M03 S0 F2000
G01 Z2.5 F300
G01 X6 Y56.99 M03 S255 F150
G01 X7.1 Y56.89 M03 S0 F2000
G01 Z2.5 F300
G01 X6.39 Y57.03 M03 S255 F150
G01 X7.7 Y56.49 M03 S0 F2000
G01 Z2.5 F300
G01 X7.1 Y56.89 M03 S255 F150
G01 X7.7 Y56.48 M03 S0 F2000
G01 Z2.5 F300
G01 X7.7 Y60.78 M03 S255 F150
G01 Z2.5 F300
G01 X0.1 Y60.78 M03 S255 F150
G01 X51.04 Y58.08 M03 S0 F2000
G01 Z2.5 F300
G01 X51.04 Y55.08 M03 S255 F150
G01 Z2.5 F300
G01 X46.04 Y55.08 M03 S255 F150
G01 Z2.5 F300
G01 X46.04 Y15.28 M03 S255 F150
G01 Z2.5 F300
G01 X85.84 Y15.28 M03 S255 F150
G01 Z2.5 F300
G01 X85.84 Y55.08 M03 S255 F150
G01 Z2.5 F300
G01 X80.84 Y55.08 M03 S255 F150
G01 Z2.5 F300
G01 X80.84 Y58.08 M03 S255 F150
G01 Z2.5 F300
G01 X51.04 Y58.08 M03 S255 F150
G01 X35.79 Y5.28 M03 S0 F2000
G01 Z2.5 F300
G01 X35.8 Y5.05 M03 S255 F150
G01 X35.74 Y5.56 M03 S0 F2000
G01 Z2.5 F300
G01 X35.79 Y5.28 M03 S255 F150
G01 X35.5 Y6.21 M03 S0 F2000
G01 Z2.5 F300
G01 X35.74 Y5.56 M03 S255 F150
G01 X35.04 Y6.83 M03 S0 F2000
G01 Z2.5 F300
G01 X35.5 Y6.21 M03 S255 F150
G01 X34.7 Y7.06 M03 S0 F2000
G01 Z2.5 F300
G01 X35.04 Y6.83 M03 S255 F150
G01 X34.3 Y7.23 M03 S0 F2000
G01 Z2.5 F300
G01 X34.7 Y7.06 M03 S255 F150
G01 X33.1 Y7.5 M03 S0 F2000
G01 Z2.5 F300
G01 X34.3 Y7.23 M03 S255 F150
G01 X31.71 Y7.76 M03 S0 F2000
G01 Z2.5 F300
G01 X33.1 Y7.5 M03 S255 F150
G01 X30.16 Y8.03 M03 S0 F2000
G01 Z2.5 F300
G01 X31.71 Y7.76 M03 S255 F150
G01 X28.49 Y8.26 M03 S0 F2000
G01 Z2.5 F300
G01 X30.16 Y8.03 M03 S255 F150
G01 X26.71 Y8.5 M03 S0 F2000
G01 Z2.5 F300
G01 X28.49 Y8.26 M03 S255 F150
G01 X24.9 Y8.72 M03 S0 F2000
G01 Z2.5 F300
G01 X26.71 Y8.5 M03 S255 F150
G01 X21.21 Y9.11 M03 S0 F2000
G01 Z2.5 F300
G01 X24.9 Y8.72 M03 S255 F150
G01 X19.41 Y9.29 M03 S0 F2000
G01 Z2.5 F300
G01 X21.21 Y9.11 M03 S255 F150
G01 X17.7 Y9.44 M03 S0 F2000
G01 Z2.5 F300
G01 X19.41 Y9.29 M03 S255 F150
G01 X16.09 Y9.58 M03 S0 F2000
G01 Z2.5 F300
G01 X17.7 Y9.44 M03 S255 F150
G01 X14.63 Y9.69 M03 S0 F2000
G01 Z2.5 F300
G01 X16.09 Y9.58 M03 S255 F150
G01 X13.34 Y9.78 M03 S0 F2000
G01 Z2.5 F300
G01 X14.63 Y9.69 M03 S255 F150
G01 X12.26 Y9.85 M03 S0 F2000
G01 Z2.5 F300
G01 X13.34 Y9.78 M03 S255 F150
G01 X11.43 Y9.89 M03 S0 F2000
G01 Z2.5 F300
G01 X12.26 Y9.85 M03 S255 F150
G01 X11.1 Y9.9 M03 S0 F2000
G01 Z2.5 F300
G01 X11.43 Y9.89 M03 S255 F150
G01 X10.86 Y9.9 M03 S0 F2000
G01 Z2.5 F300
G01 X11.1 Y9.9 M03 S255 F150
G01 X9.88 Y9.8 M03 S0 F2000
G01 Z2.5 F300
G01 X10.86 Y9.9 M03 S255 F150
G01 X8.96 Y9.51 M03 S0 F2000
G01 Z2.5 F300
G01 X9.88 Y9.8 M03 S255 F150
G01 X8.13 Y9.06 M03 S0 F2000
G01 Z2.5 F300
G01 X8.96 Y9.51 M03 S255 F150
G01 X7.4 Y8.46 M03 S0 F2000
G01 Z2.5 F300
G01 X8.13 Y9.06 M03 S255 F150
G01 X6.8 Y7.74 M03 S0 F2000
G01 Z2.5 F300
G01 X7.4 Y8.46 M03 S255 F150
G01 X6.35 Y6.91 M03 S0 F2000
G01 Z2.5 F300
G01 X6.8 Y7.74 M03 S255 F150
G01 X6.06 Y5.99 M03 S0 F2000
G01 Z2.5 F300
G01 X6.35 Y6.91 M03 S255 F150
G01 X5.96 Y5 M03 S0 F2000
G01 Z2.5 F300
G01 X6.06 Y5.99 M03 S255 F150
G01 X6.06 Y4.01 M03 S0 F2000
G01 Z2.5 F300
G01 X5.96 Y5 M03 S255 F150
G01 X6.35 Y3.1 M03 S0 F2000
G01 Z2.5 F300
G01 X6.06 Y4.01 M03 S255 F150
G01 X6.8 Y2.26 M03 S0 F2000
G01 Z2.5 F300
G01 X6.35 Y3.1 M03 S255 F150
G01 X7.4 Y1.54 M03 S0 F2000
G01 Z2.5 F300
G01 X6.8 Y2.26 M03 S255 F150
G01 X8.13 Y0.94 M03 S0 F2000
G01 Z2.5 F300
G01 X7.4 Y1.54 M03 S255 F150
G01 X8.96 Y0.49 M03 S0 F2000
G01 Z2.5 F300
G01 X8.13 Y0.94 M03 S255 F150
G01 X9.88 Y0.2 M03 S0 F2000
G01 Z2.5 F300
G01 X8.96 Y0.49 M03 S255 F150
G01 X10.86 Y0.1 M03 S0 F2000
G01 Z2.5 F300
G01 X9.88 Y0.2 M03 S255 F150
G01 X11.11 Y0.1 M03 S0 F2000
G01 Z2.5 F300
G01 X10.86 Y0.1 M03 S255 F150
G01 X11.44 Y0.11 M03 S0 F2000
G01 Z2.5 F300
G01 X11.11 Y0.1 M03 S255 F150
G01 X12.29 Y0.16 M03 S0 F2000
G01 Z2.5 F300
G01 X11.44 Y0.11 M03 S255 F150
G01 X13.38 Y0.23 M03 S0 F2000
G01 Z2.5 F300
G01 X12.29 Y0.16 M03 S255 F150
G01 X14.66 Y0.31 M03 S0 F2000
G01 Z2.5 F300
G01 X13.38 Y0.23 M03 S255 F150
G01 X16.13 Y0.44 M03 S0 F2000
G01 Z2.5 F300
G01 X14.66 Y0.31 M03 S255 F150
G01 X17.74 Y0.58 M03 S0 F2000
G01 Z2.5 F300
G01 X16.13 Y0.44 M03 S255 F150
G01 X19.45 Y0.73 M03 S0 F2000
G01 Z2.5 F300
G01 X17.74 Y0.58 M03 S255 F150
G01 X21.24 Y0.9 M03 S0 F2000
G01 Z2.5 F300
G01 X19.45 Y0.73 M03 S255 F150
G01 X24.9 Y1.3 M03 S0 F2000
G01 Z2.5 F300
G01 X21.24 Y0.9 M03 S255 F150
G01 X26.73 Y1.53 M03 S0 F2000
G01 Z2.5 F300
G01 X24.9 Y1.3 M03 S255 F150
G01 X28.48 Y1.75 M03 S0 F2000
G01 Z2.5 F300
G01 X26.73 Y1.53 M03 S255 F150
G01 X30.14 Y2 M03 S0 F2000
G01 Z2.5 F300
G01 X28.48 Y1.75 M03 S255 F150
G01 X31.69 Y2.25 M03 S0 F2000
G01 Z2.5 F300
G01 X30.14 Y2 M03 S255 F150
G01 X33.08 Y2.51 M03 S0 F2000
G01 Z2.5 F300
G01 X31.69 Y2.25 M03 S255 F150
G01 X34.28 Y2.78 M03 S0 F2000
G01 Z2.5 F300
G01 X33.08 Y2.51 M03 S255 F150
G01 X34.63 Y2.93 M03 S0 F2000
G01 Z2.5 F300
G01 X34.28 Y2.78 M03 S255 F150
G01 X34.94 Y3.18 M03 S0 F2000
G01 Z2.5 F300
G01 X34.63 Y2.93 M03 S255 F150
G01 X35.41 Y3.85 M03 S0 F2000
G01 Z2.5 F300
G01 X34.94 Y3.18 M03 S255 F150
G01 X35.7 Y4.56 M03 S0 F2000
G01 Z2.5 F300
G01 X35.41 Y3.85 M03 S255 F150
G01 X35.78 Y4.85 M03 S0 F2000
G01 Z2.5 F300
G01 X35.7 Y4.56 M03 S255 F150
G01 X35.8 Y5.05 M03 S0 F2000
G01 Z2.5 F300
G01 X35.78 Y4.85 M03 S255 F150
G01 X35.8 Y5.04 M03 S0 F2000
G01 Z2.5 F300
G01 X35.8 Y5.04 M03 S255 F150
G01 X12.63 Y4.28 M03 S0 F2000
G01 Z2.5 F300
G01 X12.76 Y5 M03 S255 F150
G01 X12.21 Y3.65 M03 S0 F2000
G01 Z2.5 F300
G01 X12.63 Y4.28 M03 S255 F150
G01 X11.59 Y3.25 M03 S0 F2000
G01 Z2.5 F300
G01 X12.21 Y3.65 M03 S255 F150
G01 X10.86 Y3.1 M03 S0 F2000
G01 Z2.5 F300
G01 X11.59 Y3.25 M03 S255 F150
G01 X10.14 Y3.25 M03 S0 F2000
G01 Z2.5 F300
G01 X10.86 Y3.1 M03 S255 F150
G01 X9.53 Y3.65 M03 S0 F2000
G01 Z2.5 F300
G01 X10.14 Y3.25 M03 S255 F150
G01 X9.11 Y4.28 M03 S0 F2000
G01 Z2.5 F300
G01 X9.53 Y3.65 M03 S255 F150
G01 X8.96 Y5 M03 S0 F2000
G01 Z2.5 F300
G01 X9.11 Y4.28 M03 S255 F150
G01 X9 Y5.39 M03 S0 F2000
G01 Z2.5 F300
G01 X8.96 Y5 M03 S255 F150
G01 X9.11 Y5.74 M03 S0 F2000
G01 Z2.5 F300
G01 X9 Y5.39 M03 S255 F150
G01 X9.53 Y6.35 M03 S0 F2000
G01 Z2.5 F300
G01 X9.11 Y5.74 M03 S255 F150
G01 X10.13 Y6.75 M03 S0 F2000
G01 Z2.5 F300
G01 X9.53 Y6.35 M03 S255 F150
G01 X10.48 Y6.86 M03 S0 F2000
G01 Z2.5 F300
G01 X10.13 Y6.75 M03 S255 F150
G01 X10.86 Y6.9 M03 S0 F2000
G01 Z2.5 F300
G01 X10.48 Y6.86 M03 S255 F150
G01 X11.59 Y6.75 M03 S0 F2000
G01 Z2.5 F300
G01 X10.86 Y6.9 M03 S255 F150
G01 X12.21 Y6.34 M03 S0 F2000
G01 Z2.5 F300
G01 X11.59 Y6.75 M03 S255 F150
G01 X12.63 Y5.73 M03 S0 F2000
G01 Z2.5 F300
G01 X12.21 Y6.34 M03 S255 F150
G01 X12.76 Y5 M03 S0 F2000
G01 Z2.5 F300
G01 X12.63 Y5.73 M03 S255 F150
G01 X12.76 Y4.99 M03 S0 F2000
G01 Z2.5 F300
G01 X12.76 Y4.99 M03 S255 F150
G00 Z0 M03 S0
M05
G00 X0 Y0 
