( Generated by T2Laser ) 
(  DXF2Gcode for Grbl  )
( Start Point: LL      )
( Frame Mode : Extents )
( X Maximum  : 94      )
( Y Maximum  : 41.4    )
( Laser Power: 255     )
( Vector Rate: 650     )
( Rapid Feed : 2000    )
( Vector Name: BirdHead.dxf )
G21
G90
F650
M05
G00 Z0 
G01 X87.46 Y25.69 F2000
M03 S0
G01 Z0 F300
G01 X87.44 Y25.74 M03 S255 F650
G01 X87.54 Y25.56 M03 S0 F2000
G01 Z0 F300
G01 X87.46 Y25.69 M03 S255 F650
G01 X87.65 Y25.36 M03 S0 F2000
G01 Z0 F300
G01 X87.54 Y25.56 M03 S255 F650
G01 X87.8 Y25.09 M03 S0 F2000
G01 Z0 F300
G01 X87.65 Y25.36 M03 S255 F650
G01 X88.19 Y24.39 M03 S0 F2000
G01 Z0 F300
G01 X87.8 Y25.09 M03 S255 F650
G01 X88.66 Y23.51 M03 S0 F2000
G01 Z0 F300
G01 X88.19 Y24.39 M03 S255 F650
G01 X89.15 Y22.54 M03 S0 F2000
G01 Z0 F300
G01 X88.66 Y23.51 M03 S255 F650
G01 X89.64 Y21.53 M03 S0 F2000
G01 Z0 F300
G01 X89.15 Y22.54 M03 S255 F650
G01 X90.06 Y20.55 M03 S0 F2000
G01 Z0 F300
G01 X89.64 Y21.53 M03 S255 F650
G01 X90.38 Y19.68 M03 S0 F2000
G01 Z0 F300
G01 X90.06 Y20.55 M03 S255 F650
G01 X90.55 Y19.09 M03 S0 F2000
G01 Z0 F300
G01 X90.38 Y19.68 M03 S255 F650
G01 X90.73 Y18.44 M03 S0 F2000
G01 Z0 F300
G01 X90.55 Y19.09 M03 S255 F650
G01 X91.05 Y16.99 M03 S0 F2000
G01 Z0 F300
G01 X90.73 Y18.44 M03 S255 F650
G01 X91.36 Y15.46 M03 S0 F2000
G01 Z0 F300
G01 X91.05 Y16.99 M03 S255 F650
G01 X91.64 Y13.98 M03 S0 F2000
G01 Z0 F300
G01 X91.36 Y15.46 M03 S255 F650
G01 X91.86 Y12.61 M03 S0 F2000
G01 Z0 F300
G01 X91.64 Y13.98 M03 S255 F650
G01 X91.96 Y12.01 M03 S0 F2000
G01 Z0 F300
G01 X91.86 Y12.61 M03 S255 F650
G01 X92.05 Y11.5 M03 S0 F2000
G01 Z0 F300
G01 X91.96 Y12.01 M03 S255 F650
G01 X92.11 Y11.08 M03 S0 F2000
G01 Z0 F300
G01 X92.05 Y11.5 M03 S255 F650
G01 X92.16 Y10.75 M03 S0 F2000
G01 Z0 F300
G01 X92.11 Y11.08 M03 S255 F650
G01 X92.19 Y10.55 M03 S0 F2000
G01 Z0 F300
G01 X92.16 Y10.75 M03 S255 F650
G01 X92.2 Y10.48 M03 S0 F2000
G01 Z0 F300
G01 X92.19 Y10.55 M03 S255 F650
G01 X92.98 Y9.3 M03 S0 F2000
G01 Z0 F300
G01 X92.2 Y10.48 M03 S255 F650
G01 X93.52 Y8.19 M03 S0 F2000
G01 Z0 F300
G01 X92.98 Y9.3 M03 S255 F650
G01 X93.85 Y7.15 M03 S0 F2000
G01 Z0 F300
G01 X93.52 Y8.19 M03 S255 F650
G01 X93.98 Y6.18 M03 S0 F2000
G01 Z0 F300
G01 X93.85 Y7.15 M03 S255 F650
G01 X93.91 Y5.28 M03 S0 F2000
G01 Z0 F300
G01 X93.98 Y6.18 M03 S255 F650
G01 X93.68 Y4.44 M03 S0 F2000
G01 Z0 F300
G01 X93.91 Y5.28 M03 S255 F650
G01 X93.29 Y3.68 M03 S0 F2000
G01 Z0 F300
G01 X93.68 Y4.44 M03 S255 F650
G01 X92.76 Y2.99 M03 S0 F2000
G01 Z0 F300
G01 X93.29 Y3.68 M03 S255 F650
G01 X92.13 Y2.36 M03 S0 F2000
G01 Z0 F300
G01 X92.76 Y2.99 M03 S255 F650
G01 X91.36 Y1.81 M03 S0 F2000
G01 Z0 F300
G01 X92.13 Y2.36 M03 S255 F650
G01 X90.52 Y1.34 M03 S0 F2000
G01 Z0 F300
G01 X91.36 Y1.81 M03 S255 F650
G01 X89.61 Y0.94 M03 S0 F2000
G01 Z0 F300
G01 X90.52 Y1.34 M03 S255 F650
G01 X88.64 Y0.6 M03 S0 F2000
G01 Z0 F300
G01 X89.61 Y0.94 M03 S255 F650
G01 X87.63 Y0.35 M03 S0 F2000
G01 Z0 F300
G01 X88.64 Y0.6 M03 S255 F650
G01 X86.58 Y0.16 M03 S0 F2000
G01 Z0 F300
G01 X87.63 Y0.35 M03 S255 F650
G01 X85.52 Y0.06 M03 S0 F2000
G01 Z0 F300
G01 X86.58 Y0.16 M03 S255 F650
G01 X84.49 Y0.04 M03 S0 F2000
G01 Z0 F300
G01 X85.52 Y0.06 M03 S255 F650
G01 X83.48 Y0.09 M03 S0 F2000
G01 Z0 F300
G01 X84.49 Y0.04 M03 S255 F650
G01 X82.49 Y0.21 M03 S0 F2000
G01 Z0 F300
G01 X83.48 Y0.09 M03 S255 F650
G01 X81.56 Y0.41 M03 S0 F2000
G01 Z0 F300
G01 X82.49 Y0.21 M03 S255 F650
G01 X80.71 Y0.7 M03 S0 F2000
G01 Z0 F300
G01 X81.56 Y0.41 M03 S255 F650
G01 X79.95 Y1.06 M03 S0 F2000
G01 Z0 F300
G01 X80.71 Y0.7 M03 S255 F650
G01 X79.29 Y1.5 M03 S0 F2000
G01 Z0 F300
G01 X79.95 Y1.06 M03 S255 F650
G01 X78.75 Y2.03 M03 S0 F2000
G01 Z0 F300
G01 X79.29 Y1.5 M03 S255 F650
G01 X78.34 Y2.63 M03 S0 F2000
G01 Z0 F300
G01 X78.75 Y2.03 M03 S255 F650
G01 X78.09 Y3.31 M03 S0 F2000
G01 Z0 F300
G01 X78.34 Y2.63 M03 S255 F650
G01 X78 Y4.09 M03 S0 F2000
G01 Z0 F300
G01 X78.09 Y3.31 M03 S255 F650
G01 X78.1 Y4.94 M03 S0 F2000
G01 Z0 F300
G01 X78 Y4.09 M03 S255 F650
G01 X78.4 Y5.88 M03 S0 F2000
G01 Z0 F300
G01 X78.1 Y4.94 M03 S255 F650
G01 X78.91 Y6.89 M03 S0 F2000
G01 Z0 F300
G01 X78.4 Y5.88 M03 S255 F650
G01 X79.66 Y8 M03 S0 F2000
G01 Z0 F300
G01 X78.91 Y6.89 M03 S255 F650
G01 X80.66 Y9.19 M03 S0 F2000
G01 Z0 F300
G01 X79.66 Y8 M03 S255 F650
G01 X80.68 Y9.26 M03 S0 F2000
G01 Z0 F300
G01 X80.66 Y9.19 M03 S255 F650
G01 X80.69 Y9.49 M03 S0 F2000
G01 Z0 F300
G01 X80.68 Y9.26 M03 S255 F650
G01 X80.73 Y9.84 M03 S0 F2000
G01 Z0 F300
G01 X80.69 Y9.49 M03 S255 F650
G01 X80.79 Y10.3 M03 S0 F2000
G01 Z0 F300
G01 X80.73 Y9.84 M03 S255 F650
G01 X80.85 Y10.86 M03 S0 F2000
G01 Z0 F300
G01 X80.79 Y10.3 M03 S255 F650
G01 X80.93 Y11.5 M03 S0 F2000
G01 Z0 F300
G01 X80.85 Y10.86 M03 S255 F650
G01 X81.14 Y12.95 M03 S0 F2000
G01 Z0 F300
G01 X80.93 Y11.5 M03 S255 F650
G01 X81.39 Y14.54 M03 S0 F2000
G01 Z0 F300
G01 X81.14 Y12.95 M03 S255 F650
G01 X81.7 Y16.13 M03 S0 F2000
G01 Z0 F300
G01 X81.39 Y14.54 M03 S255 F650
G01 X82.05 Y17.58 M03 S0 F2000
G01 Z0 F300
G01 X81.7 Y16.13 M03 S255 F650
G01 X82.25 Y18.21 M03 S0 F2000
G01 Z0 F300
G01 X82.05 Y17.58 M03 S255 F650
G01 X82.46 Y18.78 M03 S0 F2000
G01 Z0 F300
G01 X82.25 Y18.21 M03 S255 F650
G01 X83 Y19.84 M03 S0 F2000
G01 Z0 F300
G01 X82.46 Y18.78 M03 S255 F650
G01 X83.71 Y20.98 M03 S0 F2000
G01 Z0 F300
G01 X83 Y19.84 M03 S255 F650
G01 X84.52 Y22.14 M03 S0 F2000
G01 Z0 F300
G01 X83.71 Y20.98 M03 S255 F650
G01 X85.38 Y23.25 M03 S0 F2000
G01 Z0 F300
G01 X84.52 Y22.14 M03 S255 F650
G01 X86.16 Y24.24 M03 S0 F2000
G01 Z0 F300
G01 X85.38 Y23.25 M03 S255 F650
G01 X86.81 Y25.03 M03 S0 F2000
G01 Z0 F300
G01 X86.16 Y24.24 M03 S255 F650
G01 X87.08 Y25.33 M03 S0 F2000
G01 Z0 F300
G01 X86.81 Y25.03 M03 S255 F650
G01 X87.27 Y25.55 M03 S0 F2000
G01 Z0 F300
G01 X87.08 Y25.33 M03 S255 F650
G01 X87.4 Y25.69 M03 S0 F2000
G01 Z0 F300
G01 X87.27 Y25.55 M03 S255 F650
G01 X87.44 Y25.74 M03 S0 F2000
G01 Z0 F300
G01 X87.4 Y25.69 M03 S255 F650
G01 X0.08 Y27.29 M03 S0 F2000
G01 Z0 F300
G01 X0.05 Y27.24 M03 S255 F650
G01 X0.16 Y27.44 M03 S0 F2000
G01 Z0 F300
G01 X0.08 Y27.29 M03 S255 F650
G01 X0.3 Y27.66 M03 S0 F2000
G01 Z0 F300
G01 X0.16 Y27.44 M03 S255 F650
G01 X0.49 Y27.98 M03 S0 F2000
G01 Z0 F300
G01 X0.3 Y27.66 M03 S255 F650
G01 X0.98 Y28.76 M03 S0 F2000
G01 Z0 F300
G01 X0.49 Y27.98 M03 S255 F650
G01 X1.58 Y29.73 M03 S0 F2000
G01 Z0 F300
G01 X0.98 Y28.76 M03 S255 F650
G01 X2.26 Y30.76 M03 S0 F2000
G01 Z0 F300
G01 X1.58 Y29.73 M03 S255 F650
G01 X2.98 Y31.81 M03 S0 F2000
G01 Z0 F300
G01 X2.26 Y30.76 M03 S255 F650
G01 X3.68 Y32.76 M03 S0 F2000
G01 Z0 F300
G01 X2.98 Y31.81 M03 S255 F650
G01 X4.31 Y33.55 M03 S0 F2000
G01 Z0 F300
G01 X3.68 Y32.76 M03 S255 F650
G01 X4.9 Y34.14 M03 S0 F2000
G01 Z0 F300
G01 X4.31 Y33.55 M03 S255 F650
G01 X5.61 Y34.76 M03 S0 F2000
G01 Z0 F300
G01 X4.9 Y34.14 M03 S255 F650
G01 X7.14 Y35.93 M03 S0 F2000
G01 Z0 F300
G01 X5.61 Y34.76 M03 S255 F650
G01 X7.84 Y36.43 M03 S0 F2000
G01 Z0 F300
G01 X7.14 Y35.93 M03 S255 F650
G01 X8.41 Y36.81 M03 S0 F2000
G01 Z0 F300
G01 X7.84 Y36.43 M03 S255 F650
G01 X8.8 Y37.08 M03 S0 F2000
G01 Z0 F300
G01 X8.41 Y36.81 M03 S255 F650
G01 X8.9 Y37.14 M03 S0 F2000
G01 Z0 F300
G01 X8.8 Y37.08 M03 S255 F650
G01 X8.94 Y37.16 M03 S0 F2000
G01 Z0 F300
G01 X8.9 Y37.14 M03 S255 F650
G01 Z0 F300
G01 X8.94 Y37.16 M03 S255 F650
G01 X9.13 Y37.26 M03 S0 F2000
G01 Z0 F300
G01 X8.99 Y37.19 M03 S255 F650
G01 X9.34 Y37.39 M03 S0 F2000
G01 Z0 F300
G01 X9.13 Y37.26 M03 S255 F650
G01 X9.63 Y37.54 M03 S0 F2000
G01 Z0 F300
G01 X9.34 Y37.39 M03 S255 F650
G01 X10.39 Y37.94 M03 S0 F2000
G01 Z0 F300
G01 X9.63 Y37.54 M03 S255 F650
G01 X11.34 Y38.41 M03 S0 F2000
G01 Z0 F300
G01 X10.39 Y37.94 M03 S255 F650
G01 X12.39 Y38.91 M03 S0 F2000
G01 Z0 F300
G01 X11.34 Y38.41 M03 S255 F650
G01 X13.49 Y39.39 M03 S0 F2000
G01 Z0 F300
G01 X12.39 Y38.91 M03 S255 F650
G01 X14.55 Y39.81 M03 S0 F2000
G01 Z0 F300
G01 X13.49 Y39.39 M03 S255 F650
G01 X15.51 Y40.11 M03 S0 F2000
G01 Z0 F300
G01 X14.55 Y39.81 M03 S255 F650
G01 X16.09 Y40.25 M03 S0 F2000
G01 Z0 F300
G01 X15.51 Y40.11 M03 S255 F650
G01 X16.73 Y40.38 M03 S0 F2000
G01 Z0 F300
G01 X16.09 Y40.25 M03 S255 F650
G01 X18.14 Y40.6 M03 S0 F2000
G01 Z0 F300
G01 X16.73 Y40.38 M03 S255 F650
G01 X19.64 Y40.79 M03 S0 F2000
G01 Z0 F300
G01 X18.14 Y40.6 M03 S255 F650
G01 X21.13 Y40.95 M03 S0 F2000
G01 Z0 F300
G01 X19.64 Y40.79 M03 S255 F650
G01 X22.48 Y41.08 M03 S0 F2000
G01 Z0 F300
G01 X21.13 Y40.95 M03 S255 F650
G01 X23.06 Y41.13 M03 S0 F2000
G01 Z0 F300
G01 X22.48 Y41.08 M03 S255 F650
G01 X23.58 Y41.16 M03 S0 F2000
G01 Z0 F300
G01 X23.06 Y41.13 M03 S255 F650
G01 X24 Y41.2 M03 S0 F2000
G01 Z0 F300
G01 X23.58 Y41.16 M03 S255 F650
G01 X24.33 Y41.23 M03 S0 F2000
G01 Z0 F300
G01 X24 Y41.2 M03 S255 F650
G01 X24.53 Y41.24 M03 S0 F2000
G01 Z0 F300
G01 X24.33 Y41.23 M03 S255 F650
G01 X24.6 Y41.24 M03 S0 F2000
G01 Z0 F300
G01 X24.53 Y41.24 M03 S255 F650
G01 Z0 F300
G01 X37.33 Y41.41 M03 S255 F650
G01 Z0 F300
G01 X30.63 Y38.24 M03 S255 F650
G01 Z0 F300
G01 X39.71 Y36.89 M03 S255 F650
G01 Z0 F300
G01 X39.71 Y36.89 M03 S255 F650
G01 X39.55 Y36.78 M03 S0 F2000
G01 Z0 F300
G01 X39.68 Y36.86 M03 S255 F650
G01 X39.13 Y36.48 M03 S0 F2000
G01 Z0 F300
G01 X39.55 Y36.78 M03 S255 F650
G01 X38.49 Y36.04 M03 S0 F2000
G01 Z0 F300
G01 X39.13 Y36.48 M03 S255 F650
G01 X37.74 Y35.49 M03 S0 F2000
G01 Z0 F300
G01 X38.49 Y36.04 M03 S255 F650
G01 X36.94 Y34.9 M03 S0 F2000
G01 Z0 F300
G01 X37.74 Y35.49 M03 S255 F650
G01 X36.16 Y34.29 M03 S0 F2000
G01 Z0 F300
G01 X36.94 Y34.9 M03 S255 F650
G01 X35.49 Y33.71 M03 S0 F2000
G01 Z0 F300
G01 X36.16 Y34.29 M03 S255 F650
G01 X34.98 Y33.23 M03 S0 F2000
G01 Z0 F300
G01 X35.49 Y33.71 M03 S255 F650
G01 X34.81 Y32.99 M03 S0 F2000
G01 Z0 F300
G01 X34.98 Y33.23 M03 S255 F650
G01 X34.71 Y32.71 M03 S0 F2000
G01 Z0 F300
G01 X34.81 Y32.99 M03 S255 F650
G01 X34.69 Y32.19 M03 S0 F2000
G01 Z0 F300
G01 X34.71 Y32.71 M03 S255 F650
G01 X34.76 Y31.78 M03 S0 F2000
G01 Z0 F300
G01 X34.69 Y32.19 M03 S255 F650
G01 X34.8 Y31.65 M03 S0 F2000
G01 Z0 F300
G01 X34.76 Y31.78 M03 S255 F650
G01 X34.81 Y31.6 M03 S0 F2000
G01 Z0 F300
G01 X34.8 Y31.65 M03 S255 F650
G01 X34.89 Y31.54 M03 S0 F2000
G01 Z0 F300
G01 X34.81 Y31.6 M03 S255 F650
G01 X35.1 Y31.36 M03 S0 F2000
G01 Z0 F300
G01 X34.89 Y31.54 M03 S255 F650
G01 X35.39 Y31.1 M03 S0 F2000
G01 Z0 F300
G01 X35.1 Y31.36 M03 S255 F650
G01 X35.7 Y30.78 M03 S0 F2000
G01 Z0 F300
G01 X35.39 Y31.1 M03 S255 F650
G01 X35.99 Y30.39 M03 S0 F2000
G01 Z0 F300
G01 X35.7 Y30.78 M03 S255 F650
G01 X36.2 Y29.99 M03 S0 F2000
G01 Z0 F300
G01 X35.99 Y30.39 M03 S255 F650
G01 X36.28 Y29.58 M03 S0 F2000
G01 Z0 F300
G01 X36.2 Y29.99 M03 S255 F650
G01 X36.18 Y29.19 M03 S0 F2000
G01 Z0 F300
G01 X36.28 Y29.58 M03 S255 F650
G01 X35.99 Y28.9 M03 S0 F2000
G01 Z0 F300
G01 X36.18 Y29.19 M03 S255 F650
G01 X35.73 Y28.56 M03 S0 F2000
G01 Z0 F300
G01 X35.99 Y28.9 M03 S255 F650
G01 X35.01 Y27.81 M03 S0 F2000
G01 Z0 F300
G01 X35.73 Y28.56 M03 S255 F650
G01 X34.14 Y27 M03 S0 F2000
G01 Z0 F300
G01 X35.01 Y27.81 M03 S255 F650
G01 X33.2 Y26.19 M03 S0 F2000
G01 Z0 F300
G01 X34.14 Y27 M03 S255 F650
G01 X32.31 Y25.45 M03 S0 F2000
G01 Z0 F300
G01 X33.2 Y26.19 M03 S255 F650
G01 X31.55 Y24.84 M03 S0 F2000
G01 Z0 F300
G01 X32.31 Y25.45 M03 S255 F650
G01 X31.25 Y24.6 M03 S0 F2000
G01 Z0 F300
G01 X31.55 Y24.84 M03 S255 F650
G01 X31.03 Y24.43 M03 S0 F2000
G01 Z0 F300
G01 X31.25 Y24.6 M03 S255 F650
G01 X30.88 Y24.31 M03 S0 F2000
G01 Z0 F300
G01 X31.03 Y24.43 M03 S255 F650
G01 X30.83 Y24.28 M03 S0 F2000
G01 Z0 F300
G01 X30.88 Y24.31 M03 S255 F650
G01 Z0 F300
G01 X30.83 Y24.28 M03 S255 F650
G01 X30.73 Y24.13 M03 S0 F2000
G01 Z0 F300
G01 X30.8 Y24.24 M03 S255 F650
G01 X30.53 Y23.75 M03 S0 F2000
G01 Z0 F300
G01 X30.73 Y24.13 M03 S255 F650
G01 X30.31 Y23.25 M03 S0 F2000
G01 Z0 F300
G01 X30.53 Y23.75 M03 S255 F650
G01 X30.21 Y22.73 M03 S0 F2000
G01 Z0 F300
G01 X30.31 Y23.25 M03 S255 F650
G01 X30.24 Y22.29 M03 S0 F2000
G01 Z0 F300
G01 X30.21 Y22.73 M03 S255 F650
G01 X30.3 Y21.75 M03 S0 F2000
G01 Z0 F300
G01 X30.24 Y22.29 M03 S255 F650
G01 X30.49 Y20.59 M03 S0 F2000
G01 Z0 F300
G01 X30.3 Y21.75 M03 S255 F650
G01 X30.59 Y20.06 M03 S0 F2000
G01 Z0 F300
G01 X30.49 Y20.59 M03 S255 F650
G01 X30.69 Y19.63 M03 S0 F2000
G01 Z0 F300
G01 X30.59 Y20.06 M03 S255 F650
G01 X30.75 Y19.33 M03 S0 F2000
G01 Z0 F300
G01 X30.69 Y19.63 M03 S255 F650
G01 X30.78 Y19.21 M03 S0 F2000
G01 Z0 F300
G01 X30.75 Y19.33 M03 S255 F650
G01 X30.86 Y19.08 M03 S0 F2000
G01 Z0 F300
G01 X30.78 Y19.21 M03 S255 F650
G01 X31.11 Y18.71 M03 S0 F2000
G01 Z0 F300
G01 X30.86 Y19.08 M03 S255 F650
G01 X31.48 Y18.16 M03 S0 F2000
G01 Z0 F300
G01 X31.11 Y18.71 M03 S255 F650
G01 X31.9 Y17.5 M03 S0 F2000
G01 Z0 F300
G01 X31.48 Y18.16 M03 S255 F650
G01 X32.78 Y16.08 M03 S0 F2000
G01 Z0 F300
G01 X31.9 Y17.5 M03 S255 F650
G01 X33.14 Y15.43 M03 S0 F2000
G01 Z0 F300
G01 X32.78 Y16.08 M03 S255 F650
G01 X33.4 Y14.89 M03 S0 F2000
G01 Z0 F300
G01 X33.14 Y15.43 M03 S255 F650
G01 X33.56 Y14.19 M03 S0 F2000
G01 Z0 F300
G01 X33.4 Y14.89 M03 S255 F650
G01 X33.55 Y13.54 M03 S0 F2000
G01 Z0 F300
G01 X33.56 Y14.19 M03 S255 F650
G01 X33.46 Y13.05 M03 S0 F2000
G01 Z0 F300
G01 X33.55 Y13.54 M03 S255 F650
G01 X33.43 Y12.91 M03 S0 F2000
G01 Z0 F300
G01 X33.46 Y13.05 M03 S255 F650
G01 X33.41 Y12.86 M03 S0 F2000
G01 Z0 F300
G01 X33.43 Y12.91 M03 S255 F650
G01 Z0 F300
G01 X33.41 Y12.86 M03 S255 F650
G01 X33.05 Y13.04 M03 S0 F2000
G01 Z0 F300
G01 X33.33 Y12.9 M03 S255 F650
G01 X32.59 Y13.28 M03 S0 F2000
G01 Z0 F300
G01 X33.05 Y13.04 M03 S255 F650
G01 X31.96 Y13.63 M03 S0 F2000
G01 Z0 F300
G01 X32.59 Y13.28 M03 S255 F650
G01 X31.61 Y13.83 M03 S0 F2000
G01 Z0 F300
G01 X31.96 Y13.63 M03 S255 F650
G01 X31.14 Y14.11 M03 S0 F2000
G01 Z0 F300
G01 X31.61 Y13.83 M03 S255 F650
G01 X30.58 Y14.45 M03 S0 F2000
G01 Z0 F300
G01 X31.14 Y14.11 M03 S255 F650
G01 X29.99 Y14.81 M03 S0 F2000
G01 Z0 F300
G01 X30.58 Y14.45 M03 S255 F650
G01 X29.44 Y15.15 M03 S0 F2000
G01 Z0 F300
G01 X29.99 Y14.81 M03 S255 F650
G01 X28.96 Y15.43 M03 S0 F2000
G01 Z0 F300
G01 X29.44 Y15.15 M03 S255 F650
G01 X28.65 Y15.63 M03 S0 F2000
G01 Z0 F300
G01 X28.96 Y15.43 M03 S255 F650
G01 X28.53 Y15.7 M03 S0 F2000
G01 Z0 F300
G01 X28.65 Y15.63 M03 S255 F650
G01 X28.55 Y15.61 M03 S0 F2000
G01 Z0 F300
G01 X28.53 Y15.7 M03 S255 F650
G01 X28.63 Y15.36 M03 S0 F2000
G01 Z0 F300
G01 X28.55 Y15.61 M03 S255 F650
G01 X28.73 Y14.99 M03 S0 F2000
G01 Z0 F300
G01 X28.63 Y15.36 M03 S255 F650
G01 X28.84 Y14.51 M03 S0 F2000
G01 Z0 F300
G01 X28.73 Y14.99 M03 S255 F650
G01 X29.05 Y13.43 M03 S0 F2000
G01 Z0 F300
G01 X28.84 Y14.51 M03 S255 F650
G01 X29.14 Y12.35 M03 S0 F2000
G01 Z0 F300
G01 X29.05 Y13.43 M03 S255 F650
G01 X29.1 Y11.81 M03 S0 F2000
G01 Z0 F300
G01 X29.14 Y12.35 M03 S255 F650
G01 X29.03 Y11.15 M03 S0 F2000
G01 Z0 F300
G01 X29.1 Y11.81 M03 S255 F650
G01 X28.78 Y9.72 M03 S0 F2000
G01 Z0 F300
G01 X29.03 Y11.15 M03 S255 F650
G01 X28.64 Y9.06 M03 S0 F2000
G01 Z0 F300
G01 X28.78 Y9.72 M03 S255 F650
G01 X28.53 Y8.53 M03 S0 F2000
G01 Z0 F300
G01 X28.64 Y9.06 M03 S255 F650
G01 X28.44 Y8.16 M03 S0 F2000
G01 Z0 F300
G01 X28.53 Y8.53 M03 S255 F650
G01 X28.41 Y8.03 M03 S0 F2000
G01 Z0 F300
G01 X28.44 Y8.16 M03 S255 F650
G01 Z0 F300
G01 X28.41 Y8.03 M03 S255 F650
G01 X28.31 Y8.35 M03 S0 F2000
G01 Z0 F300
G01 X28.39 Y8.11 M03 S255 F650
G01 X28.2 Y8.69 M03 S0 F2000
G01 Z0 F300
G01 X28.31 Y8.35 M03 S255 F650
G01 X28.06 Y9.11 M03 S0 F2000
G01 Z0 F300
G01 X28.2 Y8.69 M03 S255 F650
G01 X27.71 Y10.04 M03 S0 F2000
G01 Z0 F300
G01 X28.06 Y9.11 M03 S255 F650
G01 X27.53 Y10.46 M03 S0 F2000
G01 Z0 F300
G01 X27.71 Y10.04 M03 S255 F650
G01 X27.33 Y10.83 M03 S0 F2000
G01 Z0 F300
G01 X27.53 Y10.46 M03 S255 F650
G01 X27.06 Y11.21 M03 S0 F2000
G01 Z0 F300
G01 X27.33 Y10.83 M03 S255 F650
G01 X26.74 Y11.63 M03 S0 F2000
G01 Z0 F300
G01 X27.06 Y11.21 M03 S255 F650
G01 X26.01 Y12.48 M03 S0 F2000
G01 Z0 F300
G01 X26.74 Y11.63 M03 S255 F650
G01 X25.68 Y12.84 M03 S0 F2000
G01 Z0 F300
G01 X26.01 Y12.48 M03 S255 F650
G01 X25.4 Y13.14 M03 S0 F2000
G01 Z0 F300
G01 X25.68 Y12.84 M03 S255 F650
G01 X25.21 Y13.33 M03 S0 F2000
G01 Z0 F300
G01 X25.4 Y13.14 M03 S255 F650
G01 X25.14 Y13.4 M03 S0 F2000
G01 Z0 F300
G01 X25.21 Y13.33 M03 S255 F650
G01 Z0 F300
G01 X25.14 Y13.4 M03 S255 F650
G01 X25.09 Y12.99 M03 S0 F2000
G01 Z0 F300
G01 X25.13 Y13.29 M03 S255 F650
G01 X25.04 Y12.54 M03 S0 F2000
G01 Z0 F300
G01 X25.09 Y12.99 M03 S255 F650
G01 X24.96 Y12 M03 S0 F2000
G01 Z0 F300
G01 X25.04 Y12.54 M03 S255 F650
G01 X24.76 Y10.81 M03 S0 F2000
G01 Z0 F300
G01 X24.96 Y12 M03 S255 F650
G01 X24.64 Y10.28 M03 S0 F2000
G01 Z0 F300
G01 X24.76 Y10.81 M03 S255 F650
G01 X24.51 Y9.84 M03 S0 F2000
G01 Z0 F300
G01 X24.64 Y10.28 M03 S255 F650
G01 X24.33 Y9.39 M03 S0 F2000
G01 Z0 F300
G01 X24.51 Y9.84 M03 S255 F650
G01 X24.09 Y8.91 M03 S0 F2000
G01 Z0 F300
G01 X24.33 Y9.39 M03 S255 F650
G01 X23.54 Y7.99 M03 S0 F2000
G01 Z0 F300
G01 X24.09 Y8.91 M03 S255 F650
G01 X23.28 Y7.6 M03 S0 F2000
G01 Z0 F300
G01 X23.54 Y7.99 M03 S255 F650
G01 X23.06 Y7.29 M03 S0 F2000
G01 Z0 F300
G01 X23.28 Y7.6 M03 S255 F650
G01 X22.91 Y7.08 M03 S0 F2000
G01 Z0 F300
G01 X23.06 Y7.29 M03 S255 F650
G01 X22.86 Y7 M03 S0 F2000
G01 Z0 F300
G01 X22.91 Y7.08 M03 S255 F650
G01 Z0 F300
G01 X22.86 Y7 M03 S255 F650
G01 X22.84 Y7.21 M03 S0 F2000
G01 Z0 F300
G01 X22.86 Y7.06 M03 S255 F650
G01 X22.76 Y7.73 M03 S0 F2000
G01 Z0 F300
G01 X22.84 Y7.21 M03 S255 F650
G01 X22.6 Y8.35 M03 S0 F2000
G01 Z0 F300
G01 X22.76 Y7.73 M03 S255 F650
G01 X22.35 Y8.9 M03 S0 F2000
G01 Z0 F300
G01 X22.6 Y8.35 M03 S255 F650
G01 X22.16 Y9.13 M03 S0 F2000
G01 Z0 F300
G01 X22.35 Y8.9 M03 S255 F650
G01 X21.9 Y9.38 M03 S0 F2000
G01 Z0 F300
G01 X22.16 Y9.13 M03 S255 F650
G01 X21.29 Y9.88 M03 S0 F2000
G01 Z0 F300
G01 X21.9 Y9.38 M03 S255 F650
G01 X20.99 Y10.1 M03 S0 F2000
G01 Z0 F300
G01 X21.29 Y9.88 M03 S255 F650
G01 X20.74 Y10.28 M03 S0 F2000
G01 Z0 F300
G01 X20.99 Y10.1 M03 S255 F650
G01 X20.56 Y10.4 M03 S0 F2000
G01 Z0 F300
G01 X20.74 Y10.28 M03 S255 F650
G01 X20.5 Y10.44 M03 S0 F2000
G01 Z0 F300
G01 X20.56 Y10.4 M03 S255 F650
G01 X20.45 Y10.49 M03 S0 F2000
G01 Z0 F300
G01 X20.5 Y10.44 M03 S255 F650
G01 X20.3 Y10.6 M03 S0 F2000
G01 Z0 F300
G01 X20.45 Y10.49 M03 S255 F650
G01 X20.08 Y10.78 M03 S0 F2000
G01 Z0 F300
G01 X20.3 Y10.6 M03 S255 F650
G01 X19.79 Y10.99 M03 S0 F2000
G01 Z0 F300
G01 X20.08 Y10.78 M03 S255 F650
G01 X19.06 Y11.39 M03 S0 F2000
G01 Z0 F300
G01 X19.79 Y10.99 M03 S255 F650
G01 X18.66 Y11.53 M03 S0 F2000
G01 Z0 F300
G01 X19.06 Y11.39 M03 S255 F650
G01 X18.26 Y11.61 M03 S0 F2000
G01 Z0 F300
G01 X18.66 Y11.53 M03 S255 F650
G01 X17.88 Y11.61 M03 S0 F2000
G01 Z0 F300
G01 X18.26 Y11.61 M03 S255 F650
G01 X17.38 Y11.56 M03 S0 F2000
G01 Z0 F300
G01 X17.88 Y11.61 M03 S255 F650
G01 X16.24 Y11.36 M03 S0 F2000
G01 Z0 F300
G01 X17.38 Y11.56 M03 S255 F650
G01 X15.69 Y11.24 M03 S0 F2000
G01 Z0 F300
G01 X16.24 Y11.36 M03 S255 F650
G01 X15.24 Y11.14 M03 S0 F2000
G01 Z0 F300
G01 X15.69 Y11.24 M03 S255 F650
G01 X14.93 Y11.06 M03 S0 F2000
G01 Z0 F300
G01 X15.24 Y11.14 M03 S255 F650
G01 X14.81 Y11.04 M03 S0 F2000
G01 Z0 F300
G01 X14.93 Y11.06 M03 S255 F650
G01 X14.74 Y11.04 M03 S0 F2000
G01 Z0 F300
G01 X14.81 Y11.04 M03 S255 F650
G01 X14.53 Y11.03 M03 S0 F2000
G01 Z0 F300
G01 X14.74 Y11.04 M03 S255 F650
G01 X14.2 Y11.01 M03 S0 F2000
G01 Z0 F300
G01 X14.53 Y11.03 M03 S255 F650
G01 X13.78 Y11 M03 S0 F2000
G01 Z0 F300
G01 X14.2 Y11.01 M03 S255 F650
G01 X13.25 Y10.99 M03 S0 F2000
G01 Z0 F300
G01 X13.78 Y11 M03 S255 F650
G01 X12.66 Y10.99 M03 S0 F2000
G01 Z0 F300
G01 X13.25 Y10.99 M03 S255 F650
G01 X11.35 Y10.98 M03 S0 F2000
G01 Z0 F300
G01 X12.66 Y10.99 M03 S255 F650
G01 X9.94 Y11.01 M03 S0 F2000
G01 Z0 F300
G01 X11.35 Y10.98 M03 S255 F650
G01 X8.58 Y11.09 M03 S0 F2000
G01 Z0 F300
G01 X9.94 Y11.01 M03 S255 F650
G01 X7.95 Y11.15 M03 S0 F2000
G01 Z0 F300
G01 X8.58 Y11.09 M03 S255 F650
G01 X7.39 Y11.23 M03 S0 F2000
G01 Z0 F300
G01 X7.95 Y11.15 M03 S255 F650
G01 X6.9 Y11.33 M03 S0 F2000
G01 Z0 F300
G01 X7.39 Y11.23 M03 S255 F650
G01 X6.5 Y11.44 M03 S0 F2000
G01 Z0 F300
G01 X6.9 Y11.33 M03 S255 F650
G01 X5.63 Y11.89 M03 S0 F2000
G01 Z0 F300
G01 X6.5 Y11.44 M03 S255 F650
G01 X4.8 Y12.5 M03 S0 F2000
G01 Z0 F300
G01 X5.63 Y11.89 M03 S255 F650
G01 X4.05 Y13.21 M03 S0 F2000
G01 Z0 F300
G01 X4.8 Y12.5 M03 S255 F650
G01 X3.4 Y13.96 M03 S0 F2000
G01 Z0 F300
G01 X4.05 Y13.21 M03 S255 F650
G01 X2.85 Y14.66 M03 S0 F2000
G01 Z0 F300
G01 X3.4 Y13.96 M03 S255 F650
G01 X2.44 Y15.25 M03 S0 F2000
G01 Z0 F300
G01 X2.85 Y14.66 M03 S255 F650
G01 X2.18 Y15.65 M03 S0 F2000
G01 Z0 F300
G01 X2.44 Y15.25 M03 S255 F650
G01 X2.11 Y15.76 M03 S0 F2000
G01 Z0 F300
G01 X2.18 Y15.65 M03 S255 F650
G01 X2.09 Y15.8 M03 S0 F2000
G01 Z0 F300
G01 X2.11 Y15.76 M03 S255 F650
G01 X17.04 Y30.59 M03 S0 F2000
G01 Z0 F300
G01 X17.15 Y31.09 M03 S255 F650
G01 X16.69 Y30.11 M03 S0 F2000
G01 Z0 F300
G01 X17.04 Y30.59 M03 S255 F650
G01 X16.15 Y29.71 M03 S0 F2000
G01 Z0 F300
G01 X16.69 Y30.11 M03 S255 F650
G01 X15.44 Y29.4 M03 S0 F2000
G01 Z0 F300
G01 X16.15 Y29.71 M03 S255 F650
G01 X14.61 Y29.2 M03 S0 F2000
G01 Z0 F300
G01 X15.44 Y29.4 M03 S255 F650
G01 X13.74 Y29.14 M03 S0 F2000
G01 Z0 F300
G01 X14.61 Y29.2 M03 S255 F650
G01 X12.86 Y29.2 M03 S0 F2000
G01 Z0 F300
G01 X13.74 Y29.14 M03 S255 F650
G01 X12.04 Y29.4 M03 S0 F2000
G01 Z0 F300
G01 X12.86 Y29.2 M03 S255 F650
G01 X11.33 Y29.71 M03 S0 F2000
G01 Z0 F300
G01 X12.04 Y29.4 M03 S255 F650
G01 X10.8 Y30.11 M03 S0 F2000
G01 Z0 F300
G01 X11.33 Y29.71 M03 S255 F650
G01 X10.45 Y30.59 M03 S0 F2000
G01 Z0 F300
G01 X10.8 Y30.11 M03 S255 F650
G01 X10.34 Y31.09 M03 S0 F2000
G01 Z0 F300
G01 X10.45 Y30.59 M03 S255 F650
G01 X10.45 Y31.6 M03 S0 F2000
G01 Z0 F300
G01 X10.34 Y31.09 M03 S255 F650
G01 X10.8 Y32.08 M03 S0 F2000
G01 Z0 F300
G01 X10.45 Y31.6 M03 S255 F650
G01 X11.33 Y32.48 M03 S0 F2000
G01 Z0 F300
G01 X10.8 Y32.08 M03 S255 F650
G01 X12.04 Y32.79 M03 S0 F2000
G01 Z0 F300
G01 X11.33 Y32.48 M03 S255 F650
G01 X12.86 Y32.99 M03 S0 F2000
G01 Z0 F300
G01 X12.04 Y32.79 M03 S255 F650
G01 X13.74 Y33.05 M03 S0 F2000
G01 Z0 F300
G01 X12.86 Y32.99 M03 S255 F650
G01 X14.61 Y32.99 M03 S0 F2000
G01 Z0 F300
G01 X13.74 Y33.05 M03 S255 F650
G01 X15.44 Y32.79 M03 S0 F2000
G01 Z0 F300
G01 X14.61 Y32.99 M03 S255 F650
G01 X16.15 Y32.48 M03 S0 F2000
G01 Z0 F300
G01 X15.44 Y32.79 M03 S255 F650
G01 X16.69 Y32.08 M03 S0 F2000
G01 Z0 F300
G01 X16.15 Y32.48 M03 S255 F650
G01 X17.04 Y31.6 M03 S0 F2000
G01 Z0 F300
G01 X16.69 Y32.08 M03 S255 F650
G01 X17.15 Y31.09 M03 S0 F2000
G01 Z0 F300
G01 X17.04 Y31.6 M03 S255 F650
G01 X17.14 Y31.09 M03 S0 F2000
G01 Z0 F300
G01 X17.14 Y31.09 M03 S255 F650
G01 X0.04 Y26.75 M03 S0 F2000
G01 Z0 F300
G01 X0.05 Y27.24 M03 S255 F650
G01 X0.11 Y26.36 M03 S0 F2000
G01 Z0 F300
G01 X0.04 Y26.75 M03 S255 F650
G01 X0.26 Y26.06 M03 S0 F2000
G01 Z0 F300
G01 X0.11 Y26.36 M03 S255 F650
G01 X0.48 Y25.85 M03 S0 F2000
G01 Z0 F300
G01 X0.26 Y26.06 M03 S255 F650
G01 X1.05 Y25.6 M03 S0 F2000
G01 Z0 F300
G01 X0.48 Y25.85 M03 S255 F650
G01 X1.75 Y25.49 M03 S0 F2000
G01 Z0 F300
G01 X1.05 Y25.6 M03 S255 F650
G01 X2.45 Y25.41 M03 S0 F2000
G01 Z0 F300
G01 X1.75 Y25.49 M03 S255 F650
G01 X3.1 Y25.25 M03 S0 F2000
G01 Z0 F300
G01 X2.45 Y25.41 M03 S255 F650
G01 X3.36 Y25.1 M03 S0 F2000
G01 Z0 F300
G01 X3.1 Y25.25 M03 S255 F650
G01 X3.56 Y24.89 M03 S0 F2000
G01 Z0 F300
G01 X3.36 Y25.1 M03 S255 F650
G01 X3.71 Y24.6 M03 S0 F2000
G01 Z0 F300
G01 X3.56 Y24.89 M03 S255 F650
G01 X3.78 Y24.23 M03 S0 F2000
G01 Z0 F300
G01 X3.71 Y24.6 M03 S255 F650
G01 X3.78 Y23.84 M03 S0 F2000
G01 Z0 F300
G01 X3.78 Y24.23 M03 S255 F650
G01 X3.74 Y23.35 M03 S0 F2000
G01 Z0 F300
G01 X3.78 Y23.84 M03 S255 F650
G01 X3.66 Y22.79 M03 S0 F2000
G01 Z0 F300
G01 X3.74 Y23.35 M03 S255 F650
G01 X3.56 Y22.15 M03 S0 F2000
G01 Z0 F300
G01 X3.66 Y22.79 M03 S255 F650
G01 X3.29 Y20.78 M03 S0 F2000
G01 Z0 F300
G01 X3.56 Y22.15 M03 S255 F650
G01 X2.98 Y19.34 M03 S0 F2000
G01 Z0 F300
G01 X3.29 Y20.78 M03 S255 F650
G01 X2.65 Y18 M03 S0 F2000
G01 Z0 F300
G01 X2.98 Y19.34 M03 S255 F650
G01 X2.5 Y17.4 M03 S0 F2000
G01 Z0 F300
G01 X2.65 Y18 M03 S255 F650
G01 X2.36 Y16.86 M03 S0 F2000
G01 Z0 F300
G01 X2.5 Y17.4 M03 S255 F650
G01 X2.25 Y16.43 M03 S0 F2000
G01 Z0 F300
G01 X2.36 Y16.86 M03 S255 F650
G01 X2.16 Y16.09 M03 S0 F2000
G01 Z0 F300
G01 X2.25 Y16.43 M03 S255 F650
G01 X2.11 Y15.88 M03 S0 F2000
G01 Z0 F300
G01 X2.16 Y16.09 M03 S255 F650
G01 X2.09 Y15.8 M03 S0 F2000
G01 Z0 F300
G01 X2.11 Y15.88 M03 S255 F650
G01 X42.09 Y26.55 M03 S0 F2000
G01 Z0 F300
G01 X42.06 Y26.5 M03 S255 F650
G01 X42.18 Y26.7 M03 S0 F2000
G01 Z0 F300
G01 X42.09 Y26.55 M03 S255 F650
G01 X42.31 Y26.93 M03 S0 F2000
G01 Z0 F300
G01 X42.18 Y26.7 M03 S255 F650
G01 X42.5 Y27.24 M03 S0 F2000
G01 Z0 F300
G01 X42.31 Y26.93 M03 S255 F650
G01 X42.99 Y28.03 M03 S0 F2000
G01 Z0 F300
G01 X42.5 Y27.24 M03 S255 F650
G01 X43.59 Y28.99 M03 S0 F2000
G01 Z0 F300
G01 X42.99 Y28.03 M03 S255 F650
G01 X44.28 Y30.04 M03 S0 F2000
G01 Z0 F300
G01 X43.59 Y28.99 M03 S255 F650
G01 X44.99 Y31.08 M03 S0 F2000
G01 Z0 F300
G01 X44.28 Y30.04 M03 S255 F650
G01 X45.69 Y32.04 M03 S0 F2000
G01 Z0 F300
G01 X44.99 Y31.08 M03 S255 F650
G01 X46.33 Y32.83 M03 S0 F2000
G01 Z0 F300
G01 X45.69 Y32.04 M03 S255 F650
G01 X46.91 Y33.41 M03 S0 F2000
G01 Z0 F300
G01 X46.33 Y32.83 M03 S255 F650
G01 X47.63 Y34.03 M03 S0 F2000
G01 Z0 F300
G01 X46.91 Y33.41 M03 S255 F650
G01 X49.15 Y35.19 M03 S0 F2000
G01 Z0 F300
G01 X47.63 Y34.03 M03 S255 F650
G01 X49.85 Y35.69 M03 S0 F2000
G01 Z0 F300
G01 X49.15 Y35.19 M03 S255 F650
G01 X50.43 Y36.08 M03 S0 F2000
G01 Z0 F300
G01 X49.85 Y35.69 M03 S255 F650
G01 X50.83 Y36.34 M03 S0 F2000
G01 Z0 F300
G01 X50.43 Y36.08 M03 S255 F650
G01 X50.93 Y36.4 M03 S0 F2000
G01 Z0 F300
G01 X50.83 Y36.34 M03 S255 F650
G01 X50.96 Y36.43 M03 S0 F2000
G01 Z0 F300
G01 X50.93 Y36.4 M03 S255 F650
G01 Z0 F300
G01 X50.96 Y36.43 M03 S255 F650
G01 X51.15 Y36.53 M03 S0 F2000
G01 Z0 F300
G01 X51.01 Y36.45 M03 S255 F650
G01 X51.36 Y36.65 M03 S0 F2000
G01 Z0 F300
G01 X51.15 Y36.53 M03 S255 F650
G01 X51.65 Y36.8 M03 S0 F2000
G01 Z0 F300
G01 X51.36 Y36.65 M03 S255 F650
G01 X52.41 Y37.2 M03 S0 F2000
G01 Z0 F300
G01 X51.65 Y36.8 M03 S255 F650
G01 X53.35 Y37.68 M03 S0 F2000
G01 Z0 F300
G01 X52.41 Y37.2 M03 S255 F650
G01 X54.4 Y38.18 M03 S0 F2000
G01 Z0 F300
G01 X53.35 Y37.68 M03 S255 F650
G01 X55.5 Y38.65 M03 S0 F2000
G01 Z0 F300
G01 X54.4 Y38.18 M03 S255 F650
G01 X56.56 Y39.08 M03 S0 F2000
G01 Z0 F300
G01 X55.5 Y38.65 M03 S255 F650
G01 X57.53 Y39.38 M03 S0 F2000
G01 Z0 F300
G01 X56.56 Y39.08 M03 S255 F650
G01 X58.1 Y39.51 M03 S0 F2000
G01 Z0 F300
G01 X57.53 Y39.38 M03 S255 F650
G01 X58.74 Y39.64 M03 S0 F2000
G01 Z0 F300
G01 X58.1 Y39.51 M03 S255 F650
G01 X60.15 Y39.86 M03 S0 F2000
G01 Z0 F300
G01 X58.74 Y39.64 M03 S255 F650
G01 X61.66 Y40.06 M03 S0 F2000
G01 Z0 F300
G01 X60.15 Y39.86 M03 S255 F650
G01 X63.15 Y40.23 M03 S0 F2000
G01 Z0 F300
G01 X61.66 Y40.06 M03 S255 F650
G01 X64.5 Y40.34 M03 S0 F2000
G01 Z0 F300
G01 X63.15 Y40.23 M03 S255 F650
G01 X65.09 Y40.39 M03 S0 F2000
G01 Z0 F300
G01 X64.5 Y40.34 M03 S255 F650
G01 X65.6 Y40.43 M03 S0 F2000
G01 Z0 F300
G01 X65.09 Y40.39 M03 S255 F650
G01 X66.02 Y40.46 M03 S0 F2000
G01 Z0 F300
G01 X65.6 Y40.43 M03 S255 F650
G01 X66.35 Y40.49 M03 S0 F2000
G01 Z0 F300
G01 X66.02 Y40.46 M03 S255 F650
G01 X66.55 Y40.5 M03 S0 F2000
G01 Z0 F300
G01 X66.35 Y40.49 M03 S255 F650
G01 X66.63 Y40.5 M03 S0 F2000
G01 Z0 F300
G01 X66.55 Y40.5 M03 S255 F650
G01 Z0 F300
G01 X79.34 Y40.68 M03 S255 F650
G01 Z0 F300
G01 X72.65 Y37.5 M03 S255 F650
G01 Z0 F300
G01 X81.72 Y36.15 M03 S255 F650
G01 Z0 F300
G01 X81.73 Y36.16 M03 S255 F650
G01 X81.56 Y36.05 M03 S0 F2000
G01 Z0 F300
G01 X81.69 Y36.14 M03 S255 F650
G01 X81.14 Y35.75 M03 S0 F2000
G01 Z0 F300
G01 X81.56 Y36.05 M03 S255 F650
G01 X80.5 Y35.31 M03 S0 F2000
G01 Z0 F300
G01 X81.14 Y35.75 M03 S255 F650
G01 X79.75 Y34.76 M03 S0 F2000
G01 Z0 F300
G01 X80.5 Y35.31 M03 S255 F650
G01 X78.95 Y34.16 M03 S0 F2000
G01 Z0 F300
G01 X79.75 Y34.76 M03 S255 F650
G01 X78.18 Y33.56 M03 S0 F2000
G01 Z0 F300
G01 X78.95 Y34.16 M03 S255 F650
G01 X77.5 Y32.99 M03 S0 F2000
G01 Z0 F300
G01 X78.18 Y33.56 M03 S255 F650
G01 X76.99 Y32.5 M03 S0 F2000
G01 Z0 F300
G01 X77.5 Y32.99 M03 S255 F650
G01 X76.83 Y32.25 M03 S0 F2000
G01 Z0 F300
G01 X76.99 Y32.5 M03 S255 F650
G01 X76.73 Y31.99 M03 S0 F2000
G01 Z0 F300
G01 X76.83 Y32.25 M03 S255 F650
G01 X76.7 Y31.45 M03 S0 F2000
G01 Z0 F300
G01 X76.73 Y31.99 M03 S255 F650
G01 X76.79 Y31.04 M03 S0 F2000
G01 Z0 F300
G01 X76.7 Y31.45 M03 S255 F650
G01 X76.83 Y30.91 M03 S0 F2000
G01 Z0 F300
G01 X76.79 Y31.04 M03 S255 F650
G01 X76.84 Y30.86 M03 S0 F2000
G01 Z0 F300
G01 X76.83 Y30.91 M03 S255 F650
G01 X76.91 Y30.8 M03 S0 F2000
G01 Z0 F300
G01 X76.84 Y30.86 M03 S255 F650
G01 X77.13 Y30.63 M03 S0 F2000
G01 Z0 F300
G01 X76.91 Y30.8 M03 S255 F650
G01 X77.41 Y30.36 M03 S0 F2000
G01 Z0 F300
G01 X77.13 Y30.63 M03 S255 F650
G01 X77.73 Y30.04 M03 S0 F2000
G01 Z0 F300
G01 X77.41 Y30.36 M03 S255 F650
G01 X78 Y29.66 M03 S0 F2000
G01 Z0 F300
G01 X77.73 Y30.04 M03 S255 F650
G01 X78.21 Y29.25 M03 S0 F2000
G01 Z0 F300
G01 X78 Y29.66 M03 S255 F650
G01 X78.3 Y28.85 M03 S0 F2000
G01 Z0 F300
G01 X78.21 Y29.25 M03 S255 F650
G01 X78.2 Y28.45 M03 S0 F2000
G01 Z0 F300
G01 X78.3 Y28.85 M03 S255 F650
G01 X78.01 Y28.16 M03 S0 F2000
G01 Z0 F300
G01 X78.2 Y28.45 M03 S255 F650
G01 X77.74 Y27.83 M03 S0 F2000
G01 Z0 F300
G01 X78.01 Y28.16 M03 S255 F650
G01 X77.02 Y27.08 M03 S0 F2000
G01 Z0 F300
G01 X77.74 Y27.83 M03 S255 F650
G01 X76.16 Y26.26 M03 S0 F2000
G01 Z0 F300
G01 X77.02 Y27.08 M03 S255 F650
G01 X75.23 Y25.45 M03 S0 F2000
G01 Z0 F300
G01 X76.16 Y26.26 M03 S255 F650
G01 X74.33 Y24.71 M03 S0 F2000
G01 Z0 F300
G01 X75.23 Y25.45 M03 S255 F650
G01 X73.56 Y24.1 M03 S0 F2000
G01 Z0 F300
G01 X74.33 Y24.71 M03 S255 F650
G01 X73.26 Y23.86 M03 S0 F2000
G01 Z0 F300
G01 X73.56 Y24.1 M03 S255 F650
G01 X73.04 Y23.69 M03 S0 F2000
G01 Z0 F300
G01 X73.26 Y23.86 M03 S255 F650
G01 X72.89 Y23.58 M03 S0 F2000
G01 Z0 F300
G01 X73.04 Y23.69 M03 S255 F650
G01 X72.84 Y23.54 M03 S0 F2000
G01 Z0 F300
G01 X72.89 Y23.58 M03 S255 F650
G01 Z0 F300
G01 X72.84 Y23.54 M03 S255 F650
G01 X72.74 Y23.39 M03 S0 F2000
G01 Z0 F300
G01 X72.81 Y23.5 M03 S255 F650
G01 X72.54 Y23.01 M03 S0 F2000
G01 Z0 F300
G01 X72.74 Y23.39 M03 S255 F650
G01 X72.33 Y22.51 M03 S0 F2000
G01 Z0 F300
G01 X72.54 Y23.01 M03 S255 F650
G01 X72.23 Y21.99 M03 S0 F2000
G01 Z0 F300
G01 X72.33 Y22.51 M03 S255 F650
G01 X72.25 Y21.55 M03 S0 F2000
G01 Z0 F300
G01 X72.23 Y21.99 M03 S255 F650
G01 X72.31 Y21.01 M03 S0 F2000
G01 Z0 F300
G01 X72.25 Y21.55 M03 S255 F650
G01 X72.5 Y19.86 M03 S0 F2000
G01 Z0 F300
G01 X72.31 Y21.01 M03 S255 F650
G01 X72.6 Y19.33 M03 S0 F2000
G01 Z0 F300
G01 X72.5 Y19.86 M03 S255 F650
G01 X72.7 Y18.89 M03 S0 F2000
G01 Z0 F300
G01 X72.6 Y19.33 M03 S255 F650
G01 X72.76 Y18.6 M03 S0 F2000
G01 Z0 F300
G01 X72.7 Y18.89 M03 S255 F650
G01 X72.79 Y18.49 M03 S0 F2000
G01 Z0 F300
G01 X72.76 Y18.6 M03 S255 F650
G01 X72.88 Y18.35 M03 S0 F2000
G01 Z0 F300
G01 X72.79 Y18.49 M03 S255 F650
G01 X73.13 Y17.99 M03 S0 F2000
G01 Z0 F300
G01 X72.88 Y18.35 M03 S255 F650
G01 X73.49 Y17.44 M03 S0 F2000
G01 Z0 F300
G01 X73.13 Y17.99 M03 S255 F650
G01 X73.91 Y16.78 M03 S0 F2000
G01 Z0 F300
G01 X73.49 Y17.44 M03 S255 F650
G01 X74.79 Y15.35 M03 S0 F2000
G01 Z0 F300
G01 X73.91 Y16.78 M03 S255 F650
G01 X75.15 Y14.69 M03 S0 F2000
G01 Z0 F300
G01 X74.79 Y15.35 M03 S255 F650
G01 X75.41 Y14.15 M03 S0 F2000
G01 Z0 F300
G01 X75.15 Y14.69 M03 S255 F650
G01 X75.58 Y13.45 M03 S0 F2000
G01 Z0 F300
G01 X75.41 Y14.15 M03 S255 F650
G01 X75.56 Y12.81 M03 S0 F2000
G01 Z0 F300
G01 X75.58 Y13.45 M03 S255 F650
G01 X75.49 Y12.33 M03 S0 F2000
G01 Z0 F300
G01 X75.56 Y12.81 M03 S255 F650
G01 X75.45 Y12.19 M03 S0 F2000
G01 Z0 F300
G01 X75.49 Y12.33 M03 S255 F650
G01 X75.44 Y12.14 M03 S0 F2000
G01 Z0 F300
G01 X75.45 Y12.19 M03 S255 F650
G01 X75.34 Y12.18 M03 S0 F2000
G01 Z0 F300
G01 X75.44 Y12.14 M03 S255 F650
G01 X75.06 Y12.31 M03 S0 F2000
G01 Z0 F300
G01 X75.34 Y12.18 M03 S255 F650
G01 X74.6 Y12.54 M03 S0 F2000
G01 Z0 F300
G01 X75.06 Y12.31 M03 S255 F650
G01 X73.98 Y12.89 M03 S0 F2000
G01 Z0 F300
G01 X74.6 Y12.54 M03 S255 F650
G01 X73.64 Y13.09 M03 S0 F2000
G01 Z0 F300
G01 X73.98 Y12.89 M03 S255 F650
G01 X73.15 Y13.38 M03 S0 F2000
G01 Z0 F300
G01 X73.64 Y13.09 M03 S255 F650
G01 X72.59 Y13.73 M03 S0 F2000
G01 Z0 F300
G01 X73.15 Y13.38 M03 S255 F650
G01 X72 Y14.08 M03 S0 F2000
G01 Z0 F300
G01 X72.59 Y13.73 M03 S255 F650
G01 X71.45 Y14.41 M03 S0 F2000
G01 Z0 F300
G01 X72 Y14.08 M03 S255 F650
G01 X70.98 Y14.7 M03 S0 F2000
G01 Z0 F300
G01 X71.45 Y14.41 M03 S255 F650
G01 X70.66 Y14.89 M03 S0 F2000
G01 Z0 F300
G01 X70.98 Y14.7 M03 S255 F650
G01 X70.54 Y14.96 M03 S0 F2000
G01 Z0 F300
G01 X70.66 Y14.89 M03 S255 F650
G01 X70.56 Y14.88 M03 S0 F2000
G01 Z0 F300
G01 X70.54 Y14.96 M03 S255 F650
G01 X70.64 Y14.63 M03 S0 F2000
G01 Z0 F300
G01 X70.56 Y14.88 M03 S255 F650
G01 X70.74 Y14.25 M03 S0 F2000
G01 Z0 F300
G01 X70.64 Y14.63 M03 S255 F650
G01 X70.85 Y13.79 M03 S0 F2000
G01 Z0 F300
G01 X70.74 Y14.25 M03 S255 F650
G01 X71.06 Y12.7 M03 S0 F2000
G01 Z0 F300
G01 X70.85 Y13.79 M03 S255 F650
G01 X71.15 Y11.61 M03 S0 F2000
G01 Z0 F300
G01 X71.06 Y12.7 M03 S255 F650
G01 X71.11 Y11.08 M03 S0 F2000
G01 Z0 F300
G01 X71.15 Y11.61 M03 S255 F650
G01 X71.04 Y10.41 M03 S0 F2000
G01 Z0 F300
G01 X71.11 Y11.08 M03 S255 F650
G01 X70.79 Y8.99 M03 S0 F2000
G01 Z0 F300
G01 X71.04 Y10.41 M03 S255 F650
G01 X70.65 Y8.33 M03 S0 F2000
G01 Z0 F300
G01 X70.79 Y8.99 M03 S255 F650
G01 X70.54 Y7.79 M03 S0 F2000
G01 Z0 F300
G01 X70.65 Y8.33 M03 S255 F650
G01 X70.45 Y7.43 M03 S0 F2000
G01 Z0 F300
G01 X70.54 Y7.79 M03 S255 F650
G01 X70.43 Y7.29 M03 S0 F2000
G01 Z0 F300
G01 X70.45 Y7.43 M03 S255 F650
G01 Z0 F300
G01 X70.43 Y7.29 M03 S255 F650
G01 X70.33 Y7.61 M03 S0 F2000
G01 Z0 F300
G01 X70.4 Y7.38 M03 S255 F650
G01 X70.21 Y7.95 M03 S0 F2000
G01 Z0 F300
G01 X70.33 Y7.61 M03 S255 F650
G01 X70.08 Y8.38 M03 S0 F2000
G01 Z0 F300
G01 X70.21 Y7.95 M03 S255 F650
G01 X69.73 Y9.3 M03 S0 F2000
G01 Z0 F300
G01 X70.08 Y8.38 M03 S255 F650
G01 X69.54 Y9.74 M03 S0 F2000
G01 Z0 F300
G01 X69.73 Y9.3 M03 S255 F650
G01 X69.34 Y10.1 M03 S0 F2000
G01 Z0 F300
G01 X69.54 Y9.74 M03 S255 F650
G01 X69.08 Y10.49 M03 S0 F2000
G01 Z0 F300
G01 X69.34 Y10.1 M03 S255 F650
G01 X68.75 Y10.9 M03 S0 F2000
G01 Z0 F300
G01 X69.08 Y10.49 M03 S255 F650
G01 X68.02 Y11.74 M03 S0 F2000
G01 Z0 F300
G01 X68.75 Y10.9 M03 S255 F650
G01 X67.69 Y12.1 M03 S0 F2000
G01 Z0 F300
G01 X68.02 Y11.74 M03 S255 F650
G01 X67.41 Y12.4 M03 S0 F2000
G01 Z0 F300
G01 X67.69 Y12.1 M03 S255 F650
G01 X67.23 Y12.59 M03 S0 F2000
G01 Z0 F300
G01 X67.41 Y12.4 M03 S255 F650
G01 X67.15 Y12.66 M03 S0 F2000
G01 Z0 F300
G01 X67.23 Y12.59 M03 S255 F650
G01 Z0 F300
G01 X67.15 Y12.66 M03 S255 F650
G01 X67.1 Y12.25 M03 S0 F2000
G01 Z0 F300
G01 X67.14 Y12.55 M03 S255 F650
G01 X67.05 Y11.8 M03 S0 F2000
G01 Z0 F300
G01 X67.1 Y12.25 M03 S255 F650
G01 X66.98 Y11.26 M03 S0 F2000
G01 Z0 F300
G01 X67.05 Y11.8 M03 S255 F650
G01 X66.77 Y10.08 M03 S0 F2000
G01 Z0 F300
G01 X66.98 Y11.26 M03 S255 F650
G01 X66.65 Y9.54 M03 S0 F2000
G01 Z0 F300
G01 X66.77 Y10.08 M03 S255 F650
G01 X66.52 Y9.1 M03 S0 F2000
G01 Z0 F300
G01 X66.65 Y9.54 M03 S255 F650
G01 X66.34 Y8.65 M03 S0 F2000
G01 Z0 F300
G01 X66.52 Y9.1 M03 S255 F650
G01 X66.1 Y8.17 M03 S0 F2000
G01 Z0 F300
G01 X66.34 Y8.65 M03 S255 F650
G01 X65.55 Y7.25 M03 S0 F2000
G01 Z0 F300
G01 X66.1 Y8.17 M03 S255 F650
G01 X65.29 Y6.86 M03 S0 F2000
G01 Z0 F300
G01 X65.55 Y7.25 M03 S255 F650
G01 X65.08 Y6.55 M03 S0 F2000
G01 Z0 F300
G01 X65.29 Y6.86 M03 S255 F650
G01 X64.93 Y6.34 M03 S0 F2000
G01 Z0 F300
G01 X65.08 Y6.55 M03 S255 F650
G01 X64.88 Y6.26 M03 S0 F2000
G01 Z0 F300
G01 X64.93 Y6.34 M03 S255 F650
G01 Z0 F300
G01 X64.88 Y6.26 M03 S255 F650
G01 X64.85 Y6.48 M03 S0 F2000
G01 Z0 F300
G01 X64.88 Y6.33 M03 S255 F650
G01 X64.83 Y6.71 M03 S0 F2000
G01 Z0 F300
G01 X64.85 Y6.48 M03 S255 F650
G01 X64.77 Y6.99 M03 S0 F2000
G01 Z0 F300
G01 X64.83 Y6.71 M03 S255 F650
G01 X64.63 Y7.61 M03 S0 F2000
G01 Z0 F300
G01 X64.77 Y6.99 M03 S255 F650
G01 X64.38 Y8.16 M03 S0 F2000
G01 Z0 F300
G01 X64.63 Y7.61 M03 S255 F650
G01 X64.19 Y8.39 M03 S0 F2000
G01 Z0 F300
G01 X64.38 Y8.16 M03 S255 F650
G01 X63.93 Y8.64 M03 S0 F2000
G01 Z0 F300
G01 X64.19 Y8.39 M03 S255 F650
G01 X63.31 Y9.14 M03 S0 F2000
G01 Z0 F300
G01 X63.93 Y8.64 M03 S255 F650
G01 X63.01 Y9.36 M03 S0 F2000
G01 Z0 F300
G01 X63.31 Y9.14 M03 S255 F650
G01 X62.76 Y9.54 M03 S0 F2000
G01 Z0 F300
G01 X63.01 Y9.36 M03 S255 F650
G01 X62.59 Y9.66 M03 S0 F2000
G01 Z0 F300
G01 X62.76 Y9.54 M03 S255 F650
G01 X62.53 Y9.7 M03 S0 F2000
G01 Z0 F300
G01 X62.59 Y9.66 M03 S255 F650
G01 X62.48 Y9.75 M03 S0 F2000
G01 Z0 F300
G01 X62.53 Y9.7 M03 S255 F650
G01 X62.33 Y9.88 M03 S0 F2000
G01 Z0 F300
G01 X62.48 Y9.75 M03 S255 F650
G01 X62.1 Y10.05 M03 S0 F2000
G01 Z0 F300
G01 X62.33 Y9.88 M03 S255 F650
G01 X61.81 Y10.25 M03 S0 F2000
G01 Z0 F300
G01 X62.1 Y10.05 M03 S255 F650
G01 X61.09 Y10.65 M03 S0 F2000
G01 Z0 F300
G01 X61.81 Y10.25 M03 S255 F650
G01 X60.69 Y10.8 M03 S0 F2000
G01 Z0 F300
G01 X61.09 Y10.65 M03 S255 F650
G01 X60.28 Y10.89 M03 S0 F2000
G01 Z0 F300
G01 X60.69 Y10.8 M03 S255 F650
G01 X59.89 Y10.89 M03 S0 F2000
G01 Z0 F300
G01 X60.28 Y10.89 M03 S255 F650
G01 X59.39 Y10.84 M03 S0 F2000
G01 Z0 F300
G01 X59.89 Y10.89 M03 S255 F650
G01 X58.25 Y10.64 M03 S0 F2000
G01 Z0 F300
G01 X59.39 Y10.84 M03 S255 F650
G01 X57.7 Y10.51 M03 S0 F2000
G01 Z0 F300
G01 X58.25 Y10.64 M03 S255 F650
G01 X57.25 Y10.41 M03 S0 F2000
G01 Z0 F300
G01 X57.7 Y10.51 M03 S255 F650
G01 X56.94 Y10.34 M03 S0 F2000
G01 Z0 F300
G01 X57.25 Y10.41 M03 S255 F650
G01 X56.83 Y10.31 M03 S0 F2000
G01 Z0 F300
G01 X56.94 Y10.34 M03 S255 F650
G01 X56.75 Y10.31 M03 S0 F2000
G01 Z0 F300
G01 X56.83 Y10.31 M03 S255 F650
G01 X56.54 Y10.3 M03 S0 F2000
G01 Z0 F300
G01 X56.75 Y10.31 M03 S255 F650
G01 X56.21 Y10.29 M03 S0 F2000
G01 Z0 F300
G01 X56.54 Y10.3 M03 S255 F650
G01 X55.79 Y10.28 M03 S0 F2000
G01 Z0 F300
G01 X56.21 Y10.29 M03 S255 F650
G01 X55.26 Y10.26 M03 S0 F2000
G01 Z0 F300
G01 X55.79 Y10.28 M03 S255 F650
G01 X54.68 Y10.25 M03 S0 F2000
G01 Z0 F300
G01 X55.26 Y10.26 M03 S255 F650
G01 X53.36 Y10.25 M03 S0 F2000
G01 Z0 F300
G01 X54.68 Y10.25 M03 S255 F650
G01 X51.95 Y10.28 M03 S0 F2000
G01 Z0 F300
G01 X53.36 Y10.25 M03 S255 F650
G01 X50.59 Y10.35 M03 S0 F2000
G01 Z0 F300
G01 X51.95 Y10.28 M03 S255 F650
G01 X49.96 Y10.41 M03 S0 F2000
G01 Z0 F300
G01 X50.59 Y10.35 M03 S255 F650
G01 X49.4 Y10.49 M03 S0 F2000
G01 Z0 F300
G01 X49.96 Y10.41 M03 S255 F650
G01 X48.91 Y10.59 M03 S0 F2000
G01 Z0 F300
G01 X49.4 Y10.49 M03 S255 F650
G01 X48.51 Y10.7 M03 S0 F2000
G01 Z0 F300
G01 X48.91 Y10.59 M03 S255 F650
G01 X47.64 Y11.15 M03 S0 F2000
G01 Z0 F300
G01 X48.51 Y10.7 M03 S255 F650
G01 X46.81 Y11.76 M03 S0 F2000
G01 Z0 F300
G01 X47.64 Y11.15 M03 S255 F650
G01 X46.06 Y12.48 M03 S0 F2000
G01 Z0 F300
G01 X46.81 Y11.76 M03 S255 F650
G01 X45.41 Y13.23 M03 S0 F2000
G01 Z0 F300
G01 X46.06 Y12.48 M03 S255 F650
G01 X44.86 Y13.93 M03 S0 F2000
G01 Z0 F300
G01 X45.41 Y13.23 M03 S255 F650
G01 X44.45 Y14.51 M03 S0 F2000
G01 Z0 F300
G01 X44.86 Y13.93 M03 S255 F650
G01 X44.19 Y14.93 M03 S0 F2000
G01 Z0 F300
G01 X44.45 Y14.51 M03 S255 F650
G01 X44.13 Y15.04 M03 S0 F2000
G01 Z0 F300
G01 X44.19 Y14.93 M03 S255 F650
G01 X44.1 Y15.08 M03 S0 F2000
G01 Z0 F300
G01 X44.13 Y15.04 M03 S255 F650
G01 X59.09 Y29.96 M03 S0 F2000
G01 Z0 F300
G01 X59.16 Y30.36 M03 S255 F650
G01 X58.9 Y29.6 M03 S0 F2000
G01 Z0 F300
G01 X59.09 Y29.96 M03 S255 F650
G01 X58.58 Y29.26 M03 S0 F2000
G01 Z0 F300
G01 X58.9 Y29.6 M03 S255 F650
G01 X58.16 Y28.98 M03 S0 F2000
G01 Z0 F300
G01 X58.58 Y29.26 M03 S255 F650
G01 X57.66 Y28.74 M03 S0 F2000
G01 Z0 F300
G01 X58.16 Y28.98 M03 S255 F650
G01 X57.09 Y28.56 M03 S0 F2000
G01 Z0 F300
G01 X57.66 Y28.74 M03 S255 F650
G01 X56.45 Y28.45 M03 S0 F2000
G01 Z0 F300
G01 X57.09 Y28.56 M03 S255 F650
G01 X55.76 Y28.41 M03 S0 F2000
G01 Z0 F300
G01 X56.45 Y28.45 M03 S255 F650
G01 X55.08 Y28.45 M03 S0 F2000
G01 Z0 F300
G01 X55.76 Y28.41 M03 S255 F650
G01 X54.44 Y28.56 M03 S0 F2000
G01 Z0 F300
G01 X55.08 Y28.45 M03 S255 F650
G01 X53.85 Y28.74 M03 S0 F2000
G01 Z0 F300
G01 X54.44 Y28.56 M03 S255 F650
G01 X53.35 Y28.98 M03 S0 F2000
G01 Z0 F300
G01 X53.85 Y28.74 M03 S255 F650
G01 X52.94 Y29.26 M03 S0 F2000
G01 Z0 F300
G01 X53.35 Y28.98 M03 S255 F650
G01 X52.61 Y29.6 M03 S0 F2000
G01 Z0 F300
G01 X52.94 Y29.26 M03 S255 F650
G01 X52.43 Y29.96 M03 S0 F2000
G01 Z0 F300
G01 X52.61 Y29.6 M03 S255 F650
G01 X52.35 Y30.36 M03 S0 F2000
G01 Z0 F300
G01 X52.43 Y29.96 M03 S255 F650
G01 X52.46 Y30.88 M03 S0 F2000
G01 Z0 F300
G01 X52.35 Y30.36 M03 S255 F650
G01 X52.81 Y31.34 M03 S0 F2000
G01 Z0 F300
G01 X52.46 Y30.88 M03 S255 F650
G01 X53.34 Y31.74 M03 S0 F2000
G01 Z0 F300
G01 X52.81 Y31.34 M03 S255 F650
G01 X54.05 Y32.05 M03 S0 F2000
G01 Z0 F300
G01 X53.34 Y31.74 M03 S255 F650
G01 X54.89 Y32.25 M03 S0 F2000
G01 Z0 F300
G01 X54.05 Y32.05 M03 S255 F650
G01 X55.76 Y32.31 M03 S0 F2000
G01 Z0 F300
G01 X54.89 Y32.25 M03 S255 F650
G01 X56.63 Y32.25 M03 S0 F2000
G01 Z0 F300
G01 X55.76 Y32.31 M03 S255 F650
G01 X57.46 Y32.05 M03 S0 F2000
G01 Z0 F300
G01 X56.63 Y32.25 M03 S255 F650
G01 X58.18 Y31.74 M03 S0 F2000
G01 Z0 F300
G01 X57.46 Y32.05 M03 S255 F650
G01 X58.71 Y31.34 M03 S0 F2000
G01 Z0 F300
G01 X58.18 Y31.74 M03 S255 F650
G01 X59.05 Y30.88 M03 S0 F2000
G01 Z0 F300
G01 X58.71 Y31.34 M03 S255 F650
G01 X59.16 Y30.36 M03 S0 F2000
G01 Z0 F300
G01 X59.05 Y30.88 M03 S255 F650
G01 X59.15 Y30.35 M03 S0 F2000
G01 Z0 F300
G01 X59.15 Y30.35 M03 S255 F650
G01 X42.05 Y26.01 M03 S0 F2000
G01 Z0 F300
G01 X42.06 Y26.5 M03 S255 F650
G01 X42.13 Y25.63 M03 S0 F2000
G01 Z0 F300
G01 X42.05 Y26.01 M03 S255 F650
G01 X42.28 Y25.33 M03 S0 F2000
G01 Z0 F300
G01 X42.13 Y25.63 M03 S255 F650
G01 X42.49 Y25.11 M03 S0 F2000
G01 Z0 F300
G01 X42.28 Y25.33 M03 S255 F650
G01 X43.06 Y24.86 M03 S0 F2000
G01 Z0 F300
G01 X42.49 Y25.11 M03 S255 F650
G01 X43.76 Y24.75 M03 S0 F2000
G01 Z0 F300
G01 X43.06 Y24.86 M03 S255 F650
G01 X44.48 Y24.68 M03 S0 F2000
G01 Z0 F300
G01 X43.76 Y24.75 M03 S255 F650
G01 X45.11 Y24.51 M03 S0 F2000
G01 Z0 F300
G01 X44.48 Y24.68 M03 S255 F650
G01 X45.38 Y24.38 M03 S0 F2000
G01 Z0 F300
G01 X45.11 Y24.51 M03 S255 F650
G01 X45.59 Y24.16 M03 S0 F2000
G01 Z0 F300
G01 X45.38 Y24.38 M03 S255 F650
G01 X45.74 Y23.88 M03 S0 F2000
G01 Z0 F300
G01 X45.59 Y24.16 M03 S255 F650
G01 X45.8 Y23.5 M03 S0 F2000
G01 Z0 F300
G01 X45.74 Y23.88 M03 S255 F650
G01 X45.8 Y23.11 M03 S0 F2000
G01 Z0 F300
G01 X45.8 Y23.5 M03 S255 F650
G01 X45.75 Y22.63 M03 S0 F2000
G01 Z0 F300
G01 X45.8 Y23.11 M03 S255 F650
G01 X45.68 Y22.05 M03 S0 F2000
G01 Z0 F300
G01 X45.75 Y22.63 M03 S255 F650
G01 X45.58 Y21.43 M03 S0 F2000
G01 Z0 F300
G01 X45.68 Y22.05 M03 S255 F650
G01 X45.3 Y20.04 M03 S0 F2000
G01 Z0 F300
G01 X45.58 Y21.43 M03 S255 F650
G01 X44.99 Y18.61 M03 S0 F2000
G01 Z0 F300
G01 X45.3 Y20.04 M03 S255 F650
G01 X44.66 Y17.26 M03 S0 F2000
G01 Z0 F300
G01 X44.99 Y18.61 M03 S255 F650
G01 X44.51 Y16.66 M03 S0 F2000
G01 Z0 F300
G01 X44.66 Y17.26 M03 S255 F650
G01 X44.38 Y16.14 M03 S0 F2000
G01 Z0 F300
G01 X44.51 Y16.66 M03 S255 F650
G01 X44.26 Y15.7 M03 S0 F2000
G01 Z0 F300
G01 X44.38 Y16.14 M03 S255 F650
G01 X44.18 Y15.36 M03 S0 F2000
G01 Z0 F300
G01 X44.26 Y15.7 M03 S255 F650
G01 X44.13 Y15.15 M03 S0 F2000
G01 Z0 F300
G01 X44.18 Y15.36 M03 S255 F650
G01 X44.1 Y15.08 M03 S0 F2000
G01 Z0 F300
G01 X44.13 Y15.15 M03 S255 F650
G00 M03 S0
M05
G01 X87.46 Y25.69 M03 S0 F2000
M03 S0
G01 Z0.75 F300
G01 X87.44 Y25.74 M03 S255 F650
G01 X87.54 Y25.56 M03 S0 F2000
G01 Z0.75 F300
G01 X87.46 Y25.69 M03 S255 F650
G01 X87.65 Y25.36 M03 S0 F2000
G01 Z0.75 F300
G01 X87.54 Y25.56 M03 S255 F650
G01 X87.8 Y25.09 M03 S0 F2000
G01 Z0.75 F300
G01 X87.65 Y25.36 M03 S255 F650
G01 X88.19 Y24.39 M03 S0 F2000
G01 Z0.75 F300
G01 X87.8 Y25.09 M03 S255 F650
G01 X88.66 Y23.51 M03 S0 F2000
G01 Z0.75 F300
G01 X88.19 Y24.39 M03 S255 F650
G01 X89.15 Y22.54 M03 S0 F2000
G01 Z0.75 F300
G01 X88.66 Y23.51 M03 S255 F650
G01 X89.64 Y21.53 M03 S0 F2000
G01 Z0.75 F300
G01 X89.15 Y22.54 M03 S255 F650
G01 X90.06 Y20.55 M03 S0 F2000
G01 Z0.75 F300
G01 X89.64 Y21.53 M03 S255 F650
G01 X90.38 Y19.68 M03 S0 F2000
G01 Z0.75 F300
G01 X90.06 Y20.55 M03 S255 F650
G01 X90.55 Y19.09 M03 S0 F2000
G01 Z0.75 F300
G01 X90.38 Y19.68 M03 S255 F650
G01 X90.73 Y18.44 M03 S0 F2000
G01 Z0.75 F300
G01 X90.55 Y19.09 M03 S255 F650
G01 X91.05 Y16.99 M03 S0 F2000
G01 Z0.75 F300
G01 X90.73 Y18.44 M03 S255 F650
G01 X91.36 Y15.46 M03 S0 F2000
G01 Z0.75 F300
G01 X91.05 Y16.99 M03 S255 F650
G01 X91.64 Y13.98 M03 S0 F2000
G01 Z0.75 F300
G01 X91.36 Y15.46 M03 S255 F650
G01 X91.86 Y12.61 M03 S0 F2000
G01 Z0.75 F300
G01 X91.64 Y13.98 M03 S255 F650
G01 X91.96 Y12.01 M03 S0 F2000
G01 Z0.75 F300
G01 X91.86 Y12.61 M03 S255 F650
G01 X92.05 Y11.5 M03 S0 F2000
G01 Z0.75 F300
G01 X91.96 Y12.01 M03 S255 F650
G01 X92.11 Y11.08 M03 S0 F2000
G01 Z0.75 F300
G01 X92.05 Y11.5 M03 S255 F650
G01 X92.16 Y10.75 M03 S0 F2000
G01 Z0.75 F300
G01 X92.11 Y11.08 M03 S255 F650
G01 X92.19 Y10.55 M03 S0 F2000
G01 Z0.75 F300
G01 X92.16 Y10.75 M03 S255 F650
G01 X92.2 Y10.48 M03 S0 F2000
G01 Z0.75 F300
G01 X92.19 Y10.55 M03 S255 F650
G01 X92.98 Y9.3 M03 S0 F2000
G01 Z0.75 F300
G01 X92.2 Y10.48 M03 S255 F650
G01 X93.52 Y8.19 M03 S0 F2000
G01 Z0.75 F300
G01 X92.98 Y9.3 M03 S255 F650
G01 X93.85 Y7.15 M03 S0 F2000
G01 Z0.75 F300
G01 X93.52 Y8.19 M03 S255 F650
G01 X93.98 Y6.18 M03 S0 F2000
G01 Z0.75 F300
G01 X93.85 Y7.15 M03 S255 F650
G01 X93.91 Y5.28 M03 S0 F2000
G01 Z0.75 F300
G01 X93.98 Y6.18 M03 S255 F650
G01 X93.68 Y4.44 M03 S0 F2000
G01 Z0.75 F300
G01 X93.91 Y5.28 M03 S255 F650
G01 X93.29 Y3.68 M03 S0 F2000
G01 Z0.75 F300
G01 X93.68 Y4.44 M03 S255 F650
G01 X92.76 Y2.99 M03 S0 F2000
G01 Z0.75 F300
G01 X93.29 Y3.68 M03 S255 F650
G01 X92.13 Y2.36 M03 S0 F2000
G01 Z0.75 F300
G01 X92.76 Y2.99 M03 S255 F650
G01 X91.36 Y1.81 M03 S0 F2000
G01 Z0.75 F300
G01 X92.13 Y2.36 M03 S255 F650
G01 X90.52 Y1.34 M03 S0 F2000
G01 Z0.75 F300
G01 X91.36 Y1.81 M03 S255 F650
G01 X89.61 Y0.94 M03 S0 F2000
G01 Z0.75 F300
G01 X90.52 Y1.34 M03 S255 F650
G01 X88.64 Y0.6 M03 S0 F2000
G01 Z0.75 F300
G01 X89.61 Y0.94 M03 S255 F650
G01 X87.63 Y0.35 M03 S0 F2000
G01 Z0.75 F300
G01 X88.64 Y0.6 M03 S255 F650
G01 X86.58 Y0.16 M03 S0 F2000
G01 Z0.75 F300
G01 X87.63 Y0.35 M03 S255 F650
G01 X85.52 Y0.06 M03 S0 F2000
G01 Z0.75 F300
G01 X86.58 Y0.16 M03 S255 F650
G01 X84.49 Y0.04 M03 S0 F2000
G01 Z0.75 F300
G01 X85.52 Y0.06 M03 S255 F650
G01 X83.48 Y0.09 M03 S0 F2000
G01 Z0.75 F300
G01 X84.49 Y0.04 M03 S255 F650
G01 X82.49 Y0.21 M03 S0 F2000
G01 Z0.75 F300
G01 X83.48 Y0.09 M03 S255 F650
G01 X81.56 Y0.41 M03 S0 F2000
G01 Z0.75 F300
G01 X82.49 Y0.21 M03 S255 F650
G01 X80.71 Y0.7 M03 S0 F2000
G01 Z0.75 F300
G01 X81.56 Y0.41 M03 S255 F650
G01 X79.95 Y1.06 M03 S0 F2000
G01 Z0.75 F300
G01 X80.71 Y0.7 M03 S255 F650
G01 X79.29 Y1.5 M03 S0 F2000
G01 Z0.75 F300
G01 X79.95 Y1.06 M03 S255 F650
G01 X78.75 Y2.03 M03 S0 F2000
G01 Z0.75 F300
G01 X79.29 Y1.5 M03 S255 F650
G01 X78.34 Y2.63 M03 S0 F2000
G01 Z0.75 F300
G01 X78.75 Y2.03 M03 S255 F650
G01 X78.09 Y3.31 M03 S0 F2000
G01 Z0.75 F300
G01 X78.34 Y2.63 M03 S255 F650
G01 X78 Y4.09 M03 S0 F2000
G01 Z0.75 F300
G01 X78.09 Y3.31 M03 S255 F650
G01 X78.1 Y4.94 M03 S0 F2000
G01 Z0.75 F300
G01 X78 Y4.09 M03 S255 F650
G01 X78.4 Y5.88 M03 S0 F2000
G01 Z0.75 F300
G01 X78.1 Y4.94 M03 S255 F650
G01 X78.91 Y6.89 M03 S0 F2000
G01 Z0.75 F300
G01 X78.4 Y5.88 M03 S255 F650
G01 X79.66 Y8 M03 S0 F2000
G01 Z0.75 F300
G01 X78.91 Y6.89 M03 S255 F650
G01 X80.66 Y9.19 M03 S0 F2000
G01 Z0.75 F300
G01 X79.66 Y8 M03 S255 F650
G01 X80.68 Y9.26 M03 S0 F2000
G01 Z0.75 F300
G01 X80.66 Y9.19 M03 S255 F650
G01 X80.69 Y9.49 M03 S0 F2000
G01 Z0.75 F300
G01 X80.68 Y9.26 M03 S255 F650
G01 X80.73 Y9.84 M03 S0 F2000
G01 Z0.75 F300
G01 X80.69 Y9.49 M03 S255 F650
G01 X80.79 Y10.3 M03 S0 F2000
G01 Z0.75 F300
G01 X80.73 Y9.84 M03 S255 F650
G01 X80.85 Y10.86 M03 S0 F2000
G01 Z0.75 F300
G01 X80.79 Y10.3 M03 S255 F650
G01 X80.93 Y11.5 M03 S0 F2000
G01 Z0.75 F300
G01 X80.85 Y10.86 M03 S255 F650
G01 X81.14 Y12.95 M03 S0 F2000
G01 Z0.75 F300
G01 X80.93 Y11.5 M03 S255 F650
G01 X81.39 Y14.54 M03 S0 F2000
G01 Z0.75 F300
G01 X81.14 Y12.95 M03 S255 F650
G01 X81.7 Y16.13 M03 S0 F2000
G01 Z0.75 F300
G01 X81.39 Y14.54 M03 S255 F650
G01 X82.05 Y17.58 M03 S0 F2000
G01 Z0.75 F300
G01 X81.7 Y16.13 M03 S255 F650
G01 X82.25 Y18.21 M03 S0 F2000
G01 Z0.75 F300
G01 X82.05 Y17.58 M03 S255 F650
G01 X82.46 Y18.78 M03 S0 F2000
G01 Z0.75 F300
G01 X82.25 Y18.21 M03 S255 F650
G01 X83 Y19.84 M03 S0 F2000
G01 Z0.75 F300
G01 X82.46 Y18.78 M03 S255 F650
G01 X83.71 Y20.98 M03 S0 F2000
G01 Z0.75 F300
G01 X83 Y19.84 M03 S255 F650
G01 X84.52 Y22.14 M03 S0 F2000
G01 Z0.75 F300
G01 X83.71 Y20.98 M03 S255 F650
G01 X85.38 Y23.25 M03 S0 F2000
G01 Z0.75 F300
G01 X84.52 Y22.14 M03 S255 F650
G01 X86.16 Y24.24 M03 S0 F2000
G01 Z0.75 F300
G01 X85.38 Y23.25 M03 S255 F650
G01 X86.81 Y25.03 M03 S0 F2000
G01 Z0.75 F300
G01 X86.16 Y24.24 M03 S255 F650
G01 X87.08 Y25.33 M03 S0 F2000
G01 Z0.75 F300
G01 X86.81 Y25.03 M03 S255 F650
G01 X87.27 Y25.55 M03 S0 F2000
G01 Z0.75 F300
G01 X87.08 Y25.33 M03 S255 F650
G01 X87.4 Y25.69 M03 S0 F2000
G01 Z0.75 F300
G01 X87.27 Y25.55 M03 S255 F650
G01 X87.44 Y25.74 M03 S0 F2000
G01 Z0.75 F300
G01 X87.4 Y25.69 M03 S255 F650
G01 X0.08 Y27.29 M03 S0 F2000
G01 Z0.75 F300
G01 X0.05 Y27.24 M03 S255 F650
G01 X0.16 Y27.44 M03 S0 F2000
G01 Z0.75 F300
G01 X0.08 Y27.29 M03 S255 F650
G01 X0.3 Y27.66 M03 S0 F2000
G01 Z0.75 F300
G01 X0.16 Y27.44 M03 S255 F650
G01 X0.49 Y27.98 M03 S0 F2000
G01 Z0.75 F300
G01 X0.3 Y27.66 M03 S255 F650
G01 X0.98 Y28.76 M03 S0 F2000
G01 Z0.75 F300
G01 X0.49 Y27.98 M03 S255 F650
G01 X1.58 Y29.73 M03 S0 F2000
G01 Z0.75 F300
G01 X0.98 Y28.76 M03 S255 F650
G01 X2.26 Y30.76 M03 S0 F2000
G01 Z0.75 F300
G01 X1.58 Y29.73 M03 S255 F650
G01 X2.98 Y31.81 M03 S0 F2000
G01 Z0.75 F300
G01 X2.26 Y30.76 M03 S255 F650
G01 X3.68 Y32.76 M03 S0 F2000
G01 Z0.75 F300
G01 X2.98 Y31.81 M03 S255 F650
G01 X4.31 Y33.55 M03 S0 F2000
G01 Z0.75 F300
G01 X3.68 Y32.76 M03 S255 F650
G01 X4.9 Y34.14 M03 S0 F2000
G01 Z0.75 F300
G01 X4.31 Y33.55 M03 S255 F650
G01 X5.61 Y34.76 M03 S0 F2000
G01 Z0.75 F300
G01 X4.9 Y34.14 M03 S255 F650
G01 X7.14 Y35.93 M03 S0 F2000
G01 Z0.75 F300
G01 X5.61 Y34.76 M03 S255 F650
G01 X7.84 Y36.43 M03 S0 F2000
G01 Z0.75 F300
G01 X7.14 Y35.93 M03 S255 F650
G01 X8.41 Y36.81 M03 S0 F2000
G01 Z0.75 F300
G01 X7.84 Y36.43 M03 S255 F650
G01 X8.8 Y37.08 M03 S0 F2000
G01 Z0.75 F300
G01 X8.41 Y36.81 M03 S255 F650
G01 X8.9 Y37.14 M03 S0 F2000
G01 Z0.75 F300
G01 X8.8 Y37.08 M03 S255 F650
G01 X8.94 Y37.16 M03 S0 F2000
G01 Z0.75 F300
G01 X8.9 Y37.14 M03 S255 F650
G01 Z0.75 F300
G01 X8.94 Y37.16 M03 S255 F650
G01 X9.13 Y37.26 M03 S0 F2000
G01 Z0.75 F300
G01 X8.99 Y37.19 M03 S255 F650
G01 X9.34 Y37.39 M03 S0 F2000
G01 Z0.75 F300
G01 X9.13 Y37.26 M03 S255 F650
G01 X9.63 Y37.54 M03 S0 F2000
G01 Z0.75 F300
G01 X9.34 Y37.39 M03 S255 F650
G01 X10.39 Y37.94 M03 S0 F2000
G01 Z0.75 F300
G01 X9.63 Y37.54 M03 S255 F650
G01 X11.34 Y38.41 M03 S0 F2000
G01 Z0.75 F300
G01 X10.39 Y37.94 M03 S255 F650
G01 X12.39 Y38.91 M03 S0 F2000
G01 Z0.75 F300
G01 X11.34 Y38.41 M03 S255 F650
G01 X13.49 Y39.39 M03 S0 F2000
G01 Z0.75 F300
G01 X12.39 Y38.91 M03 S255 F650
G01 X14.55 Y39.81 M03 S0 F2000
G01 Z0.75 F300
G01 X13.49 Y39.39 M03 S255 F650
G01 X15.51 Y40.11 M03 S0 F2000
G01 Z0.75 F300
G01 X14.55 Y39.81 M03 S255 F650
G01 X16.09 Y40.25 M03 S0 F2000
G01 Z0.75 F300
G01 X15.51 Y40.11 M03 S255 F650
G01 X16.73 Y40.38 M03 S0 F2000
G01 Z0.75 F300
G01 X16.09 Y40.25 M03 S255 F650
G01 X18.14 Y40.6 M03 S0 F2000
G01 Z0.75 F300
G01 X16.73 Y40.38 M03 S255 F650
G01 X19.64 Y40.79 M03 S0 F2000
G01 Z0.75 F300
G01 X18.14 Y40.6 M03 S255 F650
G01 X21.13 Y40.95 M03 S0 F2000
G01 Z0.75 F300
G01 X19.64 Y40.79 M03 S255 F650
G01 X22.48 Y41.08 M03 S0 F2000
G01 Z0.75 F300
G01 X21.13 Y40.95 M03 S255 F650
G01 X23.06 Y41.13 M03 S0 F2000
G01 Z0.75 F300
G01 X22.48 Y41.08 M03 S255 F650
G01 X23.58 Y41.16 M03 S0 F2000
G01 Z0.75 F300
G01 X23.06 Y41.13 M03 S255 F650
G01 X24 Y41.2 M03 S0 F2000
G01 Z0.75 F300
G01 X23.58 Y41.16 M03 S255 F650
G01 X24.33 Y41.23 M03 S0 F2000
G01 Z0.75 F300
G01 X24 Y41.2 M03 S255 F650
G01 X24.53 Y41.24 M03 S0 F2000
G01 Z0.75 F300
G01 X24.33 Y41.23 M03 S255 F650
G01 X24.6 Y41.24 M03 S0 F2000
G01 Z0.75 F300
G01 X24.53 Y41.24 M03 S255 F650
G01 Z0.75 F300
G01 X37.33 Y41.41 M03 S255 F650
G01 Z0.75 F300
G01 X30.63 Y38.24 M03 S255 F650
G01 Z0.75 F300
G01 X39.71 Y36.89 M03 S255 F650
G01 Z0.75 F300
G01 X39.71 Y36.89 M03 S255 F650
G01 X39.55 Y36.78 M03 S0 F2000
G01 Z0.75 F300
G01 X39.68 Y36.86 M03 S255 F650
G01 X39.13 Y36.48 M03 S0 F2000
G01 Z0.75 F300
G01 X39.55 Y36.78 M03 S255 F650
G01 X38.49 Y36.04 M03 S0 F2000
G01 Z0.75 F300
G01 X39.13 Y36.48 M03 S255 F650
G01 X37.74 Y35.49 M03 S0 F2000
G01 Z0.75 F300
G01 X38.49 Y36.04 M03 S255 F650
G01 X36.94 Y34.9 M03 S0 F2000
G01 Z0.75 F300
G01 X37.74 Y35.49 M03 S255 F650
G01 X36.16 Y34.29 M03 S0 F2000
G01 Z0.75 F300
G01 X36.94 Y34.9 M03 S255 F650
G01 X35.49 Y33.71 M03 S0 F2000
G01 Z0.75 F300
G01 X36.16 Y34.29 M03 S255 F650
G01 X34.98 Y33.23 M03 S0 F2000
G01 Z0.75 F300
G01 X35.49 Y33.71 M03 S255 F650
G01 X34.81 Y32.99 M03 S0 F2000
G01 Z0.75 F300
G01 X34.98 Y33.23 M03 S255 F650
G01 X34.71 Y32.71 M03 S0 F2000
G01 Z0.75 F300
G01 X34.81 Y32.99 M03 S255 F650
G01 X34.69 Y32.19 M03 S0 F2000
G01 Z0.75 F300
G01 X34.71 Y32.71 M03 S255 F650
G01 X34.76 Y31.78 M03 S0 F2000
G01 Z0.75 F300
G01 X34.69 Y32.19 M03 S255 F650
G01 X34.8 Y31.65 M03 S0 F2000
G01 Z0.75 F300
G01 X34.76 Y31.78 M03 S255 F650
G01 X34.81 Y31.6 M03 S0 F2000
G01 Z0.75 F300
G01 X34.8 Y31.65 M03 S255 F650
G01 X34.89 Y31.54 M03 S0 F2000
G01 Z0.75 F300
G01 X34.81 Y31.6 M03 S255 F650
G01 X35.1 Y31.36 M03 S0 F2000
G01 Z0.75 F300
G01 X34.89 Y31.54 M03 S255 F650
G01 X35.39 Y31.1 M03 S0 F2000
G01 Z0.75 F300
G01 X35.1 Y31.36 M03 S255 F650
G01 X35.7 Y30.78 M03 S0 F2000
G01 Z0.75 F300
G01 X35.39 Y31.1 M03 S255 F650
G01 X35.99 Y30.39 M03 S0 F2000
G01 Z0.75 F300
G01 X35.7 Y30.78 M03 S255 F650
G01 X36.2 Y29.99 M03 S0 F2000
G01 Z0.75 F300
G01 X35.99 Y30.39 M03 S255 F650
G01 X36.28 Y29.58 M03 S0 F2000
G01 Z0.75 F300
G01 X36.2 Y29.99 M03 S255 F650
G01 X36.18 Y29.19 M03 S0 F2000
G01 Z0.75 F300
G01 X36.28 Y29.58 M03 S255 F650
G01 X35.99 Y28.9 M03 S0 F2000
G01 Z0.75 F300
G01 X36.18 Y29.19 M03 S255 F650
G01 X35.73 Y28.56 M03 S0 F2000
G01 Z0.75 F300
G01 X35.99 Y28.9 M03 S255 F650
G01 X35.01 Y27.81 M03 S0 F2000
G01 Z0.75 F300
G01 X35.73 Y28.56 M03 S255 F650
G01 X34.14 Y27 M03 S0 F2000
G01 Z0.75 F300
G01 X35.01 Y27.81 M03 S255 F650
G01 X33.2 Y26.19 M03 S0 F2000
G01 Z0.75 F300
G01 X34.14 Y27 M03 S255 F650
G01 X32.31 Y25.45 M03 S0 F2000
G01 Z0.75 F300
G01 X33.2 Y26.19 M03 S255 F650
G01 X31.55 Y24.84 M03 S0 F2000
G01 Z0.75 F300
G01 X32.31 Y25.45 M03 S255 F650
G01 X31.25 Y24.6 M03 S0 F2000
G01 Z0.75 F300
G01 X31.55 Y24.84 M03 S255 F650
G01 X31.03 Y24.43 M03 S0 F2000
G01 Z0.75 F300
G01 X31.25 Y24.6 M03 S255 F650
G01 X30.88 Y24.31 M03 S0 F2000
G01 Z0.75 F300
G01 X31.03 Y24.43 M03 S255 F650
G01 X30.83 Y24.28 M03 S0 F2000
G01 Z0.75 F300
G01 X30.88 Y24.31 M03 S255 F650
G01 Z0.75 F300
G01 X30.83 Y24.28 M03 S255 F650
G01 X30.73 Y24.13 M03 S0 F2000
G01 Z0.75 F300
G01 X30.8 Y24.24 M03 S255 F650
G01 X30.53 Y23.75 M03 S0 F2000
G01 Z0.75 F300
G01 X30.73 Y24.13 M03 S255 F650
G01 X30.31 Y23.25 M03 S0 F2000
G01 Z0.75 F300
G01 X30.53 Y23.75 M03 S255 F650
G01 X30.21 Y22.73 M03 S0 F2000
G01 Z0.75 F300
G01 X30.31 Y23.25 M03 S255 F650
G01 X30.24 Y22.29 M03 S0 F2000
G01 Z0.75 F300
G01 X30.21 Y22.73 M03 S255 F650
G01 X30.3 Y21.75 M03 S0 F2000
G01 Z0.75 F300
G01 X30.24 Y22.29 M03 S255 F650
G01 X30.49 Y20.59 M03 S0 F2000
G01 Z0.75 F300
G01 X30.3 Y21.75 M03 S255 F650
G01 X30.59 Y20.06 M03 S0 F2000
G01 Z0.75 F300
G01 X30.49 Y20.59 M03 S255 F650
G01 X30.69 Y19.63 M03 S0 F2000
G01 Z0.75 F300
G01 X30.59 Y20.06 M03 S255 F650
G01 X30.75 Y19.33 M03 S0 F2000
G01 Z0.75 F300
G01 X30.69 Y19.63 M03 S255 F650
G01 X30.78 Y19.21 M03 S0 F2000
G01 Z0.75 F300
G01 X30.75 Y19.33 M03 S255 F650
G01 X30.86 Y19.08 M03 S0 F2000
G01 Z0.75 F300
G01 X30.78 Y19.21 M03 S255 F650
G01 X31.11 Y18.71 M03 S0 F2000
G01 Z0.75 F300
G01 X30.86 Y19.08 M03 S255 F650
G01 X31.48 Y18.16 M03 S0 F2000
G01 Z0.75 F300
G01 X31.11 Y18.71 M03 S255 F650
G01 X31.9 Y17.5 M03 S0 F2000
G01 Z0.75 F300
G01 X31.48 Y18.16 M03 S255 F650
G01 X32.78 Y16.08 M03 S0 F2000
G01 Z0.75 F300
G01 X31.9 Y17.5 M03 S255 F650
G01 X33.14 Y15.43 M03 S0 F2000
G01 Z0.75 F300
G01 X32.78 Y16.08 M03 S255 F650
G01 X33.4 Y14.89 M03 S0 F2000
G01 Z0.75 F300
G01 X33.14 Y15.43 M03 S255 F650
G01 X33.56 Y14.19 M03 S0 F2000
G01 Z0.75 F300
G01 X33.4 Y14.89 M03 S255 F650
G01 X33.55 Y13.54 M03 S0 F2000
G01 Z0.75 F300
G01 X33.56 Y14.19 M03 S255 F650
G01 X33.46 Y13.05 M03 S0 F2000
G01 Z0.75 F300
G01 X33.55 Y13.54 M03 S255 F650
G01 X33.43 Y12.91 M03 S0 F2000
G01 Z0.75 F300
G01 X33.46 Y13.05 M03 S255 F650
G01 X33.41 Y12.86 M03 S0 F2000
G01 Z0.75 F300
G01 X33.43 Y12.91 M03 S255 F650
G01 Z0.75 F300
G01 X33.41 Y12.86 M03 S255 F650
G01 X33.05 Y13.04 M03 S0 F2000
G01 Z0.75 F300
G01 X33.33 Y12.9 M03 S255 F650
G01 X32.59 Y13.28 M03 S0 F2000
G01 Z0.75 F300
G01 X33.05 Y13.04 M03 S255 F650
G01 X31.96 Y13.63 M03 S0 F2000
G01 Z0.75 F300
G01 X32.59 Y13.28 M03 S255 F650
G01 X31.61 Y13.83 M03 S0 F2000
G01 Z0.75 F300
G01 X31.96 Y13.63 M03 S255 F650
G01 X31.14 Y14.11 M03 S0 F2000
G01 Z0.75 F300
G01 X31.61 Y13.83 M03 S255 F650
G01 X30.58 Y14.45 M03 S0 F2000
G01 Z0.75 F300
G01 X31.14 Y14.11 M03 S255 F650
G01 X29.99 Y14.81 M03 S0 F2000
G01 Z0.75 F300
G01 X30.58 Y14.45 M03 S255 F650
G01 X29.44 Y15.15 M03 S0 F2000
G01 Z0.75 F300
G01 X29.99 Y14.81 M03 S255 F650
G01 X28.96 Y15.43 M03 S0 F2000
G01 Z0.75 F300
G01 X29.44 Y15.15 M03 S255 F650
G01 X28.65 Y15.63 M03 S0 F2000
G01 Z0.75 F300
G01 X28.96 Y15.43 M03 S255 F650
G01 X28.53 Y15.7 M03 S0 F2000
G01 Z0.75 F300
G01 X28.65 Y15.63 M03 S255 F650
G01 X28.55 Y15.61 M03 S0 F2000
G01 Z0.75 F300
G01 X28.53 Y15.7 M03 S255 F650
G01 X28.63 Y15.36 M03 S0 F2000
G01 Z0.75 F300
G01 X28.55 Y15.61 M03 S255 F650
G01 X28.73 Y14.99 M03 S0 F2000
G01 Z0.75 F300
G01 X28.63 Y15.36 M03 S255 F650
G01 X28.84 Y14.51 M03 S0 F2000
G01 Z0.75 F300
G01 X28.73 Y14.99 M03 S255 F650
G01 X29.05 Y13.43 M03 S0 F2000
G01 Z0.75 F300
G01 X28.84 Y14.51 M03 S255 F650
G01 X29.14 Y12.35 M03 S0 F2000
G01 Z0.75 F300
G01 X29.05 Y13.43 M03 S255 F650
G01 X29.1 Y11.81 M03 S0 F2000
G01 Z0.75 F300
G01 X29.14 Y12.35 M03 S255 F650
G01 X29.03 Y11.15 M03 S0 F2000
G01 Z0.75 F300
G01 X29.1 Y11.81 M03 S255 F650
G01 X28.78 Y9.72 M03 S0 F2000
G01 Z0.75 F300
G01 X29.03 Y11.15 M03 S255 F650
G01 X28.64 Y9.06 M03 S0 F2000
G01 Z0.75 F300
G01 X28.78 Y9.72 M03 S255 F650
G01 X28.53 Y8.53 M03 S0 F2000
G01 Z0.75 F300
G01 X28.64 Y9.06 M03 S255 F650
G01 X28.44 Y8.16 M03 S0 F2000
G01 Z0.75 F300
G01 X28.53 Y8.53 M03 S255 F650
G01 X28.41 Y8.03 M03 S0 F2000
G01 Z0.75 F300
G01 X28.44 Y8.16 M03 S255 F650
G01 Z0.75 F300
G01 X28.41 Y8.03 M03 S255 F650
G01 X28.31 Y8.35 M03 S0 F2000
G01 Z0.75 F300
G01 X28.39 Y8.11 M03 S255 F650
G01 X28.2 Y8.69 M03 S0 F2000
G01 Z0.75 F300
G01 X28.31 Y8.35 M03 S255 F650
G01 X28.06 Y9.11 M03 S0 F2000
G01 Z0.75 F300
G01 X28.2 Y8.69 M03 S255 F650
G01 X27.71 Y10.04 M03 S0 F2000
G01 Z0.75 F300
G01 X28.06 Y9.11 M03 S255 F650
G01 X27.53 Y10.46 M03 S0 F2000
G01 Z0.75 F300
G01 X27.71 Y10.04 M03 S255 F650
G01 X27.33 Y10.83 M03 S0 F2000
G01 Z0.75 F300
G01 X27.53 Y10.46 M03 S255 F650
G01 X27.06 Y11.21 M03 S0 F2000
G01 Z0.75 F300
G01 X27.33 Y10.83 M03 S255 F650
G01 X26.74 Y11.63 M03 S0 F2000
G01 Z0.75 F300
G01 X27.06 Y11.21 M03 S255 F650
G01 X26.01 Y12.48 M03 S0 F2000
G01 Z0.75 F300
G01 X26.74 Y11.63 M03 S255 F650
G01 X25.68 Y12.84 M03 S0 F2000
G01 Z0.75 F300
G01 X26.01 Y12.48 M03 S255 F650
G01 X25.4 Y13.14 M03 S0 F2000
G01 Z0.75 F300
G01 X25.68 Y12.84 M03 S255 F650
G01 X25.21 Y13.33 M03 S0 F2000
G01 Z0.75 F300
G01 X25.4 Y13.14 M03 S255 F650
G01 X25.14 Y13.4 M03 S0 F2000
G01 Z0.75 F300
G01 X25.21 Y13.33 M03 S255 F650
G01 Z0.75 F300
G01 X25.14 Y13.4 M03 S255 F650
G01 X25.09 Y12.99 M03 S0 F2000
G01 Z0.75 F300
G01 X25.13 Y13.29 M03 S255 F650
G01 X25.04 Y12.54 M03 S0 F2000
G01 Z0.75 F300
G01 X25.09 Y12.99 M03 S255 F650
G01 X24.96 Y12 M03 S0 F2000
G01 Z0.75 F300
G01 X25.04 Y12.54 M03 S255 F650
G01 X24.76 Y10.81 M03 S0 F2000
G01 Z0.75 F300
G01 X24.96 Y12 M03 S255 F650
G01 X24.64 Y10.28 M03 S0 F2000
G01 Z0.75 F300
G01 X24.76 Y10.81 M03 S255 F650
G01 X24.51 Y9.84 M03 S0 F2000
G01 Z0.75 F300
G01 X24.64 Y10.28 M03 S255 F650
G01 X24.33 Y9.39 M03 S0 F2000
G01 Z0.75 F300
G01 X24.51 Y9.84 M03 S255 F650
G01 X24.09 Y8.91 M03 S0 F2000
G01 Z0.75 F300
G01 X24.33 Y9.39 M03 S255 F650
G01 X23.54 Y7.99 M03 S0 F2000
G01 Z0.75 F300
G01 X24.09 Y8.91 M03 S255 F650
G01 X23.28 Y7.6 M03 S0 F2000
G01 Z0.75 F300
G01 X23.54 Y7.99 M03 S255 F650
G01 X23.06 Y7.29 M03 S0 F2000
G01 Z0.75 F300
G01 X23.28 Y7.6 M03 S255 F650
G01 X22.91 Y7.08 M03 S0 F2000
G01 Z0.75 F300
G01 X23.06 Y7.29 M03 S255 F650
G01 X22.86 Y7 M03 S0 F2000
G01 Z0.75 F300
G01 X22.91 Y7.08 M03 S255 F650
G01 Z0.75 F300
G01 X22.86 Y7 M03 S255 F650
G01 X22.84 Y7.21 M03 S0 F2000
G01 Z0.75 F300
G01 X22.86 Y7.06 M03 S255 F650
G01 X22.76 Y7.73 M03 S0 F2000
G01 Z0.75 F300
G01 X22.84 Y7.21 M03 S255 F650
G01 X22.6 Y8.35 M03 S0 F2000
G01 Z0.75 F300
G01 X22.76 Y7.73 M03 S255 F650
G01 X22.35 Y8.9 M03 S0 F2000
G01 Z0.75 F300
G01 X22.6 Y8.35 M03 S255 F650
G01 X22.16 Y9.13 M03 S0 F2000
G01 Z0.75 F300
G01 X22.35 Y8.9 M03 S255 F650
G01 X21.9 Y9.38 M03 S0 F2000
G01 Z0.75 F300
G01 X22.16 Y9.13 M03 S255 F650
G01 X21.29 Y9.88 M03 S0 F2000
G01 Z0.75 F300
G01 X21.9 Y9.38 M03 S255 F650
G01 X20.99 Y10.1 M03 S0 F2000
G01 Z0.75 F300
G01 X21.29 Y9.88 M03 S255 F650
G01 X20.74 Y10.28 M03 S0 F2000
G01 Z0.75 F300
G01 X20.99 Y10.1 M03 S255 F650
G01 X20.56 Y10.4 M03 S0 F2000
G01 Z0.75 F300
G01 X20.74 Y10.28 M03 S255 F650
G01 X20.5 Y10.44 M03 S0 F2000
G01 Z0.75 F300
G01 X20.56 Y10.4 M03 S255 F650
G01 X20.45 Y10.49 M03 S0 F2000
G01 Z0.75 F300
G01 X20.5 Y10.44 M03 S255 F650
G01 X20.3 Y10.6 M03 S0 F2000
G01 Z0.75 F300
G01 X20.45 Y10.49 M03 S255 F650
G01 X20.08 Y10.78 M03 S0 F2000
G01 Z0.75 F300
G01 X20.3 Y10.6 M03 S255 F650
G01 X19.79 Y10.99 M03 S0 F2000
G01 Z0.75 F300
G01 X20.08 Y10.78 M03 S255 F650
G01 X19.06 Y11.39 M03 S0 F2000
G01 Z0.75 F300
G01 X19.79 Y10.99 M03 S255 F650
G01 X18.66 Y11.53 M03 S0 F2000
G01 Z0.75 F300
G01 X19.06 Y11.39 M03 S255 F650
G01 X18.26 Y11.61 M03 S0 F2000
G01 Z0.75 F300
G01 X18.66 Y11.53 M03 S255 F650
G01 X17.88 Y11.61 M03 S0 F2000
G01 Z0.75 F300
G01 X18.26 Y11.61 M03 S255 F650
G01 X17.38 Y11.56 M03 S0 F2000
G01 Z0.75 F300
G01 X17.88 Y11.61 M03 S255 F650
G01 X16.24 Y11.36 M03 S0 F2000
G01 Z0.75 F300
G01 X17.38 Y11.56 M03 S255 F650
G01 X15.69 Y11.24 M03 S0 F2000
G01 Z0.75 F300
G01 X16.24 Y11.36 M03 S255 F650
G01 X15.24 Y11.14 M03 S0 F2000
G01 Z0.75 F300
G01 X15.69 Y11.24 M03 S255 F650
G01 X14.93 Y11.06 M03 S0 F2000
G01 Z0.75 F300
G01 X15.24 Y11.14 M03 S255 F650
G01 X14.81 Y11.04 M03 S0 F2000
G01 Z0.75 F300
G01 X14.93 Y11.06 M03 S255 F650
G01 X14.74 Y11.04 M03 S0 F2000
G01 Z0.75 F300
G01 X14.81 Y11.04 M03 S255 F650
G01 X14.53 Y11.03 M03 S0 F2000
G01 Z0.75 F300
G01 X14.74 Y11.04 M03 S255 F650
G01 X14.2 Y11.01 M03 S0 F2000
G01 Z0.75 F300
G01 X14.53 Y11.03 M03 S255 F650
G01 X13.78 Y11 M03 S0 F2000
G01 Z0.75 F300
G01 X14.2 Y11.01 M03 S255 F650
G01 X13.25 Y10.99 M03 S0 F2000
G01 Z0.75 F300
G01 X13.78 Y11 M03 S255 F650
G01 X12.66 Y10.99 M03 S0 F2000
G01 Z0.75 F300
G01 X13.25 Y10.99 M03 S255 F650
G01 X11.35 Y10.98 M03 S0 F2000
G01 Z0.75 F300
G01 X12.66 Y10.99 M03 S255 F650
G01 X9.94 Y11.01 M03 S0 F2000
G01 Z0.75 F300
G01 X11.35 Y10.98 M03 S255 F650
G01 X8.58 Y11.09 M03 S0 F2000
G01 Z0.75 F300
G01 X9.94 Y11.01 M03 S255 F650
G01 X7.95 Y11.15 M03 S0 F2000
G01 Z0.75 F300
G01 X8.58 Y11.09 M03 S255 F650
G01 X7.39 Y11.23 M03 S0 F2000
G01 Z0.75 F300
G01 X7.95 Y11.15 M03 S255 F650
G01 X6.9 Y11.33 M03 S0 F2000
G01 Z0.75 F300
G01 X7.39 Y11.23 M03 S255 F650
G01 X6.5 Y11.44 M03 S0 F2000
G01 Z0.75 F300
G01 X6.9 Y11.33 M03 S255 F650
G01 X5.63 Y11.89 M03 S0 F2000
G01 Z0.75 F300
G01 X6.5 Y11.44 M03 S255 F650
G01 X4.8 Y12.5 M03 S0 F2000
G01 Z0.75 F300
G01 X5.63 Y11.89 M03 S255 F650
G01 X4.05 Y13.21 M03 S0 F2000
G01 Z0.75 F300
G01 X4.8 Y12.5 M03 S255 F650
G01 X3.4 Y13.96 M03 S0 F2000
G01 Z0.75 F300
G01 X4.05 Y13.21 M03 S255 F650
G01 X2.85 Y14.66 M03 S0 F2000
G01 Z0.75 F300
G01 X3.4 Y13.96 M03 S255 F650
G01 X2.44 Y15.25 M03 S0 F2000
G01 Z0.75 F300
G01 X2.85 Y14.66 M03 S255 F650
G01 X2.18 Y15.65 M03 S0 F2000
G01 Z0.75 F300
G01 X2.44 Y15.25 M03 S255 F650
G01 X2.11 Y15.76 M03 S0 F2000
G01 Z0.75 F300
G01 X2.18 Y15.65 M03 S255 F650
G01 X2.09 Y15.8 M03 S0 F2000
G01 Z0.75 F300
G01 X2.11 Y15.76 M03 S255 F650
G01 X17.04 Y30.59 M03 S0 F2000
G01 Z0.75 F300
G01 X17.15 Y31.09 M03 S255 F650
G01 X16.69 Y30.11 M03 S0 F2000
G01 Z0.75 F300
G01 X17.04 Y30.59 M03 S255 F650
G01 X16.15 Y29.71 M03 S0 F2000
G01 Z0.75 F300
G01 X16.69 Y30.11 M03 S255 F650
G01 X15.44 Y29.4 M03 S0 F2000
G01 Z0.75 F300
G01 X16.15 Y29.71 M03 S255 F650
G01 X14.61 Y29.2 M03 S0 F2000
G01 Z0.75 F300
G01 X15.44 Y29.4 M03 S255 F650
G01 X13.74 Y29.14 M03 S0 F2000
G01 Z0.75 F300
G01 X14.61 Y29.2 M03 S255 F650
G01 X12.86 Y29.2 M03 S0 F2000
G01 Z0.75 F300
G01 X13.74 Y29.14 M03 S255 F650
G01 X12.04 Y29.4 M03 S0 F2000
G01 Z0.75 F300
G01 X12.86 Y29.2 M03 S255 F650
G01 X11.33 Y29.71 M03 S0 F2000
G01 Z0.75 F300
G01 X12.04 Y29.4 M03 S255 F650
G01 X10.8 Y30.11 M03 S0 F2000
G01 Z0.75 F300
G01 X11.33 Y29.71 M03 S255 F650
G01 X10.45 Y30.59 M03 S0 F2000
G01 Z0.75 F300
G01 X10.8 Y30.11 M03 S255 F650
G01 X10.34 Y31.09 M03 S0 F2000
G01 Z0.75 F300
G01 X10.45 Y30.59 M03 S255 F650
G01 X10.45 Y31.6 M03 S0 F2000
G01 Z0.75 F300
G01 X10.34 Y31.09 M03 S255 F650
G01 X10.8 Y32.08 M03 S0 F2000
G01 Z0.75 F300
G01 X10.45 Y31.6 M03 S255 F650
G01 X11.33 Y32.48 M03 S0 F2000
G01 Z0.75 F300
G01 X10.8 Y32.08 M03 S255 F650
G01 X12.04 Y32.79 M03 S0 F2000
G01 Z0.75 F300
G01 X11.33 Y32.48 M03 S255 F650
G01 X12.86 Y32.99 M03 S0 F2000
G01 Z0.75 F300
G01 X12.04 Y32.79 M03 S255 F650
G01 X13.74 Y33.05 M03 S0 F2000
G01 Z0.75 F300
G01 X12.86 Y32.99 M03 S255 F650
G01 X14.61 Y32.99 M03 S0 F2000
G01 Z0.75 F300
G01 X13.74 Y33.05 M03 S255 F650
G01 X15.44 Y32.79 M03 S0 F2000
G01 Z0.75 F300
G01 X14.61 Y32.99 M03 S255 F650
G01 X16.15 Y32.48 M03 S0 F2000
G01 Z0.75 F300
G01 X15.44 Y32.79 M03 S255 F650
G01 X16.69 Y32.08 M03 S0 F2000
G01 Z0.75 F300
G01 X16.15 Y32.48 M03 S255 F650
G01 X17.04 Y31.6 M03 S0 F2000
G01 Z0.75 F300
G01 X16.69 Y32.08 M03 S255 F650
G01 X17.15 Y31.09 M03 S0 F2000
G01 Z0.75 F300
G01 X17.04 Y31.6 M03 S255 F650
G01 X17.14 Y31.09 M03 S0 F2000
G01 Z0.75 F300
G01 X17.14 Y31.09 M03 S255 F650
G01 X0.04 Y26.75 M03 S0 F2000
G01 Z0.75 F300
G01 X0.05 Y27.24 M03 S255 F650
G01 X0.11 Y26.36 M03 S0 F2000
G01 Z0.75 F300
G01 X0.04 Y26.75 M03 S255 F650
G01 X0.26 Y26.06 M03 S0 F2000
G01 Z0.75 F300
G01 X0.11 Y26.36 M03 S255 F650
G01 X0.48 Y25.85 M03 S0 F2000
G01 Z0.75 F300
G01 X0.26 Y26.06 M03 S255 F650
G01 X1.05 Y25.6 M03 S0 F2000
G01 Z0.75 F300
G01 X0.48 Y25.85 M03 S255 F650
G01 X1.75 Y25.49 M03 S0 F2000
G01 Z0.75 F300
G01 X1.05 Y25.6 M03 S255 F650
G01 X2.45 Y25.41 M03 S0 F2000
G01 Z0.75 F300
G01 X1.75 Y25.49 M03 S255 F650
G01 X3.1 Y25.25 M03 S0 F2000
G01 Z0.75 F300
G01 X2.45 Y25.41 M03 S255 F650
G01 X3.36 Y25.1 M03 S0 F2000
G01 Z0.75 F300
G01 X3.1 Y25.25 M03 S255 F650
G01 X3.56 Y24.89 M03 S0 F2000
G01 Z0.75 F300
G01 X3.36 Y25.1 M03 S255 F650
G01 X3.71 Y24.6 M03 S0 F2000
G01 Z0.75 F300
G01 X3.56 Y24.89 M03 S255 F650
G01 X3.78 Y24.23 M03 S0 F2000
G01 Z0.75 F300
G01 X3.71 Y24.6 M03 S255 F650
G01 X3.78 Y23.84 M03 S0 F2000
G01 Z0.75 F300
G01 X3.78 Y24.23 M03 S255 F650
G01 X3.74 Y23.35 M03 S0 F2000
G01 Z0.75 F300
G01 X3.78 Y23.84 M03 S255 F650
G01 X3.66 Y22.79 M03 S0 F2000
G01 Z0.75 F300
G01 X3.74 Y23.35 M03 S255 F650
G01 X3.56 Y22.15 M03 S0 F2000
G01 Z0.75 F300
G01 X3.66 Y22.79 M03 S255 F650
G01 X3.29 Y20.78 M03 S0 F2000
G01 Z0.75 F300
G01 X3.56 Y22.15 M03 S255 F650
G01 X2.98 Y19.34 M03 S0 F2000
G01 Z0.75 F300
G01 X3.29 Y20.78 M03 S255 F650
G01 X2.65 Y18 M03 S0 F2000
G01 Z0.75 F300
G01 X2.98 Y19.34 M03 S255 F650
G01 X2.5 Y17.4 M03 S0 F2000
G01 Z0.75 F300
G01 X2.65 Y18 M03 S255 F650
G01 X2.36 Y16.86 M03 S0 F2000
G01 Z0.75 F300
G01 X2.5 Y17.4 M03 S255 F650
G01 X2.25 Y16.43 M03 S0 F2000
G01 Z0.75 F300
G01 X2.36 Y16.86 M03 S255 F650
G01 X2.16 Y16.09 M03 S0 F2000
G01 Z0.75 F300
G01 X2.25 Y16.43 M03 S255 F650
G01 X2.11 Y15.88 M03 S0 F2000
G01 Z0.75 F300
G01 X2.16 Y16.09 M03 S255 F650
G01 X2.09 Y15.8 M03 S0 F2000
G01 Z0.75 F300
G01 X2.11 Y15.88 M03 S255 F650
G01 X42.09 Y26.55 M03 S0 F2000
G01 Z0.75 F300
G01 X42.06 Y26.5 M03 S255 F650
G01 X42.18 Y26.7 M03 S0 F2000
G01 Z0.75 F300
G01 X42.09 Y26.55 M03 S255 F650
G01 X42.31 Y26.93 M03 S0 F2000
G01 Z0.75 F300
G01 X42.18 Y26.7 M03 S255 F650
G01 X42.5 Y27.24 M03 S0 F2000
G01 Z0.75 F300
G01 X42.31 Y26.93 M03 S255 F650
G01 X42.99 Y28.03 M03 S0 F2000
G01 Z0.75 F300
G01 X42.5 Y27.24 M03 S255 F650
G01 X43.59 Y28.99 M03 S0 F2000
G01 Z0.75 F300
G01 X42.99 Y28.03 M03 S255 F650
G01 X44.28 Y30.04 M03 S0 F2000
G01 Z0.75 F300
G01 X43.59 Y28.99 M03 S255 F650
G01 X44.99 Y31.08 M03 S0 F2000
G01 Z0.75 F300
G01 X44.28 Y30.04 M03 S255 F650
G01 X45.69 Y32.04 M03 S0 F2000
G01 Z0.75 F300
G01 X44.99 Y31.08 M03 S255 F650
G01 X46.33 Y32.83 M03 S0 F2000
G01 Z0.75 F300
G01 X45.69 Y32.04 M03 S255 F650
G01 X46.91 Y33.41 M03 S0 F2000
G01 Z0.75 F300
G01 X46.33 Y32.83 M03 S255 F650
G01 X47.63 Y34.03 M03 S0 F2000
G01 Z0.75 F300
G01 X46.91 Y33.41 M03 S255 F650
G01 X49.15 Y35.19 M03 S0 F2000
G01 Z0.75 F300
G01 X47.63 Y34.03 M03 S255 F650
G01 X49.85 Y35.69 M03 S0 F2000
G01 Z0.75 F300
G01 X49.15 Y35.19 M03 S255 F650
G01 X50.43 Y36.08 M03 S0 F2000
G01 Z0.75 F300
G01 X49.85 Y35.69 M03 S255 F650
G01 X50.83 Y36.34 M03 S0 F2000
G01 Z0.75 F300
G01 X50.43 Y36.08 M03 S255 F650
G01 X50.93 Y36.4 M03 S0 F2000
G01 Z0.75 F300
G01 X50.83 Y36.34 M03 S255 F650
G01 X50.96 Y36.43 M03 S0 F2000
G01 Z0.75 F300
G01 X50.93 Y36.4 M03 S255 F650
G01 Z0.75 F300
G01 X50.96 Y36.43 M03 S255 F650
G01 X51.15 Y36.53 M03 S0 F2000
G01 Z0.75 F300
G01 X51.01 Y36.45 M03 S255 F650
G01 X51.36 Y36.65 M03 S0 F2000
G01 Z0.75 F300
G01 X51.15 Y36.53 M03 S255 F650
G01 X51.65 Y36.8 M03 S0 F2000
G01 Z0.75 F300
G01 X51.36 Y36.65 M03 S255 F650
G01 X52.41 Y37.2 M03 S0 F2000
G01 Z0.75 F300
G01 X51.65 Y36.8 M03 S255 F650
G01 X53.35 Y37.68 M03 S0 F2000
G01 Z0.75 F300
G01 X52.41 Y37.2 M03 S255 F650
G01 X54.4 Y38.18 M03 S0 F2000
G01 Z0.75 F300
G01 X53.35 Y37.68 M03 S255 F650
G01 X55.5 Y38.65 M03 S0 F2000
G01 Z0.75 F300
G01 X54.4 Y38.18 M03 S255 F650
G01 X56.56 Y39.08 M03 S0 F2000
G01 Z0.75 F300
G01 X55.5 Y38.65 M03 S255 F650
G01 X57.53 Y39.38 M03 S0 F2000
G01 Z0.75 F300
G01 X56.56 Y39.08 M03 S255 F650
G01 X58.1 Y39.51 M03 S0 F2000
G01 Z0.75 F300
G01 X57.53 Y39.38 M03 S255 F650
G01 X58.74 Y39.64 M03 S0 F2000
G01 Z0.75 F300
G01 X58.1 Y39.51 M03 S255 F650
G01 X60.15 Y39.86 M03 S0 F2000
G01 Z0.75 F300
G01 X58.74 Y39.64 M03 S255 F650
G01 X61.66 Y40.06 M03 S0 F2000
G01 Z0.75 F300
G01 X60.15 Y39.86 M03 S255 F650
G01 X63.15 Y40.23 M03 S0 F2000
G01 Z0.75 F300
G01 X61.66 Y40.06 M03 S255 F650
G01 X64.5 Y40.34 M03 S0 F2000
G01 Z0.75 F300
G01 X63.15 Y40.23 M03 S255 F650
G01 X65.09 Y40.39 M03 S0 F2000
G01 Z0.75 F300
G01 X64.5 Y40.34 M03 S255 F650
G01 X65.6 Y40.43 M03 S0 F2000
G01 Z0.75 F300
G01 X65.09 Y40.39 M03 S255 F650
G01 X66.02 Y40.46 M03 S0 F2000
G01 Z0.75 F300
G01 X65.6 Y40.43 M03 S255 F650
G01 X66.35 Y40.49 M03 S0 F2000
G01 Z0.75 F300
G01 X66.02 Y40.46 M03 S255 F650
G01 X66.55 Y40.5 M03 S0 F2000
G01 Z0.75 F300
G01 X66.35 Y40.49 M03 S255 F650
G01 X66.63 Y40.5 M03 S0 F2000
G01 Z0.75 F300
G01 X66.55 Y40.5 M03 S255 F650
G01 Z0.75 F300
G01 X79.34 Y40.68 M03 S255 F650
G01 Z0.75 F300
G01 X72.65 Y37.5 M03 S255 F650
G01 Z0.75 F300
G01 X81.72 Y36.15 M03 S255 F650
G01 Z0.75 F300
G01 X81.73 Y36.16 M03 S255 F650
G01 X81.56 Y36.05 M03 S0 F2000
G01 Z0.75 F300
G01 X81.69 Y36.14 M03 S255 F650
G01 X81.14 Y35.75 M03 S0 F2000
G01 Z0.75 F300
G01 X81.56 Y36.05 M03 S255 F650
G01 X80.5 Y35.31 M03 S0 F2000
G01 Z0.75 F300
G01 X81.14 Y35.75 M03 S255 F650
G01 X79.75 Y34.76 M03 S0 F2000
G01 Z0.75 F300
G01 X80.5 Y35.31 M03 S255 F650
G01 X78.95 Y34.16 M03 S0 F2000
G01 Z0.75 F300
G01 X79.75 Y34.76 M03 S255 F650
G01 X78.18 Y33.56 M03 S0 F2000
G01 Z0.75 F300
G01 X78.95 Y34.16 M03 S255 F650
G01 X77.5 Y32.99 M03 S0 F2000
G01 Z0.75 F300
G01 X78.18 Y33.56 M03 S255 F650
G01 X76.99 Y32.5 M03 S0 F2000
G01 Z0.75 F300
G01 X77.5 Y32.99 M03 S255 F650
G01 X76.83 Y32.25 M03 S0 F2000
G01 Z0.75 F300
G01 X76.99 Y32.5 M03 S255 F650
G01 X76.73 Y31.99 M03 S0 F2000
G01 Z0.75 F300
G01 X76.83 Y32.25 M03 S255 F650
G01 X76.7 Y31.45 M03 S0 F2000
G01 Z0.75 F300
G01 X76.73 Y31.99 M03 S255 F650
G01 X76.79 Y31.04 M03 S0 F2000
G01 Z0.75 F300
G01 X76.7 Y31.45 M03 S255 F650
G01 X76.83 Y30.91 M03 S0 F2000
G01 Z0.75 F300
G01 X76.79 Y31.04 M03 S255 F650
G01 X76.84 Y30.86 M03 S0 F2000
G01 Z0.75 F300
G01 X76.83 Y30.91 M03 S255 F650
G01 X76.91 Y30.8 M03 S0 F2000
G01 Z0.75 F300
G01 X76.84 Y30.86 M03 S255 F650
G01 X77.13 Y30.63 M03 S0 F2000
G01 Z0.75 F300
G01 X76.91 Y30.8 M03 S255 F650
G01 X77.41 Y30.36 M03 S0 F2000
G01 Z0.75 F300
G01 X77.13 Y30.63 M03 S255 F650
G01 X77.73 Y30.04 M03 S0 F2000
G01 Z0.75 F300
G01 X77.41 Y30.36 M03 S255 F650
G01 X78 Y29.66 M03 S0 F2000
G01 Z0.75 F300
G01 X77.73 Y30.04 M03 S255 F650
G01 X78.21 Y29.25 M03 S0 F2000
G01 Z0.75 F300
G01 X78 Y29.66 M03 S255 F650
G01 X78.3 Y28.85 M03 S0 F2000
G01 Z0.75 F300
G01 X78.21 Y29.25 M03 S255 F650
G01 X78.2 Y28.45 M03 S0 F2000
G01 Z0.75 F300
G01 X78.3 Y28.85 M03 S255 F650
G01 X78.01 Y28.16 M03 S0 F2000
G01 Z0.75 F300
G01 X78.2 Y28.45 M03 S255 F650
G01 X77.74 Y27.83 M03 S0 F2000
G01 Z0.75 F300
G01 X78.01 Y28.16 M03 S255 F650
G01 X77.02 Y27.08 M03 S0 F2000
G01 Z0.75 F300
G01 X77.74 Y27.83 M03 S255 F650
G01 X76.16 Y26.26 M03 S0 F2000
G01 Z0.75 F300
G01 X77.02 Y27.08 M03 S255 F650
G01 X75.23 Y25.45 M03 S0 F2000
G01 Z0.75 F300
G01 X76.16 Y26.26 M03 S255 F650
G01 X74.33 Y24.71 M03 S0 F2000
G01 Z0.75 F300
G01 X75.23 Y25.45 M03 S255 F650
G01 X73.56 Y24.1 M03 S0 F2000
G01 Z0.75 F300
G01 X74.33 Y24.71 M03 S255 F650
G01 X73.26 Y23.86 M03 S0 F2000
G01 Z0.75 F300
G01 X73.56 Y24.1 M03 S255 F650
G01 X73.04 Y23.69 M03 S0 F2000
G01 Z0.75 F300
G01 X73.26 Y23.86 M03 S255 F650
G01 X72.89 Y23.58 M03 S0 F2000
G01 Z0.75 F300
G01 X73.04 Y23.69 M03 S255 F650
G01 X72.84 Y23.54 M03 S0 F2000
G01 Z0.75 F300
G01 X72.89 Y23.58 M03 S255 F650
G01 Z0.75 F300
G01 X72.84 Y23.54 M03 S255 F650
G01 X72.74 Y23.39 M03 S0 F2000
G01 Z0.75 F300
G01 X72.81 Y23.5 M03 S255 F650
G01 X72.54 Y23.01 M03 S0 F2000
G01 Z0.75 F300
G01 X72.74 Y23.39 M03 S255 F650
G01 X72.33 Y22.51 M03 S0 F2000
G01 Z0.75 F300
G01 X72.54 Y23.01 M03 S255 F650
G01 X72.23 Y21.99 M03 S0 F2000
G01 Z0.75 F300
G01 X72.33 Y22.51 M03 S255 F650
G01 X72.25 Y21.55 M03 S0 F2000
G01 Z0.75 F300
G01 X72.23 Y21.99 M03 S255 F650
G01 X72.31 Y21.01 M03 S0 F2000
G01 Z0.75 F300
G01 X72.25 Y21.55 M03 S255 F650
G01 X72.5 Y19.86 M03 S0 F2000
G01 Z0.75 F300
G01 X72.31 Y21.01 M03 S255 F650
G01 X72.6 Y19.33 M03 S0 F2000
G01 Z0.75 F300
G01 X72.5 Y19.86 M03 S255 F650
G01 X72.7 Y18.89 M03 S0 F2000
G01 Z0.75 F300
G01 X72.6 Y19.33 M03 S255 F650
G01 X72.76 Y18.6 M03 S0 F2000
G01 Z0.75 F300
G01 X72.7 Y18.89 M03 S255 F650
G01 X72.79 Y18.49 M03 S0 F2000
G01 Z0.75 F300
G01 X72.76 Y18.6 M03 S255 F650
G01 X72.88 Y18.35 M03 S0 F2000
G01 Z0.75 F300
G01 X72.79 Y18.49 M03 S255 F650
G01 X73.13 Y17.99 M03 S0 F2000
G01 Z0.75 F300
G01 X72.88 Y18.35 M03 S255 F650
G01 X73.49 Y17.44 M03 S0 F2000
G01 Z0.75 F300
G01 X73.13 Y17.99 M03 S255 F650
G01 X73.91 Y16.78 M03 S0 F2000
G01 Z0.75 F300
G01 X73.49 Y17.44 M03 S255 F650
G01 X74.79 Y15.35 M03 S0 F2000
G01 Z0.75 F300
G01 X73.91 Y16.78 M03 S255 F650
G01 X75.15 Y14.69 M03 S0 F2000
G01 Z0.75 F300
G01 X74.79 Y15.35 M03 S255 F650
G01 X75.41 Y14.15 M03 S0 F2000
G01 Z0.75 F300
G01 X75.15 Y14.69 M03 S255 F650
G01 X75.58 Y13.45 M03 S0 F2000
G01 Z0.75 F300
G01 X75.41 Y14.15 M03 S255 F650
G01 X75.56 Y12.81 M03 S0 F2000
G01 Z0.75 F300
G01 X75.58 Y13.45 M03 S255 F650
G01 X75.49 Y12.33 M03 S0 F2000
G01 Z0.75 F300
G01 X75.56 Y12.81 M03 S255 F650
G01 X75.45 Y12.19 M03 S0 F2000
G01 Z0.75 F300
G01 X75.49 Y12.33 M03 S255 F650
G01 X75.44 Y12.14 M03 S0 F2000
G01 Z0.75 F300
G01 X75.45 Y12.19 M03 S255 F650
G01 X75.34 Y12.18 M03 S0 F2000
G01 Z0.75 F300
G01 X75.44 Y12.14 M03 S255 F650
G01 X75.06 Y12.31 M03 S0 F2000
G01 Z0.75 F300
G01 X75.34 Y12.18 M03 S255 F650
G01 X74.6 Y12.54 M03 S0 F2000
G01 Z0.75 F300
G01 X75.06 Y12.31 M03 S255 F650
G01 X73.98 Y12.89 M03 S0 F2000
G01 Z0.75 F300
G01 X74.6 Y12.54 M03 S255 F650
G01 X73.64 Y13.09 M03 S0 F2000
G01 Z0.75 F300
G01 X73.98 Y12.89 M03 S255 F650
G01 X73.15 Y13.38 M03 S0 F2000
G01 Z0.75 F300
G01 X73.64 Y13.09 M03 S255 F650
G01 X72.59 Y13.73 M03 S0 F2000
G01 Z0.75 F300
G01 X73.15 Y13.38 M03 S255 F650
G01 X72 Y14.08 M03 S0 F2000
G01 Z0.75 F300
G01 X72.59 Y13.73 M03 S255 F650
G01 X71.45 Y14.41 M03 S0 F2000
G01 Z0.75 F300
G01 X72 Y14.08 M03 S255 F650
G01 X70.98 Y14.7 M03 S0 F2000
G01 Z0.75 F300
G01 X71.45 Y14.41 M03 S255 F650
G01 X70.66 Y14.89 M03 S0 F2000
G01 Z0.75 F300
G01 X70.98 Y14.7 M03 S255 F650
G01 X70.54 Y14.96 M03 S0 F2000
G01 Z0.75 F300
G01 X70.66 Y14.89 M03 S255 F650
G01 X70.56 Y14.88 M03 S0 F2000
G01 Z0.75 F300
G01 X70.54 Y14.96 M03 S255 F650
G01 X70.64 Y14.63 M03 S0 F2000
G01 Z0.75 F300
G01 X70.56 Y14.88 M03 S255 F650
G01 X70.74 Y14.25 M03 S0 F2000
G01 Z0.75 F300
G01 X70.64 Y14.63 M03 S255 F650
G01 X70.85 Y13.79 M03 S0 F2000
G01 Z0.75 F300
G01 X70.74 Y14.25 M03 S255 F650
G01 X71.06 Y12.7 M03 S0 F2000
G01 Z0.75 F300
G01 X70.85 Y13.79 M03 S255 F650
G01 X71.15 Y11.61 M03 S0 F2000
G01 Z0.75 F300
G01 X71.06 Y12.7 M03 S255 F650
G01 X71.11 Y11.08 M03 S0 F2000
G01 Z0.75 F300
G01 X71.15 Y11.61 M03 S255 F650
G01 X71.04 Y10.41 M03 S0 F2000
G01 Z0.75 F300
G01 X71.11 Y11.08 M03 S255 F650
G01 X70.79 Y8.99 M03 S0 F2000
G01 Z0.75 F300
G01 X71.04 Y10.41 M03 S255 F650
G01 X70.65 Y8.33 M03 S0 F2000
G01 Z0.75 F300
G01 X70.79 Y8.99 M03 S255 F650
G01 X70.54 Y7.79 M03 S0 F2000
G01 Z0.75 F300
G01 X70.65 Y8.33 M03 S255 F650
G01 X70.45 Y7.43 M03 S0 F2000
G01 Z0.75 F300
G01 X70.54 Y7.79 M03 S255 F650
G01 X70.43 Y7.29 M03 S0 F2000
G01 Z0.75 F300
G01 X70.45 Y7.43 M03 S255 F650
G01 Z0.75 F300
G01 X70.43 Y7.29 M03 S255 F650
G01 X70.33 Y7.61 M03 S0 F2000
G01 Z0.75 F300
G01 X70.4 Y7.38 M03 S255 F650
G01 X70.21 Y7.95 M03 S0 F2000
G01 Z0.75 F300
G01 X70.33 Y7.61 M03 S255 F650
G01 X70.08 Y8.38 M03 S0 F2000
G01 Z0.75 F300
G01 X70.21 Y7.95 M03 S255 F650
G01 X69.73 Y9.3 M03 S0 F2000
G01 Z0.75 F300
G01 X70.08 Y8.38 M03 S255 F650
G01 X69.54 Y9.74 M03 S0 F2000
G01 Z0.75 F300
G01 X69.73 Y9.3 M03 S255 F650
G01 X69.34 Y10.1 M03 S0 F2000
G01 Z0.75 F300
G01 X69.54 Y9.74 M03 S255 F650
G01 X69.08 Y10.49 M03 S0 F2000
G01 Z0.75 F300
G01 X69.34 Y10.1 M03 S255 F650
G01 X68.75 Y10.9 M03 S0 F2000
G01 Z0.75 F300
G01 X69.08 Y10.49 M03 S255 F650
G01 X68.02 Y11.74 M03 S0 F2000
G01 Z0.75 F300
G01 X68.75 Y10.9 M03 S255 F650
G01 X67.69 Y12.1 M03 S0 F2000
G01 Z0.75 F300
G01 X68.02 Y11.74 M03 S255 F650
G01 X67.41 Y12.4 M03 S0 F2000
G01 Z0.75 F300
G01 X67.69 Y12.1 M03 S255 F650
G01 X67.23 Y12.59 M03 S0 F2000
G01 Z0.75 F300
G01 X67.41 Y12.4 M03 S255 F650
G01 X67.15 Y12.66 M03 S0 F2000
G01 Z0.75 F300
G01 X67.23 Y12.59 M03 S255 F650
G01 Z0.75 F300
G01 X67.15 Y12.66 M03 S255 F650
G01 X67.1 Y12.25 M03 S0 F2000
G01 Z0.75 F300
G01 X67.14 Y12.55 M03 S255 F650
G01 X67.05 Y11.8 M03 S0 F2000
G01 Z0.75 F300
G01 X67.1 Y12.25 M03 S255 F650
G01 X66.98 Y11.26 M03 S0 F2000
G01 Z0.75 F300
G01 X67.05 Y11.8 M03 S255 F650
G01 X66.77 Y10.08 M03 S0 F2000
G01 Z0.75 F300
G01 X66.98 Y11.26 M03 S255 F650
G01 X66.65 Y9.54 M03 S0 F2000
G01 Z0.75 F300
G01 X66.77 Y10.08 M03 S255 F650
G01 X66.52 Y9.1 M03 S0 F2000
G01 Z0.75 F300
G01 X66.65 Y9.54 M03 S255 F650
G01 X66.34 Y8.65 M03 S0 F2000
G01 Z0.75 F300
G01 X66.52 Y9.1 M03 S255 F650
G01 X66.1 Y8.17 M03 S0 F2000
G01 Z0.75 F300
G01 X66.34 Y8.65 M03 S255 F650
G01 X65.55 Y7.25 M03 S0 F2000
G01 Z0.75 F300
G01 X66.1 Y8.17 M03 S255 F650
G01 X65.29 Y6.86 M03 S0 F2000
G01 Z0.75 F300
G01 X65.55 Y7.25 M03 S255 F650
G01 X65.08 Y6.55 M03 S0 F2000
G01 Z0.75 F300
G01 X65.29 Y6.86 M03 S255 F650
G01 X64.93 Y6.34 M03 S0 F2000
G01 Z0.75 F300
G01 X65.08 Y6.55 M03 S255 F650
G01 X64.88 Y6.26 M03 S0 F2000
G01 Z0.75 F300
G01 X64.93 Y6.34 M03 S255 F650
G01 Z0.75 F300
G01 X64.88 Y6.26 M03 S255 F650
G01 X64.85 Y6.48 M03 S0 F2000
G01 Z0.75 F300
G01 X64.88 Y6.33 M03 S255 F650
G01 X64.83 Y6.71 M03 S0 F2000
G01 Z0.75 F300
G01 X64.85 Y6.48 M03 S255 F650
G01 X64.77 Y6.99 M03 S0 F2000
G01 Z0.75 F300
G01 X64.83 Y6.71 M03 S255 F650
G01 X64.63 Y7.61 M03 S0 F2000
G01 Z0.75 F300
G01 X64.77 Y6.99 M03 S255 F650
G01 X64.38 Y8.16 M03 S0 F2000
G01 Z0.75 F300
G01 X64.63 Y7.61 M03 S255 F650
G01 X64.19 Y8.39 M03 S0 F2000
G01 Z0.75 F300
G01 X64.38 Y8.16 M03 S255 F650
G01 X63.93 Y8.64 M03 S0 F2000
G01 Z0.75 F300
G01 X64.19 Y8.39 M03 S255 F650
G01 X63.31 Y9.14 M03 S0 F2000
G01 Z0.75 F300
G01 X63.93 Y8.64 M03 S255 F650
G01 X63.01 Y9.36 M03 S0 F2000
G01 Z0.75 F300
G01 X63.31 Y9.14 M03 S255 F650
G01 X62.76 Y9.54 M03 S0 F2000
G01 Z0.75 F300
G01 X63.01 Y9.36 M03 S255 F650
G01 X62.59 Y9.66 M03 S0 F2000
G01 Z0.75 F300
G01 X62.76 Y9.54 M03 S255 F650
G01 X62.53 Y9.7 M03 S0 F2000
G01 Z0.75 F300
G01 X62.59 Y9.66 M03 S255 F650
G01 X62.48 Y9.75 M03 S0 F2000
G01 Z0.75 F300
G01 X62.53 Y9.7 M03 S255 F650
G01 X62.33 Y9.88 M03 S0 F2000
G01 Z0.75 F300
G01 X62.48 Y9.75 M03 S255 F650
G01 X62.1 Y10.05 M03 S0 F2000
G01 Z0.75 F300
G01 X62.33 Y9.88 M03 S255 F650
G01 X61.81 Y10.25 M03 S0 F2000
G01 Z0.75 F300
G01 X62.1 Y10.05 M03 S255 F650
G01 X61.09 Y10.65 M03 S0 F2000
G01 Z0.75 F300
G01 X61.81 Y10.25 M03 S255 F650
G01 X60.69 Y10.8 M03 S0 F2000
G01 Z0.75 F300
G01 X61.09 Y10.65 M03 S255 F650
G01 X60.28 Y10.89 M03 S0 F2000
G01 Z0.75 F300
G01 X60.69 Y10.8 M03 S255 F650
G01 X59.89 Y10.89 M03 S0 F2000
G01 Z0.75 F300
G01 X60.28 Y10.89 M03 S255 F650
G01 X59.39 Y10.84 M03 S0 F2000
G01 Z0.75 F300
G01 X59.89 Y10.89 M03 S255 F650
G01 X58.25 Y10.64 M03 S0 F2000
G01 Z0.75 F300
G01 X59.39 Y10.84 M03 S255 F650
G01 X57.7 Y10.51 M03 S0 F2000
G01 Z0.75 F300
G01 X58.25 Y10.64 M03 S255 F650
G01 X57.25 Y10.41 M03 S0 F2000
G01 Z0.75 F300
G01 X57.7 Y10.51 M03 S255 F650
G01 X56.94 Y10.34 M03 S0 F2000
G01 Z0.75 F300
G01 X57.25 Y10.41 M03 S255 F650
G01 X56.83 Y10.31 M03 S0 F2000
G01 Z0.75 F300
G01 X56.94 Y10.34 M03 S255 F650
G01 X56.75 Y10.31 M03 S0 F2000
G01 Z0.75 F300
G01 X56.83 Y10.31 M03 S255 F650
G01 X56.54 Y10.3 M03 S0 F2000
G01 Z0.75 F300
G01 X56.75 Y10.31 M03 S255 F650
G01 X56.21 Y10.29 M03 S0 F2000
G01 Z0.75 F300
G01 X56.54 Y10.3 M03 S255 F650
G01 X55.79 Y10.28 M03 S0 F2000
G01 Z0.75 F300
G01 X56.21 Y10.29 M03 S255 F650
G01 X55.26 Y10.26 M03 S0 F2000
G01 Z0.75 F300
G01 X55.79 Y10.28 M03 S255 F650
G01 X54.68 Y10.25 M03 S0 F2000
G01 Z0.75 F300
G01 X55.26 Y10.26 M03 S255 F650
G01 X53.36 Y10.25 M03 S0 F2000
G01 Z0.75 F300
G01 X54.68 Y10.25 M03 S255 F650
G01 X51.95 Y10.28 M03 S0 F2000
G01 Z0.75 F300
G01 X53.36 Y10.25 M03 S255 F650
G01 X50.59 Y10.35 M03 S0 F2000
G01 Z0.75 F300
G01 X51.95 Y10.28 M03 S255 F650
G01 X49.96 Y10.41 M03 S0 F2000
G01 Z0.75 F300
G01 X50.59 Y10.35 M03 S255 F650
G01 X49.4 Y10.49 M03 S0 F2000
G01 Z0.75 F300
G01 X49.96 Y10.41 M03 S255 F650
G01 X48.91 Y10.59 M03 S0 F2000
G01 Z0.75 F300
G01 X49.4 Y10.49 M03 S255 F650
G01 X48.51 Y10.7 M03 S0 F2000
G01 Z0.75 F300
G01 X48.91 Y10.59 M03 S255 F650
G01 X47.64 Y11.15 M03 S0 F2000
G01 Z0.75 F300
G01 X48.51 Y10.7 M03 S255 F650
G01 X46.81 Y11.76 M03 S0 F2000
G01 Z0.75 F300
G01 X47.64 Y11.15 M03 S255 F650
G01 X46.06 Y12.48 M03 S0 F2000
G01 Z0.75 F300
G01 X46.81 Y11.76 M03 S255 F650
G01 X45.41 Y13.23 M03 S0 F2000
G01 Z0.75 F300
G01 X46.06 Y12.48 M03 S255 F650
G01 X44.86 Y13.93 M03 S0 F2000
G01 Z0.75 F300
G01 X45.41 Y13.23 M03 S255 F650
G01 X44.45 Y14.51 M03 S0 F2000
G01 Z0.75 F300
G01 X44.86 Y13.93 M03 S255 F650
G01 X44.19 Y14.93 M03 S0 F2000
G01 Z0.75 F300
G01 X44.45 Y14.51 M03 S255 F650
G01 X44.13 Y15.04 M03 S0 F2000
G01 Z0.75 F300
G01 X44.19 Y14.93 M03 S255 F650
G01 X44.1 Y15.08 M03 S0 F2000
G01 Z0.75 F300
G01 X44.13 Y15.04 M03 S255 F650
G01 X59.09 Y29.96 M03 S0 F2000
G01 Z0.75 F300
G01 X59.16 Y30.36 M03 S255 F650
G01 X58.9 Y29.6 M03 S0 F2000
G01 Z0.75 F300
G01 X59.09 Y29.96 M03 S255 F650
G01 X58.58 Y29.26 M03 S0 F2000
G01 Z0.75 F300
G01 X58.9 Y29.6 M03 S255 F650
G01 X58.16 Y28.98 M03 S0 F2000
G01 Z0.75 F300
G01 X58.58 Y29.26 M03 S255 F650
G01 X57.66 Y28.74 M03 S0 F2000
G01 Z0.75 F300
G01 X58.16 Y28.98 M03 S255 F650
G01 X57.09 Y28.56 M03 S0 F2000
G01 Z0.75 F300
G01 X57.66 Y28.74 M03 S255 F650
G01 X56.45 Y28.45 M03 S0 F2000
G01 Z0.75 F300
G01 X57.09 Y28.56 M03 S255 F650
G01 X55.76 Y28.41 M03 S0 F2000
G01 Z0.75 F300
G01 X56.45 Y28.45 M03 S255 F650
G01 X55.08 Y28.45 M03 S0 F2000
G01 Z0.75 F300
G01 X55.76 Y28.41 M03 S255 F650
G01 X54.44 Y28.56 M03 S0 F2000
G01 Z0.75 F300
G01 X55.08 Y28.45 M03 S255 F650
G01 X53.85 Y28.74 M03 S0 F2000
G01 Z0.75 F300
G01 X54.44 Y28.56 M03 S255 F650
G01 X53.35 Y28.98 M03 S0 F2000
G01 Z0.75 F300
G01 X53.85 Y28.74 M03 S255 F650
G01 X52.94 Y29.26 M03 S0 F2000
G01 Z0.75 F300
G01 X53.35 Y28.98 M03 S255 F650
G01 X52.61 Y29.6 M03 S0 F2000
G01 Z0.75 F300
G01 X52.94 Y29.26 M03 S255 F650
G01 X52.43 Y29.96 M03 S0 F2000
G01 Z0.75 F300
G01 X52.61 Y29.6 M03 S255 F650
G01 X52.35 Y30.36 M03 S0 F2000
G01 Z0.75 F300
G01 X52.43 Y29.96 M03 S255 F650
G01 X52.46 Y30.88 M03 S0 F2000
G01 Z0.75 F300
G01 X52.35 Y30.36 M03 S255 F650
G01 X52.81 Y31.34 M03 S0 F2000
G01 Z0.75 F300
G01 X52.46 Y30.88 M03 S255 F650
G01 X53.34 Y31.74 M03 S0 F2000
G01 Z0.75 F300
G01 X52.81 Y31.34 M03 S255 F650
G01 X54.05 Y32.05 M03 S0 F2000
G01 Z0.75 F300
G01 X53.34 Y31.74 M03 S255 F650
G01 X54.89 Y32.25 M03 S0 F2000
G01 Z0.75 F300
G01 X54.05 Y32.05 M03 S255 F650
G01 X55.76 Y32.31 M03 S0 F2000
G01 Z0.75 F300
G01 X54.89 Y32.25 M03 S255 F650
G01 X56.63 Y32.25 M03 S0 F2000
G01 Z0.75 F300
G01 X55.76 Y32.31 M03 S255 F650
G01 X57.46 Y32.05 M03 S0 F2000
G01 Z0.75 F300
G01 X56.63 Y32.25 M03 S255 F650
G01 X58.18 Y31.74 M03 S0 F2000
G01 Z0.75 F300
G01 X57.46 Y32.05 M03 S255 F650
G01 X58.71 Y31.34 M03 S0 F2000
G01 Z0.75 F300
G01 X58.18 Y31.74 M03 S255 F650
G01 X59.05 Y30.88 M03 S0 F2000
G01 Z0.75 F300
G01 X58.71 Y31.34 M03 S255 F650
G01 X59.16 Y30.36 M03 S0 F2000
G01 Z0.75 F300
G01 X59.05 Y30.88 M03 S255 F650
G01 X59.15 Y30.35 M03 S0 F2000
G01 Z0.75 F300
G01 X59.15 Y30.35 M03 S255 F650
G01 X42.05 Y26.01 M03 S0 F2000
G01 Z0.75 F300
G01 X42.06 Y26.5 M03 S255 F650
G01 X42.13 Y25.63 M03 S0 F2000
G01 Z0.75 F300
G01 X42.05 Y26.01 M03 S255 F650
G01 X42.28 Y25.33 M03 S0 F2000
G01 Z0.75 F300
G01 X42.13 Y25.63 M03 S255 F650
G01 X42.49 Y25.11 M03 S0 F2000
G01 Z0.75 F300
G01 X42.28 Y25.33 M03 S255 F650
G01 X43.06 Y24.86 M03 S0 F2000
G01 Z0.75 F300
G01 X42.49 Y25.11 M03 S255 F650
G01 X43.76 Y24.75 M03 S0 F2000
G01 Z0.75 F300
G01 X43.06 Y24.86 M03 S255 F650
G01 X44.48 Y24.68 M03 S0 F2000
G01 Z0.75 F300
G01 X43.76 Y24.75 M03 S255 F650
G01 X45.11 Y24.51 M03 S0 F2000
G01 Z0.75 F300
G01 X44.48 Y24.68 M03 S255 F650
G01 X45.38 Y24.38 M03 S0 F2000
G01 Z0.75 F300
G01 X45.11 Y24.51 M03 S255 F650
G01 X45.59 Y24.16 M03 S0 F2000
G01 Z0.75 F300
G01 X45.38 Y24.38 M03 S255 F650
G01 X45.74 Y23.88 M03 S0 F2000
G01 Z0.75 F300
G01 X45.59 Y24.16 M03 S255 F650
G01 X45.8 Y23.5 M03 S0 F2000
G01 Z0.75 F300
G01 X45.74 Y23.88 M03 S255 F650
G01 X45.8 Y23.11 M03 S0 F2000
G01 Z0.75 F300
G01 X45.8 Y23.5 M03 S255 F650
G01 X45.75 Y22.63 M03 S0 F2000
G01 Z0.75 F300
G01 X45.8 Y23.11 M03 S255 F650
G01 X45.68 Y22.05 M03 S0 F2000
G01 Z0.75 F300
G01 X45.75 Y22.63 M03 S255 F650
G01 X45.58 Y21.43 M03 S0 F2000
G01 Z0.75 F300
G01 X45.68 Y22.05 M03 S255 F650
G01 X45.3 Y20.04 M03 S0 F2000
G01 Z0.75 F300
G01 X45.58 Y21.43 M03 S255 F650
G01 X44.99 Y18.61 M03 S0 F2000
G01 Z0.75 F300
G01 X45.3 Y20.04 M03 S255 F650
G01 X44.66 Y17.26 M03 S0 F2000
G01 Z0.75 F300
G01 X44.99 Y18.61 M03 S255 F650
G01 X44.51 Y16.66 M03 S0 F2000
G01 Z0.75 F300
G01 X44.66 Y17.26 M03 S255 F650
G01 X44.38 Y16.14 M03 S0 F2000
G01 Z0.75 F300
G01 X44.51 Y16.66 M03 S255 F650
G01 X44.26 Y15.7 M03 S0 F2000
G01 Z0.75 F300
G01 X44.38 Y16.14 M03 S255 F650
G01 X44.18 Y15.36 M03 S0 F2000
G01 Z0.75 F300
G01 X44.26 Y15.7 M03 S255 F650
G01 X44.13 Y15.15 M03 S0 F2000
G01 Z0.75 F300
G01 X44.18 Y15.36 M03 S255 F650
G01 X44.1 Y15.08 M03 S0 F2000
G01 Z0.75 F300
G01 X44.13 Y15.15 M03 S255 F650
G00 M03 S0
M05
G01 X87.46 Y25.69 M03 S0 F2000
M03 S0
G01 Z1.5 F300
G01 X87.44 Y25.74 M03 S255 F650
G01 X87.54 Y25.56 M03 S0 F2000
G01 Z1.5 F300
G01 X87.46 Y25.69 M03 S255 F650
G01 X87.65 Y25.36 M03 S0 F2000
G01 Z1.5 F300
G01 X87.54 Y25.56 M03 S255 F650
G01 X87.8 Y25.09 M03 S0 F2000
G01 Z1.5 F300
G01 X87.65 Y25.36 M03 S255 F650
G01 X88.19 Y24.39 M03 S0 F2000
G01 Z1.5 F300
G01 X87.8 Y25.09 M03 S255 F650
G01 X88.66 Y23.51 M03 S0 F2000
G01 Z1.5 F300
G01 X88.19 Y24.39 M03 S255 F650
G01 X89.15 Y22.54 M03 S0 F2000
G01 Z1.5 F300
G01 X88.66 Y23.51 M03 S255 F650
G01 X89.64 Y21.53 M03 S0 F2000
G01 Z1.5 F300
G01 X89.15 Y22.54 M03 S255 F650
G01 X90.06 Y20.55 M03 S0 F2000
G01 Z1.5 F300
G01 X89.64 Y21.53 M03 S255 F650
G01 X90.38 Y19.68 M03 S0 F2000
G01 Z1.5 F300
G01 X90.06 Y20.55 M03 S255 F650
G01 X90.55 Y19.09 M03 S0 F2000
G01 Z1.5 F300
G01 X90.38 Y19.68 M03 S255 F650
G01 X90.73 Y18.44 M03 S0 F2000
G01 Z1.5 F300
G01 X90.55 Y19.09 M03 S255 F650
G01 X91.05 Y16.99 M03 S0 F2000
G01 Z1.5 F300
G01 X90.73 Y18.44 M03 S255 F650
G01 X91.36 Y15.46 M03 S0 F2000
G01 Z1.5 F300
G01 X91.05 Y16.99 M03 S255 F650
G01 X91.64 Y13.98 M03 S0 F2000
G01 Z1.5 F300
G01 X91.36 Y15.46 M03 S255 F650
G01 X91.86 Y12.61 M03 S0 F2000
G01 Z1.5 F300
G01 X91.64 Y13.98 M03 S255 F650
G01 X91.96 Y12.01 M03 S0 F2000
G01 Z1.5 F300
G01 X91.86 Y12.61 M03 S255 F650
G01 X92.05 Y11.5 M03 S0 F2000
G01 Z1.5 F300
G01 X91.96 Y12.01 M03 S255 F650
G01 X92.11 Y11.08 M03 S0 F2000
G01 Z1.5 F300
G01 X92.05 Y11.5 M03 S255 F650
G01 X92.16 Y10.75 M03 S0 F2000
G01 Z1.5 F300
G01 X92.11 Y11.08 M03 S255 F650
G01 X92.19 Y10.55 M03 S0 F2000
G01 Z1.5 F300
G01 X92.16 Y10.75 M03 S255 F650
G01 X92.2 Y10.48 M03 S0 F2000
G01 Z1.5 F300
G01 X92.19 Y10.55 M03 S255 F650
G01 X92.98 Y9.3 M03 S0 F2000
G01 Z1.5 F300
G01 X92.2 Y10.48 M03 S255 F650
G01 X93.52 Y8.19 M03 S0 F2000
G01 Z1.5 F300
G01 X92.98 Y9.3 M03 S255 F650
G01 X93.85 Y7.15 M03 S0 F2000
G01 Z1.5 F300
G01 X93.52 Y8.19 M03 S255 F650
G01 X93.98 Y6.18 M03 S0 F2000
G01 Z1.5 F300
G01 X93.85 Y7.15 M03 S255 F650
G01 X93.91 Y5.28 M03 S0 F2000
G01 Z1.5 F300
G01 X93.98 Y6.18 M03 S255 F650
G01 X93.68 Y4.44 M03 S0 F2000
G01 Z1.5 F300
G01 X93.91 Y5.28 M03 S255 F650
G01 X93.29 Y3.68 M03 S0 F2000
G01 Z1.5 F300
G01 X93.68 Y4.44 M03 S255 F650
G01 X92.76 Y2.99 M03 S0 F2000
G01 Z1.5 F300
G01 X93.29 Y3.68 M03 S255 F650
G01 X92.13 Y2.36 M03 S0 F2000
G01 Z1.5 F300
G01 X92.76 Y2.99 M03 S255 F650
G01 X91.36 Y1.81 M03 S0 F2000
G01 Z1.5 F300
G01 X92.13 Y2.36 M03 S255 F650
G01 X90.52 Y1.34 M03 S0 F2000
G01 Z1.5 F300
G01 X91.36 Y1.81 M03 S255 F650
G01 X89.61 Y0.94 M03 S0 F2000
G01 Z1.5 F300
G01 X90.52 Y1.34 M03 S255 F650
G01 X88.64 Y0.6 M03 S0 F2000
G01 Z1.5 F300
G01 X89.61 Y0.94 M03 S255 F650
G01 X87.63 Y0.35 M03 S0 F2000
G01 Z1.5 F300
G01 X88.64 Y0.6 M03 S255 F650
G01 X86.58 Y0.16 M03 S0 F2000
G01 Z1.5 F300
G01 X87.63 Y0.35 M03 S255 F650
G01 X85.52 Y0.06 M03 S0 F2000
G01 Z1.5 F300
G01 X86.58 Y0.16 M03 S255 F650
G01 X84.49 Y0.04 M03 S0 F2000
G01 Z1.5 F300
G01 X85.52 Y0.06 M03 S255 F650
G01 X83.48 Y0.09 M03 S0 F2000
G01 Z1.5 F300
G01 X84.49 Y0.04 M03 S255 F650
G01 X82.49 Y0.21 M03 S0 F2000
G01 Z1.5 F300
G01 X83.48 Y0.09 M03 S255 F650
G01 X81.56 Y0.41 M03 S0 F2000
G01 Z1.5 F300
G01 X82.49 Y0.21 M03 S255 F650
G01 X80.71 Y0.7 M03 S0 F2000
G01 Z1.5 F300
G01 X81.56 Y0.41 M03 S255 F650
G01 X79.95 Y1.06 M03 S0 F2000
G01 Z1.5 F300
G01 X80.71 Y0.7 M03 S255 F650
G01 X79.29 Y1.5 M03 S0 F2000
G01 Z1.5 F300
G01 X79.95 Y1.06 M03 S255 F650
G01 X78.75 Y2.03 M03 S0 F2000
G01 Z1.5 F300
G01 X79.29 Y1.5 M03 S255 F650
G01 X78.34 Y2.63 M03 S0 F2000
G01 Z1.5 F300
G01 X78.75 Y2.03 M03 S255 F650
G01 X78.09 Y3.31 M03 S0 F2000
G01 Z1.5 F300
G01 X78.34 Y2.63 M03 S255 F650
G01 X78 Y4.09 M03 S0 F2000
G01 Z1.5 F300
G01 X78.09 Y3.31 M03 S255 F650
G01 X78.1 Y4.94 M03 S0 F2000
G01 Z1.5 F300
G01 X78 Y4.09 M03 S255 F650
G01 X78.4 Y5.88 M03 S0 F2000
G01 Z1.5 F300
G01 X78.1 Y4.94 M03 S255 F650
G01 X78.91 Y6.89 M03 S0 F2000
G01 Z1.5 F300
G01 X78.4 Y5.88 M03 S255 F650
G01 X79.66 Y8 M03 S0 F2000
G01 Z1.5 F300
G01 X78.91 Y6.89 M03 S255 F650
G01 X80.66 Y9.19 M03 S0 F2000
G01 Z1.5 F300
G01 X79.66 Y8 M03 S255 F650
G01 X80.68 Y9.26 M03 S0 F2000
G01 Z1.5 F300
G01 X80.66 Y9.19 M03 S255 F650
G01 X80.69 Y9.49 M03 S0 F2000
G01 Z1.5 F300
G01 X80.68 Y9.26 M03 S255 F650
G01 X80.73 Y9.84 M03 S0 F2000
G01 Z1.5 F300
G01 X80.69 Y9.49 M03 S255 F650
G01 X80.79 Y10.3 M03 S0 F2000
G01 Z1.5 F300
G01 X80.73 Y9.84 M03 S255 F650
G01 X80.85 Y10.86 M03 S0 F2000
G01 Z1.5 F300
G01 X80.79 Y10.3 M03 S255 F650
G01 X80.93 Y11.5 M03 S0 F2000
G01 Z1.5 F300
G01 X80.85 Y10.86 M03 S255 F650
G01 X81.14 Y12.95 M03 S0 F2000
G01 Z1.5 F300
G01 X80.93 Y11.5 M03 S255 F650
G01 X81.39 Y14.54 M03 S0 F2000
G01 Z1.5 F300
G01 X81.14 Y12.95 M03 S255 F650
G01 X81.7 Y16.13 M03 S0 F2000
G01 Z1.5 F300
G01 X81.39 Y14.54 M03 S255 F650
G01 X82.05 Y17.58 M03 S0 F2000
G01 Z1.5 F300
G01 X81.7 Y16.13 M03 S255 F650
G01 X82.25 Y18.21 M03 S0 F2000
G01 Z1.5 F300
G01 X82.05 Y17.58 M03 S255 F650
G01 X82.46 Y18.78 M03 S0 F2000
G01 Z1.5 F300
G01 X82.25 Y18.21 M03 S255 F650
G01 X83 Y19.84 M03 S0 F2000
G01 Z1.5 F300
G01 X82.46 Y18.78 M03 S255 F650
G01 X83.71 Y20.98 M03 S0 F2000
G01 Z1.5 F300
G01 X83 Y19.84 M03 S255 F650
G01 X84.52 Y22.14 M03 S0 F2000
G01 Z1.5 F300
G01 X83.71 Y20.98 M03 S255 F650
G01 X85.38 Y23.25 M03 S0 F2000
G01 Z1.5 F300
G01 X84.52 Y22.14 M03 S255 F650
G01 X86.16 Y24.24 M03 S0 F2000
G01 Z1.5 F300
G01 X85.38 Y23.25 M03 S255 F650
G01 X86.81 Y25.03 M03 S0 F2000
G01 Z1.5 F300
G01 X86.16 Y24.24 M03 S255 F650
G01 X87.08 Y25.33 M03 S0 F2000
G01 Z1.5 F300
G01 X86.81 Y25.03 M03 S255 F650
G01 X87.27 Y25.55 M03 S0 F2000
G01 Z1.5 F300
G01 X87.08 Y25.33 M03 S255 F650
G01 X87.4 Y25.69 M03 S0 F2000
G01 Z1.5 F300
G01 X87.27 Y25.55 M03 S255 F650
G01 X87.44 Y25.74 M03 S0 F2000
G01 Z1.5 F300
G01 X87.4 Y25.69 M03 S255 F650
G01 X0.08 Y27.29 M03 S0 F2000
G01 Z1.5 F300
G01 X0.05 Y27.24 M03 S255 F650
G01 X0.16 Y27.44 M03 S0 F2000
G01 Z1.5 F300
G01 X0.08 Y27.29 M03 S255 F650
G01 X0.3 Y27.66 M03 S0 F2000
G01 Z1.5 F300
G01 X0.16 Y27.44 M03 S255 F650
G01 X0.49 Y27.98 M03 S0 F2000
G01 Z1.5 F300
G01 X0.3 Y27.66 M03 S255 F650
G01 X0.98 Y28.76 M03 S0 F2000
G01 Z1.5 F300
G01 X0.49 Y27.98 M03 S255 F650
G01 X1.58 Y29.73 M03 S0 F2000
G01 Z1.5 F300
G01 X0.98 Y28.76 M03 S255 F650
G01 X2.26 Y30.76 M03 S0 F2000
G01 Z1.5 F300
G01 X1.58 Y29.73 M03 S255 F650
G01 X2.98 Y31.81 M03 S0 F2000
G01 Z1.5 F300
G01 X2.26 Y30.76 M03 S255 F650
G01 X3.68 Y32.76 M03 S0 F2000
G01 Z1.5 F300
G01 X2.98 Y31.81 M03 S255 F650
G01 X4.31 Y33.55 M03 S0 F2000
G01 Z1.5 F300
G01 X3.68 Y32.76 M03 S255 F650
G01 X4.9 Y34.14 M03 S0 F2000
G01 Z1.5 F300
G01 X4.31 Y33.55 M03 S255 F650
G01 X5.61 Y34.76 M03 S0 F2000
G01 Z1.5 F300
G01 X4.9 Y34.14 M03 S255 F650
G01 X7.14 Y35.93 M03 S0 F2000
G01 Z1.5 F300
G01 X5.61 Y34.76 M03 S255 F650
G01 X7.84 Y36.43 M03 S0 F2000
G01 Z1.5 F300
G01 X7.14 Y35.93 M03 S255 F650
G01 X8.41 Y36.81 M03 S0 F2000
G01 Z1.5 F300
G01 X7.84 Y36.43 M03 S255 F650
G01 X8.8 Y37.08 M03 S0 F2000
G01 Z1.5 F300
G01 X8.41 Y36.81 M03 S255 F650
G01 X8.9 Y37.14 M03 S0 F2000
G01 Z1.5 F300
G01 X8.8 Y37.08 M03 S255 F650
G01 X8.94 Y37.16 M03 S0 F2000
G01 Z1.5 F300
G01 X8.9 Y37.14 M03 S255 F650
G01 Z1.5 F300
G01 X8.94 Y37.16 M03 S255 F650
G01 X9.13 Y37.26 M03 S0 F2000
G01 Z1.5 F300
G01 X8.99 Y37.19 M03 S255 F650
G01 X9.34 Y37.39 M03 S0 F2000
G01 Z1.5 F300
G01 X9.13 Y37.26 M03 S255 F650
G01 X9.63 Y37.54 M03 S0 F2000
G01 Z1.5 F300
G01 X9.34 Y37.39 M03 S255 F650
G01 X10.39 Y37.94 M03 S0 F2000
G01 Z1.5 F300
G01 X9.63 Y37.54 M03 S255 F650
G01 X11.34 Y38.41 M03 S0 F2000
G01 Z1.5 F300
G01 X10.39 Y37.94 M03 S255 F650
G01 X12.39 Y38.91 M03 S0 F2000
G01 Z1.5 F300
G01 X11.34 Y38.41 M03 S255 F650
G01 X13.49 Y39.39 M03 S0 F2000
G01 Z1.5 F300
G01 X12.39 Y38.91 M03 S255 F650
G01 X14.55 Y39.81 M03 S0 F2000
G01 Z1.5 F300
G01 X13.49 Y39.39 M03 S255 F650
G01 X15.51 Y40.11 M03 S0 F2000
G01 Z1.5 F300
G01 X14.55 Y39.81 M03 S255 F650
G01 X16.09 Y40.25 M03 S0 F2000
G01 Z1.5 F300
G01 X15.51 Y40.11 M03 S255 F650
G01 X16.73 Y40.38 M03 S0 F2000
G01 Z1.5 F300
G01 X16.09 Y40.25 M03 S255 F650
G01 X18.14 Y40.6 M03 S0 F2000
G01 Z1.5 F300
G01 X16.73 Y40.38 M03 S255 F650
G01 X19.64 Y40.79 M03 S0 F2000
G01 Z1.5 F300
G01 X18.14 Y40.6 M03 S255 F650
G01 X21.13 Y40.95 M03 S0 F2000
G01 Z1.5 F300
G01 X19.64 Y40.79 M03 S255 F650
G01 X22.48 Y41.08 M03 S0 F2000
G01 Z1.5 F300
G01 X21.13 Y40.95 M03 S255 F650
G01 X23.06 Y41.13 M03 S0 F2000
G01 Z1.5 F300
G01 X22.48 Y41.08 M03 S255 F650
G01 X23.58 Y41.16 M03 S0 F2000
G01 Z1.5 F300
G01 X23.06 Y41.13 M03 S255 F650
G01 X24 Y41.2 M03 S0 F2000
G01 Z1.5 F300
G01 X23.58 Y41.16 M03 S255 F650
G01 X24.33 Y41.23 M03 S0 F2000
G01 Z1.5 F300
G01 X24 Y41.2 M03 S255 F650
G01 X24.53 Y41.24 M03 S0 F2000
G01 Z1.5 F300
G01 X24.33 Y41.23 M03 S255 F650
G01 X24.6 Y41.24 M03 S0 F2000
G01 Z1.5 F300
G01 X24.53 Y41.24 M03 S255 F650
G01 Z1.5 F300
