( Generated by T2Laser ) 
(  DXF2Gcode for Grbl  )
( Start Point: LL      )
( Frame Mode : Extents )
( X Maximum  : 110.4   )
( Y Maximum  : 49.5    )
( Laser Power: 255     )
( Vector Rate: 650     )
( Rapid Feed : 2000    )
( Vector Name: BirdTail.dxf )
G21
G90
F650
M05
G00 Z0 
G01 X0.03 Y19.28 F2000
M03 S0
G01 Z0 F300
G01 X0.03 Y27.57 M03 S255 F650
G01 Z0 F300
G01 X0.04 Y27.58 M03 S255 F650
G01 X0.21 Y27.76 M03 S0 F2000
G01 Z0 F300
G01 X0.09 Y27.63 M03 S255 F650
G01 X0.43 Y27.99 M03 S0 F2000
G01 Z0 F300
G01 X0.21 Y27.76 M03 S255 F650
G01 X0.71 Y28.28 M03 S0 F2000
G01 Z0 F300
G01 X0.43 Y27.99 M03 S255 F650
G01 X1.45 Y29.01 M03 S0 F2000
G01 Z0 F300
G01 X0.71 Y28.28 M03 S255 F650
G01 X2.35 Y29.9 M03 S0 F2000
G01 Z0 F300
G01 X1.45 Y29.01 M03 S255 F650
G01 X3.34 Y30.84 M03 S0 F2000
G01 Z0 F300
G01 X2.35 Y29.9 M03 S255 F650
G01 X4.36 Y31.74 M03 S0 F2000
G01 Z0 F300
G01 X3.34 Y30.84 M03 S255 F650
G01 X5.33 Y32.51 M03 S0 F2000
G01 Z0 F300
G01 X4.36 Y31.74 M03 S255 F650
G01 X6.16 Y33.09 M03 S0 F2000
G01 Z0 F300
G01 X5.33 Y32.51 M03 S255 F650
G01 X7.29 Y33.63 M03 S0 F2000
G01 Z0 F300
G01 X6.16 Y33.09 M03 S255 F650
G01 X8.56 Y34.05 M03 S0 F2000
G01 Z0 F300
G01 X7.29 Y33.63 M03 S255 F650
G01 X9.89 Y34.39 M03 S0 F2000
G01 Z0 F300
G01 X8.56 Y34.05 M03 S255 F650
G01 X11.18 Y34.64 M03 S0 F2000
G01 Z0 F300
G01 X9.89 Y34.39 M03 S255 F650
G01 X12.34 Y34.81 M03 S0 F2000
G01 Z0 F300
G01 X11.18 Y34.64 M03 S255 F650
G01 X12.85 Y34.88 M03 S0 F2000
G01 Z0 F300
G01 X12.34 Y34.81 M03 S255 F650
G01 X13.29 Y34.94 M03 S0 F2000
G01 Z0 F300
G01 X12.85 Y34.88 M03 S255 F650
G01 X13.65 Y34.96 M03 S0 F2000
G01 Z0 F300
G01 X13.29 Y34.94 M03 S255 F650
G01 X13.91 Y35 M03 S0 F2000
G01 Z0 F300
G01 X13.65 Y34.96 M03 S255 F650
G01 X14.09 Y35.01 M03 S0 F2000
G01 Z0 F300
G01 X13.91 Y35 M03 S255 F650
G01 X14.15 Y35.01 M03 S0 F2000
G01 Z0 F300
G01 X14.09 Y35.01 M03 S255 F650
G01 Z0 F300
G01 X14.15 Y35.01 M03 S255 F650
G01 X14.3 Y35 M03 S0 F2000
G01 Z0 F300
G01 X14.19 Y35.01 M03 S255 F650
G01 X14.74 Y34.95 M03 S0 F2000
G01 Z0 F300
G01 X14.3 Y35 M03 S255 F650
G01 X15.43 Y34.89 M03 S0 F2000
G01 Z0 F300
G01 X14.74 Y34.95 M03 S255 F650
G01 X16.34 Y34.79 M03 S0 F2000
G01 Z0 F300
G01 X15.43 Y34.89 M03 S255 F650
G01 X17.44 Y34.69 M03 S0 F2000
G01 Z0 F300
G01 X16.34 Y34.79 M03 S255 F650
G01 X18.71 Y34.58 M03 S0 F2000
G01 Z0 F300
G01 X17.44 Y34.69 M03 S255 F650
G01 X20.11 Y34.45 M03 S0 F2000
G01 Z0 F300
G01 X18.71 Y34.58 M03 S255 F650
G01 X21.61 Y34.31 M03 S0 F2000
G01 Z0 F300
G01 X20.11 Y34.45 M03 S255 F650
G01 X24.8 Y34.08 M03 S0 F2000
G01 Z0 F300
G01 X21.61 Y34.31 M03 S255 F650
G01 X28.04 Y33.86 M03 S0 F2000
G01 Z0 F300
G01 X24.8 Y34.08 M03 S255 F650
G01 X29.6 Y33.79 M03 S0 F2000
G01 Z0 F300
G01 X28.04 Y33.86 M03 S255 F650
G01 X31.09 Y33.73 M03 S0 F2000
G01 Z0 F300
G01 X29.6 Y33.79 M03 S255 F650
G01 X32.45 Y33.7 M03 S0 F2000
G01 Z0 F300
G01 X31.09 Y33.73 M03 S255 F650
G01 X33.69 Y33.7 M03 S0 F2000
G01 Z0 F300
G01 X32.45 Y33.7 M03 S255 F650
G01 X34.93 Y33.66 M03 S0 F2000
G01 Z0 F300
G01 X33.69 Y33.7 M03 S255 F650
G01 X36.21 Y33.53 M03 S0 F2000
G01 Z0 F300
G01 X34.93 Y33.66 M03 S255 F650
G01 X38.85 Y33.15 M03 S0 F2000
G01 Z0 F300
G01 X36.21 Y33.53 M03 S255 F650
G01 X40.19 Y32.99 M03 S0 F2000
G01 Z0 F300
G01 X38.85 Y33.15 M03 S255 F650
G01 X41.53 Y32.89 M03 S0 F2000
G01 Z0 F300
G01 X40.19 Y32.99 M03 S255 F650
G01 X42.84 Y32.91 M03 S0 F2000
G01 Z0 F300
G01 X41.53 Y32.89 M03 S255 F650
G01 X44.14 Y33.1 M03 S0 F2000
G01 Z0 F300
G01 X42.84 Y32.91 M03 S255 F650
G01 X45.39 Y33.45 M03 S0 F2000
G01 Z0 F300
G01 X44.14 Y33.1 M03 S255 F650
G01 X46.69 Y33.94 M03 S0 F2000
G01 Z0 F300
G01 X45.39 Y33.45 M03 S255 F650
G01 X47.98 Y34.51 M03 S0 F2000
G01 Z0 F300
G01 X46.69 Y33.94 M03 S255 F650
G01 X49.2 Y35.1 M03 S0 F2000
G01 Z0 F300
G01 X47.98 Y34.51 M03 S255 F650
G01 X50.26 Y35.66 M03 S0 F2000
G01 Z0 F300
G01 X49.2 Y35.1 M03 S255 F650
G01 X51.11 Y36.13 M03 S0 F2000
G01 Z0 F300
G01 X50.26 Y35.66 M03 S255 F650
G01 X51.44 Y36.31 M03 S0 F2000
G01 Z0 F300
G01 X51.11 Y36.13 M03 S255 F650
G01 X51.68 Y36.45 M03 S0 F2000
G01 Z0 F300
G01 X51.44 Y36.31 M03 S255 F650
G01 X51.83 Y36.54 M03 S0 F2000
G01 Z0 F300
G01 X51.68 Y36.45 M03 S255 F650
G01 X51.88 Y36.58 M03 S0 F2000
G01 Z0 F300
G01 X51.83 Y36.54 M03 S255 F650
G01 Z0 F300
G01 X51.88 Y36.58 M03 S255 F650
G01 X52.01 Y36.73 M03 S0 F2000
G01 Z0 F300
G01 X51.91 Y36.61 M03 S255 F650
G01 X52.38 Y37.14 M03 S0 F2000
G01 Z0 F300
G01 X52.01 Y36.73 M03 S255 F650
G01 X52.94 Y37.71 M03 S0 F2000
G01 Z0 F300
G01 X52.38 Y37.14 M03 S255 F650
G01 X53.65 Y38.39 M03 S0 F2000
G01 Z0 F300
G01 X52.94 Y37.71 M03 S255 F650
G01 X54.44 Y39.1 M03 S0 F2000
G01 Z0 F300
G01 X53.65 Y38.39 M03 S255 F650
G01 X55.29 Y39.75 M03 S0 F2000
G01 Z0 F300
G01 X54.44 Y39.1 M03 S255 F650
G01 X56.14 Y40.28 M03 S0 F2000
G01 Z0 F300
G01 X55.29 Y39.75 M03 S255 F650
G01 X56.95 Y40.59 M03 S0 F2000
G01 Z0 F300
G01 X56.14 Y40.28 M03 S255 F650
G01 X57.69 Y40.75 M03 S0 F2000
G01 Z0 F300
G01 X56.95 Y40.59 M03 S255 F650
G01 X58.55 Y40.9 M03 S0 F2000
G01 Z0 F300
G01 X57.69 Y40.75 M03 S255 F650
G01 X59.49 Y41.03 M03 S0 F2000
G01 Z0 F300
G01 X58.55 Y40.9 M03 S255 F650
G01 X60.49 Y41.15 M03 S0 F2000
G01 Z0 F300
G01 X59.49 Y41.03 M03 S255 F650
G01 X62.61 Y41.36 M03 S0 F2000
G01 Z0 F300
G01 X60.49 Y41.15 M03 S255 F650
G01 X64.75 Y41.54 M03 S0 F2000
G01 Z0 F300
G01 X62.61 Y41.36 M03 S255 F650
G01 X65.76 Y41.6 M03 S0 F2000
G01 Z0 F300
G01 X64.75 Y41.54 M03 S255 F650
G01 X66.71 Y41.66 M03 S0 F2000
G01 Z0 F300
G01 X65.76 Y41.6 M03 S255 F650
G01 X67.58 Y41.71 M03 S0 F2000
G01 Z0 F300
G01 X66.71 Y41.66 M03 S255 F650
G01 X68.33 Y41.75 M03 S0 F2000
G01 Z0 F300
G01 X67.58 Y41.71 M03 S255 F650
G01 X68.95 Y41.78 M03 S0 F2000
G01 Z0 F300
G01 X68.33 Y41.75 M03 S255 F650
G01 X69.43 Y41.8 M03 S0 F2000
G01 Z0 F300
G01 X68.95 Y41.78 M03 S255 F650
G01 X69.73 Y41.81 M03 S0 F2000
G01 Z0 F300
G01 X69.43 Y41.8 M03 S255 F650
G01 X69.83 Y41.81 M03 S0 F2000
G01 Z0 F300
G01 X69.73 Y41.81 M03 S255 F650
G01 X69.91 Y41.81 M03 S0 F2000
G01 Z0 F300
G01 X69.83 Y41.81 M03 S255 F650
G01 X70.14 Y41.81 M03 S0 F2000
G01 Z0 F300
G01 X69.91 Y41.81 M03 S255 F650
G01 X70.51 Y41.81 M03 S0 F2000
G01 Z0 F300
G01 X70.14 Y41.81 M03 S255 F650
G01 X71.01 Y41.81 M03 S0 F2000
G01 Z0 F300
G01 X70.51 Y41.81 M03 S255 F650
G01 X71.61 Y41.83 M03 S0 F2000
G01 Z0 F300
G01 X71.01 Y41.81 M03 S255 F650
G01 X72.3 Y41.85 M03 S0 F2000
G01 Z0 F300
G01 X71.61 Y41.83 M03 S255 F650
G01 X73.88 Y41.94 M03 S0 F2000
G01 Z0 F300
G01 X72.3 Y41.85 M03 S255 F650
G01 X75.61 Y42.1 M03 S0 F2000
G01 Z0 F300
G01 X73.88 Y41.94 M03 S255 F650
G01 X77.39 Y42.35 M03 S0 F2000
G01 Z0 F300
G01 X75.61 Y42.1 M03 S255 F650
G01 X79.05 Y42.73 M03 S0 F2000
G01 Z0 F300
G01 X77.39 Y42.35 M03 S255 F650
G01 X79.81 Y42.96 M03 S0 F2000
G01 Z0 F300
G01 X79.05 Y42.73 M03 S255 F650
G01 X80.5 Y43.24 M03 S0 F2000
G01 Z0 F300
G01 X79.81 Y42.96 M03 S255 F650
G01 X81.01 Y43.51 M03 S0 F2000
G01 Z0 F300
G01 X80.5 Y43.24 M03 S255 F650
G01 X81.58 Y43.85 M03 S0 F2000
G01 Z0 F300
G01 X81.01 Y43.51 M03 S255 F650
G01 X82.77 Y44.73 M03 S0 F2000
G01 Z0 F300
G01 X81.58 Y43.85 M03 S255 F650
G01 X84 Y45.75 M03 S0 F2000
G01 Z0 F300
G01 X82.77 Y44.73 M03 S255 F650
G01 X85.19 Y46.81 M03 S0 F2000
G01 Z0 F300
G01 X84 Y45.75 M03 S255 F650
G01 X86.25 Y47.83 M03 S0 F2000
G01 Z0 F300
G01 X85.19 Y46.81 M03 S255 F650
G01 X87.11 Y48.69 M03 S0 F2000
G01 Z0 F300
G01 X86.25 Y47.83 M03 S255 F650
G01 X87.44 Y49.01 M03 S0 F2000
G01 Z0 F300
G01 X87.11 Y48.69 M03 S255 F650
G01 X87.69 Y49.26 M03 S0 F2000
G01 Z0 F300
G01 X87.44 Y49.01 M03 S255 F650
G01 X87.85 Y49.43 M03 S0 F2000
G01 Z0 F300
G01 X87.69 Y49.26 M03 S255 F650
G01 X87.9 Y49.49 M03 S0 F2000
G01 Z0 F300
G01 X87.85 Y49.43 M03 S255 F650
G01 X87.98 Y49.45 M03 S0 F2000
G01 Z0 F300
G01 X87.9 Y49.49 M03 S255 F650
G01 X88.16 Y49.35 M03 S0 F2000
G01 Z0 F300
G01 X87.98 Y49.45 M03 S255 F650
G01 X88.48 Y49.18 M03 S0 F2000
G01 Z0 F300
G01 X88.16 Y49.35 M03 S255 F650
G01 X88.88 Y48.95 M03 S0 F2000
G01 Z0 F300
G01 X88.48 Y49.18 M03 S255 F650
G01 X89.35 Y48.69 M03 S0 F2000
G01 Z0 F300
G01 X88.88 Y48.95 M03 S255 F650
G01 X89.89 Y48.38 M03 S0 F2000
G01 Z0 F300
G01 X89.35 Y48.69 M03 S255 F650
G01 X91.1 Y47.65 M03 S0 F2000
G01 Z0 F300
G01 X89.89 Y48.38 M03 S255 F650
G01 X92.35 Y46.85 M03 S0 F2000
G01 Z0 F300
G01 X91.1 Y47.65 M03 S255 F650
G01 X93.54 Y46.01 M03 S0 F2000
G01 Z0 F300
G01 X92.35 Y46.85 M03 S255 F650
G01 X94.05 Y45.6 M03 S0 F2000
G01 Z0 F300
G01 X93.54 Y46.01 M03 S255 F650
G01 X94.51 Y45.2 M03 S0 F2000
G01 Z0 F300
G01 X94.05 Y45.6 M03 S255 F650
G01 X94.88 Y44.83 M03 S0 F2000
G01 Z0 F300
G01 X94.51 Y45.2 M03 S255 F650
G01 X95.15 Y44.48 M03 S0 F2000
G01 Z0 F300
G01 X94.88 Y44.83 M03 S255 F650
G01 X95.35 Y43.9 M03 S0 F2000
G01 Z0 F300
G01 X95.15 Y44.48 M03 S255 F650
G01 X95.35 Y43.21 M03 S0 F2000
G01 Z0 F300
G01 X95.35 Y43.9 M03 S255 F650
G01 X95.18 Y42.49 M03 S0 F2000
G01 Z0 F300
G01 X95.35 Y43.21 M03 S255 F650
G01 X94.91 Y41.76 M03 S0 F2000
G01 Z0 F300
G01 X95.18 Y42.49 M03 S255 F650
G01 X94.6 Y41.1 M03 S0 F2000
G01 Z0 F300
G01 X94.91 Y41.76 M03 S255 F650
G01 X94.3 Y40.56 M03 S0 F2000
G01 Z0 F300
G01 X94.6 Y41.1 M03 S255 F650
G01 X94.09 Y40.2 M03 S0 F2000
G01 Z0 F300
G01 X94.3 Y40.56 M03 S255 F650
G01 X94 Y40.06 M03 S0 F2000
G01 Z0 F300
G01 X94.09 Y40.2 M03 S255 F650
G01 X94 Y40.06 M03 S0 F2000
G01 Z0 F300
G01 X84.79 Y37.02 M03 S255 F650
G01 Z0 F300
G01 X105.96 Y38.55 M03 S255 F650
G01 Z0 F300
G01 X105.96 Y38.55 M03 S255 F650
G01 X106.13 Y38.4 M03 S0 F2000
G01 Z0 F300
G01 X106 Y38.51 M03 S255 F650
G01 X106.54 Y38 M03 S0 F2000
G01 Z0 F300
G01 X106.13 Y38.4 M03 S255 F650
G01 X107.11 Y37.41 M03 S0 F2000
G01 Z0 F300
G01 X106.54 Y38 M03 S255 F650
G01 X107.78 Y36.68 M03 S0 F2000
G01 Z0 F300
G01 X107.11 Y37.41 M03 S255 F650
G01 X108.44 Y35.89 M03 S0 F2000
G01 Z0 F300
G01 X107.78 Y36.68 M03 S255 F650
G01 X109.01 Y35.08 M03 S0 F2000
G01 Z0 F300
G01 X108.44 Y35.89 M03 S255 F650
G01 X109.41 Y34.31 M03 S0 F2000
G01 Z0 F300
G01 X109.01 Y35.08 M03 S255 F650
G01 X109.53 Y33.98 M03 S0 F2000
G01 Z0 F300
G01 X109.41 Y34.31 M03 S255 F650
G01 X109.55 Y33.68 M03 S0 F2000
G01 Z0 F300
G01 X109.53 Y33.98 M03 S255 F650
G01 X109.49 Y33.3 M03 S0 F2000
G01 Z0 F300
G01 X109.55 Y33.68 M03 S255 F650
G01 X109.35 Y32.9 M03 S0 F2000
G01 Z0 F300
G01 X109.49 Y33.3 M03 S255 F650
G01 X108.89 Y32.05 M03 S0 F2000
G01 Z0 F300
G01 X109.35 Y32.9 M03 S255 F650
G01 X108.24 Y31.16 M03 S0 F2000
G01 Z0 F300
G01 X108.89 Y32.05 M03 S255 F650
G01 X107.5 Y30.3 M03 S0 F2000
G01 Z0 F300
G01 X108.24 Y31.16 M03 S255 F650
G01 X106.76 Y29.53 M03 S0 F2000
G01 Z0 F300
G01 X107.5 Y30.3 M03 S255 F650
G01 X106.13 Y28.9 M03 S0 F2000
G01 Z0 F300
G01 X106.76 Y29.53 M03 S255 F650
G01 X105.69 Y28.49 M03 S0 F2000
G01 Z0 F300
G01 X106.13 Y28.9 M03 S255 F650
G01 X105.56 Y28.38 M03 S0 F2000
G01 Z0 F300
G01 X105.69 Y28.49 M03 S255 F650
G01 X105.51 Y28.34 M03 S0 F2000
G01 Z0 F300
G01 X105.56 Y28.38 M03 S255 F650
G01 Z0 F300
G01 X85.51 Y26.56 M03 S255 F650
G01 Z0 F300
G01 X107.23 Y26.75 M03 S255 F650
G01 X107.36 Y26.61 M03 S0 F2000
G01 Z0 F300
G01 X107.24 Y26.75 M03 S255 F650
G01 X107.71 Y26.25 M03 S0 F2000
G01 Z0 F300
G01 X107.36 Y26.61 M03 S255 F650
G01 X108.21 Y25.7 M03 S0 F2000
G01 Z0 F300
G01 X107.71 Y26.25 M03 S255 F650
G01 X108.78 Y25.01 M03 S0 F2000
G01 Z0 F300
G01 X108.21 Y25.7 M03 S255 F650
G01 X109.34 Y24.24 M03 S0 F2000
G01 Z0 F300
G01 X108.78 Y25.01 M03 S255 F650
G01 X109.84 Y23.41 M03 S0 F2000
G01 Z0 F300
G01 X109.34 Y24.24 M03 S255 F650
G01 X110.21 Y22.59 M03 S0 F2000
G01 Z0 F300
G01 X109.84 Y23.41 M03 S255 F650
G01 X110.36 Y21.81 M03 S0 F2000
G01 Z0 F300
G01 X110.21 Y22.59 M03 S255 F650
G01 X110.28 Y21.05 M03 S0 F2000
G01 Z0 F300
G01 X110.36 Y21.81 M03 S255 F650
G01 X109.98 Y20.11 M03 S0 F2000
G01 Z0 F300
G01 X110.28 Y21.05 M03 S255 F650
G01 X109.56 Y19.1 M03 S0 F2000
G01 Z0 F300
G01 X109.98 Y20.11 M03 S255 F650
G01 X109.06 Y18.09 M03 S0 F2000
G01 Z0 F300
G01 X109.56 Y19.1 M03 S255 F650
G01 X108.58 Y17.15 M03 S0 F2000
G01 Z0 F300
G01 X109.06 Y18.09 M03 S255 F650
G01 X108.14 Y16.39 M03 S0 F2000
G01 Z0 F300
G01 X108.58 Y17.15 M03 S255 F650
G01 X107.96 Y16.09 M03 S0 F2000
G01 Z0 F300
G01 X108.14 Y16.39 M03 S255 F650
G01 X107.83 Y15.86 M03 S0 F2000
G01 Z0 F300
G01 X107.96 Y16.09 M03 S255 F650
G01 X107.74 Y15.73 M03 S0 F2000
G01 Z0 F300
G01 X107.83 Y15.86 M03 S255 F650
G01 X107.71 Y15.68 M03 S0 F2000
G01 Z0 F300
G01 X107.74 Y15.73 M03 S255 F650
G01 Z0 F300
G01 X84.63 Y17.3 M03 S255 F650
G01 Z0 F300
G01 X106.62 Y14.45 M03 S255 F650
G01 X106.61 Y14.33 M03 S0 F2000
G01 Z0 F300
G01 X106.63 Y14.45 M03 S255 F650
G01 X106.58 Y13.98 M03 S0 F2000
G01 Z0 F300
G01 X106.61 Y14.33 M03 S255 F650
G01 X106.5 Y13.46 M03 S0 F2000
G01 Z0 F300
G01 X106.58 Y13.98 M03 S255 F650
G01 X106.39 Y12.84 M03 S0 F2000
G01 Z0 F300
G01 X106.5 Y13.46 M03 S255 F650
G01 X106 Y11.43 M03 S0 F2000
G01 Z0 F300
G01 X106.39 Y12.84 M03 S255 F650
G01 X105.7 Y10.75 M03 S0 F2000
G01 Z0 F300
G01 X106 Y11.43 M03 S255 F650
G01 X105.34 Y10.15 M03 S0 F2000
G01 Z0 F300
G01 X105.7 Y10.75 M03 S255 F650
G01 X104.88 Y9.65 M03 S0 F2000
G01 Z0 F300
G01 X105.34 Y10.15 M03 S255 F650
G01 X104.21 Y9.09 M03 S0 F2000
G01 Z0 F300
G01 X104.88 Y9.65 M03 S255 F650
G01 X103.45 Y8.49 M03 S0 F2000
G01 Z0 F300
G01 X104.21 Y9.09 M03 S255 F650
G01 X102.64 Y7.91 M03 S0 F2000
G01 Z0 F300
G01 X103.45 Y8.49 M03 S255 F650
G01 X101.88 Y7.39 M03 S0 F2000
G01 Z0 F300
G01 X102.64 Y7.91 M03 S255 F650
G01 X101.24 Y6.95 M03 S0 F2000
G01 Z0 F300
G01 X101.88 Y7.39 M03 S255 F650
G01 X100.79 Y6.66 M03 S0 F2000
G01 Z0 F300
G01 X101.24 Y6.95 M03 S255 F650
G01 X100.66 Y6.59 M03 S0 F2000
G01 Z0 F300
G01 X100.79 Y6.66 M03 S255 F650
G01 X100.63 Y6.56 M03 S0 F2000
G01 Z0 F300
G01 X100.66 Y6.59 M03 S255 F650
G01 X100.55 Y6.55 M03 S0 F2000
G01 Z0 F300
G01 X100.63 Y6.56 M03 S255 F650
G01 X100.35 Y6.51 M03 S0 F2000
G01 Z0 F300
G01 X100.55 Y6.55 M03 S255 F650
G01 X100.04 Y6.46 M03 S0 F2000
G01 Z0 F300
G01 X100.35 Y6.51 M03 S255 F650
G01 X99.61 Y6.39 M03 S0 F2000
G01 Z0 F300
G01 X100.04 Y6.46 M03 S255 F650
G01 X99.1 Y6.3 M03 S0 F2000
G01 Z0 F300
G01 X99.61 Y6.39 M03 S255 F650
G01 X98.51 Y6.21 M03 S0 F2000
G01 Z0 F300
G01 X99.1 Y6.3 M03 S255 F650
G01 X97.15 Y6.04 M03 S0 F2000
G01 Z0 F300
G01 X98.51 Y6.21 M03 S255 F650
G01 X95.64 Y5.89 M03 S0 F2000
G01 Z0 F300
G01 X97.15 Y6.04 M03 S255 F650
G01 X94.09 Y5.8 M03 S0 F2000
G01 Z0 F300
G01 X95.64 Y5.89 M03 S255 F650
G01 X92.6 Y5.81 M03 S0 F2000
G01 Z0 F300
G01 X94.09 Y5.8 M03 S255 F650
G01 X91.29 Y5.95 M03 S0 F2000
G01 Z0 F300
G01 X92.6 Y5.81 M03 S255 F650
G01 X90.64 Y6.09 M03 S0 F2000
G01 Z0 F300
G01 X91.29 Y5.95 M03 S255 F650
G01 X89.93 Y6.3 M03 S0 F2000
G01 Z0 F300
G01 X90.64 Y6.09 M03 S255 F650
G01 X88.36 Y6.84 M03 S0 F2000
G01 Z0 F300
G01 X89.93 Y6.3 M03 S255 F650
G01 X86.71 Y7.51 M03 S0 F2000
G01 Z0 F300
G01 X88.36 Y6.84 M03 S255 F650
G01 X85.1 Y8.22 M03 S0 F2000
G01 Z0 F300
G01 X86.71 Y7.51 M03 S255 F650
G01 X83.63 Y8.91 M03 S0 F2000
G01 Z0 F300
G01 X85.1 Y8.22 M03 S255 F650
G01 X82.99 Y9.22 M03 S0 F2000
G01 Z0 F300
G01 X83.63 Y8.91 M03 S255 F650
G01 X82.44 Y9.5 M03 S0 F2000
G01 Z0 F300
G01 X82.99 Y9.22 M03 S255 F650
G01 X81.98 Y9.74 M03 S0 F2000
G01 Z0 F300
G01 X82.44 Y9.5 M03 S255 F650
G01 X81.64 Y9.91 M03 S0 F2000
G01 Z0 F300
G01 X81.98 Y9.74 M03 S255 F650
G01 X81.41 Y10.03 M03 S0 F2000
G01 Z0 F300
G01 X81.64 Y9.91 M03 S255 F650
G01 X81.34 Y10.06 M03 S0 F2000
G01 Z0 F300
G01 X81.41 Y10.03 M03 S255 F650
G01 Z0 F300
G01 X90.77 Y4 M03 S255 F650
G01 Z0 F300
G01 X91 Y1.2 M03 S255 F650
G01 X90.98 Y1.08 M03 S0 F2000
G01 Z0 F300
G01 X91 Y1.2 M03 S255 F650
G01 X90.88 Y0.96 M03 S0 F2000
G01 Z0 F300
G01 X90.98 Y1.08 M03 S255 F650
G01 X90.5 Y0.75 M03 S0 F2000
G01 Z0 F300
G01 X90.88 Y0.96 M03 S255 F650
G01 X89.95 Y0.55 M03 S0 F2000
G01 Z0 F300
G01 X90.5 Y0.75 M03 S255 F650
G01 X89.34 Y0.38 M03 S0 F2000
G01 Z0 F300
G01 X89.95 Y0.55 M03 S255 F650
G01 X88.7 Y0.24 M03 S0 F2000
G01 Z0 F300
G01 X89.34 Y0.38 M03 S255 F650
G01 X88.16 Y0.13 M03 S0 F2000
G01 Z0 F300
G01 X88.7 Y0.24 M03 S255 F650
G01 X87.77 Y0.06 M03 S0 F2000
G01 Z0 F300
G01 X88.16 Y0.13 M03 S255 F650
G01 X87.66 Y0.04 M03 S0 F2000
G01 Z0 F300
G01 X87.77 Y0.06 M03 S255 F650
G01 X87.63 Y0.04 M03 S0 F2000
G01 Z0 F300
G01 X87.66 Y0.04 M03 S255 F650
G01 X87.49 Y0.05 M03 S0 F2000
G01 Z0 F300
G01 X87.63 Y0.04 M03 S255 F650
G01 X87.08 Y0.08 M03 S0 F2000
G01 Z0 F300
G01 X87.49 Y0.05 M03 S255 F650
G01 X86.43 Y0.11 M03 S0 F2000
G01 Z0 F300
G01 X87.08 Y0.08 M03 S255 F650
G01 X85.58 Y0.18 M03 S0 F2000
G01 Z0 F300
G01 X86.43 Y0.11 M03 S255 F650
G01 X84.54 Y0.24 M03 S0 F2000
G01 Z0 F300
G01 X85.58 Y0.18 M03 S255 F650
G01 X83.35 Y0.33 M03 S0 F2000
G01 Z0 F300
G01 X84.54 Y0.24 M03 S255 F650
G01 X82.04 Y0.43 M03 S0 F2000
G01 Z0 F300
G01 X83.35 Y0.33 M03 S255 F650
G01 X80.64 Y0.55 M03 S0 F2000
G01 Z0 F300
G01 X82.04 Y0.43 M03 S255 F650
G01 X77.68 Y0.83 M03 S0 F2000
G01 Z0 F300
G01 X80.64 Y0.55 M03 S255 F650
G01 X74.68 Y1.15 M03 S0 F2000
G01 Z0 F300
G01 X77.68 Y0.83 M03 S255 F650
G01 X73.25 Y1.33 M03 S0 F2000
G01 Z0 F300
G01 X74.68 Y1.15 M03 S255 F650
G01 X71.89 Y1.51 M03 S0 F2000
G01 Z0 F300
G01 X73.25 Y1.33 M03 S255 F650
G01 X70.65 Y1.73 M03 S0 F2000
G01 Z0 F300
G01 X71.89 Y1.51 M03 S255 F650
G01 X69.54 Y1.94 M03 S0 F2000
G01 Z0 F300
G01 X70.65 Y1.73 M03 S255 F650
G01 X68.52 Y2.18 M03 S0 F2000
G01 Z0 F300
G01 X69.54 Y1.94 M03 S255 F650
G01 X67.46 Y2.46 M03 S0 F2000
G01 Z0 F300
G01 X68.52 Y2.18 M03 S255 F650
G01 X65.19 Y3.18 M03 S0 F2000
G01 Z0 F300
G01 X67.46 Y2.46 M03 S255 F650
G01 X62.88 Y3.99 M03 S0 F2000
G01 Z0 F300
G01 X65.19 Y3.18 M03 S255 F650
G01 X60.66 Y4.81 M03 S0 F2000
G01 Z0 F300
G01 X62.88 Y3.99 M03 S255 F650
G01 X59.63 Y5.23 M03 S0 F2000
G01 Z0 F300
G01 X60.66 Y4.81 M03 S255 F650
G01 X58.69 Y5.6 M03 S0 F2000
G01 Z0 F300
G01 X59.63 Y5.23 M03 S255 F650
G01 X57.83 Y5.95 M03 S0 F2000
G01 Z0 F300
G01 X58.69 Y5.6 M03 S255 F650
G01 X57.1 Y6.26 M03 S0 F2000
G01 Z0 F300
G01 X57.83 Y5.95 M03 S255 F650
G01 X56.49 Y6.51 M03 S0 F2000
G01 Z0 F300
G01 X57.1 Y6.26 M03 S255 F650
G01 X56.04 Y6.71 M03 S0 F2000
G01 Z0 F300
G01 X56.49 Y6.51 M03 S255 F650
G01 X55.75 Y6.84 M03 S0 F2000
G01 Z0 F300
G01 X56.04 Y6.71 M03 S255 F650
G01 X55.65 Y6.88 M03 S0 F2000
G01 Z0 F300
G01 X55.75 Y6.84 M03 S255 F650
G01 X55.53 Y6.99 M03 S0 F2000
G01 Z0 F300
G01 X55.65 Y6.88 M03 S255 F650
G01 X55.18 Y7.31 M03 S0 F2000
G01 Z0 F300
G01 X55.53 Y6.99 M03 S255 F650
G01 X54.65 Y7.78 M03 S0 F2000
G01 Z0 F300
G01 X55.18 Y7.31 M03 S255 F650
G01 X54.03 Y8.31 M03 S0 F2000
G01 Z0 F300
G01 X54.65 Y7.78 M03 S255 F650
G01 X53.33 Y8.89 M03 S0 F2000
G01 Z0 F300
G01 X54.03 Y8.31 M03 S255 F650
G01 X52.61 Y9.42 M03 S0 F2000
G01 Z0 F300
G01 X53.33 Y8.89 M03 S255 F650
G01 X51.94 Y9.88 M03 S0 F2000
G01 Z0 F300
G01 X52.61 Y9.42 M03 S255 F650
G01 X51.36 Y10.18 M03 S0 F2000
G01 Z0 F300
G01 X51.94 Y9.88 M03 S255 F650
G01 X50.14 Y10.61 M03 S0 F2000
G01 Z0 F300
G01 X51.36 Y10.18 M03 S255 F650
G01 X48.74 Y11 M03 S0 F2000
G01 Z0 F300
G01 X50.14 Y10.61 M03 S255 F650
G01 X47.29 Y11.35 M03 S0 F2000
G01 Z0 F300
G01 X48.74 Y11 M03 S255 F650
G01 X45.88 Y11.64 M03 S0 F2000
G01 Z0 F300
G01 X47.29 Y11.35 M03 S255 F650
G01 X44.6 Y11.88 M03 S0 F2000
G01 Z0 F300
G01 X45.88 Y11.64 M03 S255 F650
G01 X44.05 Y11.98 M03 S0 F2000
G01 Z0 F300
G01 X44.6 Y11.88 M03 S255 F650
G01 X43.58 Y12.05 M03 S0 F2000
G01 Z0 F300
G01 X44.05 Y11.98 M03 S255 F650
G01 X43.18 Y12.11 M03 S0 F2000
G01 Z0 F300
G01 X43.58 Y12.05 M03 S255 F650
G01 X42.88 Y12.16 M03 S0 F2000
G01 Z0 F300
G01 X43.18 Y12.11 M03 S255 F650
G01 X42.69 Y12.19 M03 S0 F2000
G01 Z0 F300
G01 X42.88 Y12.16 M03 S255 F650
G01 X42.63 Y12.2 M03 S0 F2000
G01 Z0 F300
G01 X42.69 Y12.19 M03 S255 F650
G01 X42.54 Y12.23 M03 S0 F2000
G01 Z0 F300
G01 X42.63 Y12.2 M03 S255 F650
G01 X42.3 Y12.3 M03 S0 F2000
G01 Z0 F300
G01 X42.54 Y12.23 M03 S255 F650
G01 X41.93 Y12.41 M03 S0 F2000
G01 Z0 F300
G01 X42.3 Y12.3 M03 S255 F650
G01 X41.43 Y12.56 M03 S0 F2000
G01 Z0 F300
G01 X41.93 Y12.41 M03 S255 F650
G01 X40.83 Y12.74 M03 S0 F2000
G01 Z0 F300
G01 X41.43 Y12.56 M03 S255 F650
G01 X40.14 Y12.94 M03 S0 F2000
G01 Z0 F300
G01 X40.83 Y12.74 M03 S255 F650
G01 X38.58 Y13.39 M03 S0 F2000
G01 Z0 F300
G01 X40.14 Y12.94 M03 S255 F650
G01 X36.86 Y13.84 M03 S0 F2000
G01 Z0 F300
G01 X38.58 Y13.39 M03 S255 F650
G01 X35.16 Y14.25 M03 S0 F2000
G01 Z0 F300
G01 X36.86 Y13.84 M03 S255 F650
G01 X33.6 Y14.56 M03 S0 F2000
G01 Z0 F300
G01 X35.16 Y14.25 M03 S255 F650
G01 X32.9 Y14.68 M03 S0 F2000
G01 Z0 F300
G01 X33.6 Y14.56 M03 S255 F650
G01 X32.3 Y14.75 M03 S0 F2000
G01 Z0 F300
G01 X32.9 Y14.68 M03 S255 F650
G01 X30.98 Y14.85 M03 S0 F2000
G01 Z0 F300
G01 X32.3 Y14.75 M03 S255 F650
G01 X29.55 Y14.91 M03 S0 F2000
G01 Z0 F300
G01 X30.98 Y14.85 M03 S255 F650
G01 X26.51 Y14.98 M03 S0 F2000
G01 Z0 F300
G01 X29.55 Y14.91 M03 S255 F650
G01 X23.39 Y14.98 M03 S0 F2000
G01 Z0 F300
G01 X26.51 Y14.98 M03 S255 F650
G01 X21.85 Y14.95 M03 S0 F2000
G01 Z0 F300
G01 X23.39 Y14.98 M03 S255 F650
G01 X20.36 Y14.93 M03 S0 F2000
G01 Z0 F300
G01 X21.85 Y14.95 M03 S255 F650
G01 X18.96 Y14.89 M03 S0 F2000
G01 Z0 F300
G01 X20.36 Y14.93 M03 S255 F650
G01 X17.66 Y14.84 M03 S0 F2000
G01 Z0 F300
G01 X18.96 Y14.89 M03 S255 F650
G01 X16.49 Y14.8 M03 S0 F2000
G01 Z0 F300
G01 X17.66 Y14.84 M03 S255 F650
G01 X15.48 Y14.76 M03 S0 F2000
G01 Z0 F300
G01 X16.49 Y14.8 M03 S255 F650
G01 X14.65 Y14.73 M03 S0 F2000
G01 Z0 F300
G01 X15.48 Y14.76 M03 S255 F650
G01 X14.03 Y14.69 M03 S0 F2000
G01 Z0 F300
G01 X14.65 Y14.73 M03 S255 F650
G01 X13.63 Y14.68 M03 S0 F2000
G01 Z0 F300
G01 X14.03 Y14.69 M03 S255 F650
G01 X13.49 Y14.66 M03 S0 F2000
G01 Z0 F300
G01 X13.63 Y14.68 M03 S255 F650
G01 X13.44 Y14.68 M03 S0 F2000
G01 Z0 F300
G01 X13.49 Y14.66 M03 S255 F650
G01 X13.29 Y14.7 M03 S0 F2000
G01 Z0 F300
G01 X13.44 Y14.68 M03 S255 F650
G01 X13.04 Y14.75 M03 S0 F2000
G01 Z0 F300
G01 X13.29 Y14.7 M03 S255 F650
G01 X12.73 Y14.81 M03 S0 F2000
G01 Z0 F300
G01 X13.04 Y14.75 M03 S255 F650
G01 X11.9 Y14.98 M03 S0 F2000
G01 Z0 F300
G01 X12.73 Y14.81 M03 S255 F650
G01 X10.91 Y15.19 M03 S0 F2000
G01 Z0 F300
G01 X11.9 Y14.98 M03 S255 F650
G01 X9.84 Y15.43 M03 S0 F2000
G01 Z0 F300
G01 X10.91 Y15.19 M03 S255 F650
G01 X8.76 Y15.68 M03 S0 F2000
G01 Z0 F300
G01 X9.84 Y15.43 M03 S255 F650
G01 X7.78 Y15.93 M03 S0 F2000
G01 Z0 F300
G01 X8.76 Y15.68 M03 S255 F650
G01 X6.98 Y16.18 M03 S0 F2000
G01 Z0 F300
G01 X7.78 Y15.93 M03 S255 F650
G01 X5.91 Y16.58 M03 S0 F2000
G01 Z0 F300
G01 X6.98 Y16.18 M03 S255 F650
G01 X4.76 Y17.05 M03 S0 F2000
G01 Z0 F300
G01 X5.91 Y16.58 M03 S255 F650
G01 X3.6 Y17.56 M03 S0 F2000
G01 Z0 F300
G01 X4.76 Y17.05 M03 S255 F650
G01 X2.5 Y18.08 M03 S0 F2000
G01 Z0 F300
G01 X3.6 Y17.56 M03 S255 F650
G01 X1.53 Y18.54 M03 S0 F2000
G01 Z0 F300
G01 X2.5 Y18.08 M03 S255 F650
G01 X0.75 Y18.93 M03 S0 F2000
G01 Z0 F300
G01 X1.53 Y18.54 M03 S255 F650
G01 X0.45 Y19.08 M03 S0 F2000
G01 Z0 F300
G01 X0.75 Y18.93 M03 S255 F650
G01 X0.23 Y19.19 M03 S0 F2000
G01 Z0 F300
G01 X0.45 Y19.08 M03 S255 F650
G01 X0.09 Y19.26 M03 S0 F2000
G01 Z0 F300
G01 X0.23 Y19.19 M03 S255 F650
G01 X0.04 Y19.29 M03 S0 F2000
G01 Z0 F300
G01 X0.09 Y19.26 M03 S255 F650
G01 Z0 F300
G01 X0.03 Y19.28 M03 S255 F650
G00 M03 S0
M05
G01 X0.03 Y19.28 M03 S0 F2000
M03 S0
G01 Z0.75 F300
G01 X0.03 Y27.57 M03 S255 F650
G01 Z0.75 F300
G01 X0.04 Y27.58 M03 S255 F650
G01 X0.21 Y27.76 M03 S0 F2000
G01 Z0.75 F300
G01 X0.09 Y27.63 M03 S255 F650
G01 X0.43 Y27.99 M03 S0 F2000
G01 Z0.75 F300
G01 X0.21 Y27.76 M03 S255 F650
G01 X0.71 Y28.28 M03 S0 F2000
G01 Z0.75 F300
G01 X0.43 Y27.99 M03 S255 F650
G01 X1.45 Y29.01 M03 S0 F2000
G01 Z0.75 F300
G01 X0.71 Y28.28 M03 S255 F650
G01 X2.35 Y29.9 M03 S0 F2000
G01 Z0.75 F300
G01 X1.45 Y29.01 M03 S255 F650
G01 X3.34 Y30.84 M03 S0 F2000
G01 Z0.75 F300
G01 X2.35 Y29.9 M03 S255 F650
G01 X4.36 Y31.74 M03 S0 F2000
G01 Z0.75 F300
G01 X3.34 Y30.84 M03 S255 F650
G01 X5.33 Y32.51 M03 S0 F2000
G01 Z0.75 F300
G01 X4.36 Y31.74 M03 S255 F650
G01 X6.16 Y33.09 M03 S0 F2000
G01 Z0.75 F300
G01 X5.33 Y32.51 M03 S255 F650
G01 X7.29 Y33.63 M03 S0 F2000
G01 Z0.75 F300
G01 X6.16 Y33.09 M03 S255 F650
G01 X8.56 Y34.05 M03 S0 F2000
G01 Z0.75 F300
G01 X7.29 Y33.63 M03 S255 F650
G01 X9.89 Y34.39 M03 S0 F2000
G01 Z0.75 F300
G01 X8.56 Y34.05 M03 S255 F650
G01 X11.18 Y34.64 M03 S0 F2000
G01 Z0.75 F300
G01 X9.89 Y34.39 M03 S255 F650
G01 X12.34 Y34.81 M03 S0 F2000
G01 Z0.75 F300
G01 X11.18 Y34.64 M03 S255 F650
G01 X12.85 Y34.88 M03 S0 F2000
G01 Z0.75 F300
G01 X12.34 Y34.81 M03 S255 F650
G01 X13.29 Y34.94 M03 S0 F2000
G01 Z0.75 F300
G01 X12.85 Y34.88 M03 S255 F650
G01 X13.65 Y34.96 M03 S0 F2000
G01 Z0.75 F300
G01 X13.29 Y34.94 M03 S255 F650
G01 X13.91 Y35 M03 S0 F2000
G01 Z0.75 F300
G01 X13.65 Y34.96 M03 S255 F650
G01 X14.09 Y35.01 M03 S0 F2000
G01 Z0.75 F300
G01 X13.91 Y35 M03 S255 F650
G01 X14.15 Y35.01 M03 S0 F2000
G01 Z0.75 F300
G01 X14.09 Y35.01 M03 S255 F650
G01 Z0.75 F300
G01 X14.15 Y35.01 M03 S255 F650
G01 X14.3 Y35 M03 S0 F2000
G01 Z0.75 F300
G01 X14.19 Y35.01 M03 S255 F650
G01 X14.74 Y34.95 M03 S0 F2000
G01 Z0.75 F300
G01 X14.3 Y35 M03 S255 F650
G01 X15.43 Y34.89 M03 S0 F2000
G01 Z0.75 F300
G01 X14.74 Y34.95 M03 S255 F650
G01 X16.34 Y34.79 M03 S0 F2000
G01 Z0.75 F300
G01 X15.43 Y34.89 M03 S255 F650
G01 X17.44 Y34.69 M03 S0 F2000
G01 Z0.75 F300
G01 X16.34 Y34.79 M03 S255 F650
G01 X18.71 Y34.58 M03 S0 F2000
G01 Z0.75 F300
G01 X17.44 Y34.69 M03 S255 F650
G01 X20.11 Y34.45 M03 S0 F2000
G01 Z0.75 F300
G01 X18.71 Y34.58 M03 S255 F650
G01 X21.61 Y34.31 M03 S0 F2000
G01 Z0.75 F300
G01 X20.11 Y34.45 M03 S255 F650
G01 X24.8 Y34.08 M03 S0 F2000
G01 Z0.75 F300
G01 X21.61 Y34.31 M03 S255 F650
G01 X28.04 Y33.86 M03 S0 F2000
G01 Z0.75 F300
G01 X24.8 Y34.08 M03 S255 F650
G01 X29.6 Y33.79 M03 S0 F2000
G01 Z0.75 F300
G01 X28.04 Y33.86 M03 S255 F650
G01 X31.09 Y33.73 M03 S0 F2000
G01 Z0.75 F300
G01 X29.6 Y33.79 M03 S255 F650
G01 X32.45 Y33.7 M03 S0 F2000
G01 Z0.75 F300
G01 X31.09 Y33.73 M03 S255 F650
G01 X33.69 Y33.7 M03 S0 F2000
G01 Z0.75 F300
G01 X32.45 Y33.7 M03 S255 F650
G01 X34.93 Y33.66 M03 S0 F2000
G01 Z0.75 F300
G01 X33.69 Y33.7 M03 S255 F650
G01 X36.21 Y33.53 M03 S0 F2000
G01 Z0.75 F300
G01 X34.93 Y33.66 M03 S255 F650
G01 X38.85 Y33.15 M03 S0 F2000
G01 Z0.75 F300
G01 X36.21 Y33.53 M03 S255 F650
G01 X40.19 Y32.99 M03 S0 F2000
G01 Z0.75 F300
G01 X38.85 Y33.15 M03 S255 F650
G01 X41.53 Y32.89 M03 S0 F2000
G01 Z0.75 F300
G01 X40.19 Y32.99 M03 S255 F650
G01 X42.84 Y32.91 M03 S0 F2000
G01 Z0.75 F300
G01 X41.53 Y32.89 M03 S255 F650
G01 X44.14 Y33.1 M03 S0 F2000
G01 Z0.75 F300
G01 X42.84 Y32.91 M03 S255 F650
G01 X45.39 Y33.45 M03 S0 F2000
G01 Z0.75 F300
G01 X44.14 Y33.1 M03 S255 F650
G01 X46.69 Y33.94 M03 S0 F2000
G01 Z0.75 F300
G01 X45.39 Y33.45 M03 S255 F650
G01 X47.98 Y34.51 M03 S0 F2000
G01 Z0.75 F300
G01 X46.69 Y33.94 M03 S255 F650
G01 X49.2 Y35.1 M03 S0 F2000
G01 Z0.75 F300
G01 X47.98 Y34.51 M03 S255 F650
G01 X50.26 Y35.66 M03 S0 F2000
G01 Z0.75 F300
G01 X49.2 Y35.1 M03 S255 F650
G01 X51.11 Y36.13 M03 S0 F2000
G01 Z0.75 F300
G01 X50.26 Y35.66 M03 S255 F650
G01 X51.44 Y36.31 M03 S0 F2000
G01 Z0.75 F300
G01 X51.11 Y36.13 M03 S255 F650
G01 X51.68 Y36.45 M03 S0 F2000
G01 Z0.75 F300
G01 X51.44 Y36.31 M03 S255 F650
G01 X51.83 Y36.54 M03 S0 F2000
G01 Z0.75 F300
G01 X51.68 Y36.45 M03 S255 F650
G01 X51.88 Y36.58 M03 S0 F2000
G01 Z0.75 F300
G01 X51.83 Y36.54 M03 S255 F650
G01 Z0.75 F300
G01 X51.88 Y36.58 M03 S255 F650
G01 X52.01 Y36.73 M03 S0 F2000
G01 Z0.75 F300
G01 X51.91 Y36.61 M03 S255 F650
G01 X52.38 Y37.14 M03 S0 F2000
G01 Z0.75 F300
G01 X52.01 Y36.73 M03 S255 F650
G01 X52.94 Y37.71 M03 S0 F2000
G01 Z0.75 F300
G01 X52.38 Y37.14 M03 S255 F650
G01 X53.65 Y38.39 M03 S0 F2000
G01 Z0.75 F300
G01 X52.94 Y37.71 M03 S255 F650
G01 X54.44 Y39.1 M03 S0 F2000
G01 Z0.75 F300
G01 X53.65 Y38.39 M03 S255 F650
G01 X55.29 Y39.75 M03 S0 F2000
G01 Z0.75 F300
G01 X54.44 Y39.1 M03 S255 F650
G01 X56.14 Y40.28 M03 S0 F2000
G01 Z0.75 F300
G01 X55.29 Y39.75 M03 S255 F650
G01 X56.95 Y40.59 M03 S0 F2000
G01 Z0.75 F300
G01 X56.14 Y40.28 M03 S255 F650
G01 X57.69 Y40.75 M03 S0 F2000
G01 Z0.75 F300
G01 X56.95 Y40.59 M03 S255 F650
G01 X58.55 Y40.9 M03 S0 F2000
G01 Z0.75 F300
G01 X57.69 Y40.75 M03 S255 F650
G01 X59.49 Y41.03 M03 S0 F2000
G01 Z0.75 F300
G01 X58.55 Y40.9 M03 S255 F650
G01 X60.49 Y41.15 M03 S0 F2000
G01 Z0.75 F300
G01 X59.49 Y41.03 M03 S255 F650
G01 X62.61 Y41.36 M03 S0 F2000
G01 Z0.75 F300
G01 X60.49 Y41.15 M03 S255 F650
G01 X64.75 Y41.54 M03 S0 F2000
G01 Z0.75 F300
G01 X62.61 Y41.36 M03 S255 F650
G01 X65.76 Y41.6 M03 S0 F2000
G01 Z0.75 F300
G01 X64.75 Y41.54 M03 S255 F650
G01 X66.71 Y41.66 M03 S0 F2000
G01 Z0.75 F300
G01 X65.76 Y41.6 M03 S255 F650
G01 X67.58 Y41.71 M03 S0 F2000
G01 Z0.75 F300
G01 X66.71 Y41.66 M03 S255 F650
G01 X68.33 Y41.75 M03 S0 F2000
G01 Z0.75 F300
G01 X67.58 Y41.71 M03 S255 F650
G01 X68.95 Y41.78 M03 S0 F2000
G01 Z0.75 F300
G01 X68.33 Y41.75 M03 S255 F650
G01 X69.43 Y41.8 M03 S0 F2000
G01 Z0.75 F300
G01 X68.95 Y41.78 M03 S255 F650
G01 X69.73 Y41.81 M03 S0 F2000
G01 Z0.75 F300
G01 X69.43 Y41.8 M03 S255 F650
G01 X69.83 Y41.81 M03 S0 F2000
G01 Z0.75 F300
G01 X69.73 Y41.81 M03 S255 F650
G01 X69.91 Y41.81 M03 S0 F2000
G01 Z0.75 F300
G01 X69.83 Y41.81 M03 S255 F650
G01 X70.14 Y41.81 M03 S0 F2000
G01 Z0.75 F300
G01 X69.91 Y41.81 M03 S255 F650
G01 X70.51 Y41.81 M03 S0 F2000
G01 Z0.75 F300
G01 X70.14 Y41.81 M03 S255 F650
G01 X71.01 Y41.81 M03 S0 F2000
G01 Z0.75 F300
G01 X70.51 Y41.81 M03 S255 F650
G01 X71.61 Y41.83 M03 S0 F2000
G01 Z0.75 F300
G01 X71.01 Y41.81 M03 S255 F650
G01 X72.3 Y41.85 M03 S0 F2000
G01 Z0.75 F300
G01 X71.61 Y41.83 M03 S255 F650
G01 X73.88 Y41.94 M03 S0 F2000
G01 Z0.75 F300
G01 X72.3 Y41.85 M03 S255 F650
G01 X75.61 Y42.1 M03 S0 F2000
G01 Z0.75 F300
G01 X73.88 Y41.94 M03 S255 F650
G01 X77.39 Y42.35 M03 S0 F2000
G01 Z0.75 F300
G01 X75.61 Y42.1 M03 S255 F650
G01 X79.05 Y42.73 M03 S0 F2000
G01 Z0.75 F300
G01 X77.39 Y42.35 M03 S255 F650
G01 X79.81 Y42.96 M03 S0 F2000
G01 Z0.75 F300
G01 X79.05 Y42.73 M03 S255 F650
G01 X80.5 Y43.24 M03 S0 F2000
G01 Z0.75 F300
G01 X79.81 Y42.96 M03 S255 F650
G01 X81.01 Y43.51 M03 S0 F2000
G01 Z0.75 F300
G01 X80.5 Y43.24 M03 S255 F650
G01 X81.58 Y43.85 M03 S0 F2000
G01 Z0.75 F300
G01 X81.01 Y43.51 M03 S255 F650
G01 X82.77 Y44.73 M03 S0 F2000
G01 Z0.75 F300
G01 X81.58 Y43.85 M03 S255 F650
G01 X84 Y45.75 M03 S0 F2000
G01 Z0.75 F300
G01 X82.77 Y44.73 M03 S255 F650
G01 X85.19 Y46.81 M03 S0 F2000
G01 Z0.75 F300
G01 X84 Y45.75 M03 S255 F650
G01 X86.25 Y47.83 M03 S0 F2000
G01 Z0.75 F300
G01 X85.19 Y46.81 M03 S255 F650
G01 X87.11 Y48.69 M03 S0 F2000
G01 Z0.75 F300
G01 X86.25 Y47.83 M03 S255 F650
G01 X87.44 Y49.01 M03 S0 F2000
G01 Z0.75 F300
G01 X87.11 Y48.69 M03 S255 F650
G01 X87.69 Y49.26 M03 S0 F2000
G01 Z0.75 F300
G01 X87.44 Y49.01 M03 S255 F650
G01 X87.85 Y49.43 M03 S0 F2000
G01 Z0.75 F300
G01 X87.69 Y49.26 M03 S255 F650
G01 X87.9 Y49.49 M03 S0 F2000
G01 Z0.75 F300
G01 X87.85 Y49.43 M03 S255 F650
G01 X87.98 Y49.45 M03 S0 F2000
G01 Z0.75 F300
G01 X87.9 Y49.49 M03 S255 F650
G01 X88.16 Y49.35 M03 S0 F2000
G01 Z0.75 F300
G01 X87.98 Y49.45 M03 S255 F650
G01 X88.48 Y49.18 M03 S0 F2000
G01 Z0.75 F300
G01 X88.16 Y49.35 M03 S255 F650
G01 X88.88 Y48.95 M03 S0 F2000
G01 Z0.75 F300
G01 X88.48 Y49.18 M03 S255 F650
G01 X89.35 Y48.69 M03 S0 F2000
G01 Z0.75 F300
G01 X88.88 Y48.95 M03 S255 F650
G01 X89.89 Y48.38 M03 S0 F2000
G01 Z0.75 F300
G01 X89.35 Y48.69 M03 S255 F650
G01 X91.1 Y47.65 M03 S0 F2000
G01 Z0.75 F300
G01 X89.89 Y48.38 M03 S255 F650
G01 X92.35 Y46.85 M03 S0 F2000
G01 Z0.75 F300
G01 X91.1 Y47.65 M03 S255 F650
G01 X93.54 Y46.01 M03 S0 F2000
G01 Z0.75 F300
G01 X92.35 Y46.85 M03 S255 F650
G01 X94.05 Y45.6 M03 S0 F2000
G01 Z0.75 F300
G01 X93.54 Y46.01 M03 S255 F650
G01 X94.51 Y45.2 M03 S0 F2000
G01 Z0.75 F300
G01 X94.05 Y45.6 M03 S255 F650
G01 X94.88 Y44.83 M03 S0 F2000
G01 Z0.75 F300
G01 X94.51 Y45.2 M03 S255 F650
G01 X95.15 Y44.48 M03 S0 F2000
G01 Z0.75 F300
G01 X94.88 Y44.83 M03 S255 F650
G01 X95.35 Y43.9 M03 S0 F2000
G01 Z0.75 F300
G01 X95.15 Y44.48 M03 S255 F650
G01 X95.35 Y43.21 M03 S0 F2000
G01 Z0.75 F300
G01 X95.35 Y43.9 M03 S255 F650
G01 X95.18 Y42.49 M03 S0 F2000
G01 Z0.75 F300
G01 X95.35 Y43.21 M03 S255 F650
G01 X94.91 Y41.76 M03 S0 F2000
G01 Z0.75 F300
G01 X95.18 Y42.49 M03 S255 F650
G01 X94.6 Y41.1 M03 S0 F2000
G01 Z0.75 F300
G01 X94.91 Y41.76 M03 S255 F650
G01 X94.3 Y40.56 M03 S0 F2000
G01 Z0.75 F300
G01 X94.6 Y41.1 M03 S255 F650
G01 X94.09 Y40.2 M03 S0 F2000
G01 Z0.75 F300
G01 X94.3 Y40.56 M03 S255 F650
G01 X94 Y40.06 M03 S0 F2000
G01 Z0.75 F300
G01 X94.09 Y40.2 M03 S255 F650
G01 X94 Y40.06 M03 S0 F2000
G01 Z0.75 F300
G01 X84.79 Y37.02 M03 S255 F650
G01 Z0.75 F300
G01 X105.96 Y38.55 M03 S255 F650
G01 Z0.75 F300
G01 X105.96 Y38.55 M03 S255 F650
G01 X106.13 Y38.4 M03 S0 F2000
G01 Z0.75 F300
G01 X106 Y38.51 M03 S255 F650
G01 X106.54 Y38 M03 S0 F2000
G01 Z0.75 F300
G01 X106.13 Y38.4 M03 S255 F650
G01 X107.11 Y37.41 M03 S0 F2000
G01 Z0.75 F300
G01 X106.54 Y38 M03 S255 F650
G01 X107.78 Y36.68 M03 S0 F2000
G01 Z0.75 F300
G01 X107.11 Y37.41 M03 S255 F650
G01 X108.44 Y35.89 M03 S0 F2000
G01 Z0.75 F300
G01 X107.78 Y36.68 M03 S255 F650
G01 X109.01 Y35.08 M03 S0 F2000
G01 Z0.75 F300
G01 X108.44 Y35.89 M03 S255 F650
G01 X109.41 Y34.31 M03 S0 F2000
G01 Z0.75 F300
G01 X109.01 Y35.08 M03 S255 F650
G01 X109.53 Y33.98 M03 S0 F2000
G01 Z0.75 F300
G01 X109.41 Y34.31 M03 S255 F650
G01 X109.55 Y33.68 M03 S0 F2000
G01 Z0.75 F300
G01 X109.53 Y33.98 M03 S255 F650
G01 X109.49 Y33.3 M03 S0 F2000
G01 Z0.75 F300
G01 X109.55 Y33.68 M03 S255 F650
G01 X109.35 Y32.9 M03 S0 F2000
G01 Z0.75 F300
G01 X109.49 Y33.3 M03 S255 F650
G01 X108.89 Y32.05 M03 S0 F2000
G01 Z0.75 F300
G01 X109.35 Y32.9 M03 S255 F650
G01 X108.24 Y31.16 M03 S0 F2000
G01 Z0.75 F300
G01 X108.89 Y32.05 M03 S255 F650
G01 X107.5 Y30.3 M03 S0 F2000
G01 Z0.75 F300
G01 X108.24 Y31.16 M03 S255 F650
G01 X106.76 Y29.53 M03 S0 F2000
G01 Z0.75 F300
G01 X107.5 Y30.3 M03 S255 F650
G01 X106.13 Y28.9 M03 S0 F2000
G01 Z0.75 F300
G01 X106.76 Y29.53 M03 S255 F650
G01 X105.69 Y28.49 M03 S0 F2000
G01 Z0.75 F300
G01 X106.13 Y28.9 M03 S255 F650
G01 X105.56 Y28.38 M03 S0 F2000
G01 Z0.75 F300
G01 X105.69 Y28.49 M03 S255 F650
G01 X105.51 Y28.34 M03 S0 F2000
G01 Z0.75 F300
G01 X105.56 Y28.38 M03 S255 F650
G01 Z0.75 F300
G01 X85.51 Y26.56 M03 S255 F650
G01 Z0.75 F300
G01 X107.23 Y26.75 M03 S255 F650
G01 X107.36 Y26.61 M03 S0 F2000
G01 Z0.75 F300
G01 X107.24 Y26.75 M03 S255 F650
G01 X107.71 Y26.25 M03 S0 F2000
G01 Z0.75 F300
G01 X107.36 Y26.61 M03 S255 F650
G01 X108.21 Y25.7 M03 S0 F2000
G01 Z0.75 F300
G01 X107.71 Y26.25 M03 S255 F650
G01 X108.78 Y25.01 M03 S0 F2000
G01 Z0.75 F300
G01 X108.21 Y25.7 M03 S255 F650
G01 X109.34 Y24.24 M03 S0 F2000
G01 Z0.75 F300
G01 X108.78 Y25.01 M03 S255 F650
G01 X109.84 Y23.41 M03 S0 F2000
G01 Z0.75 F300
G01 X109.34 Y24.24 M03 S255 F650
G01 X110.21 Y22.59 M03 S0 F2000
G01 Z0.75 F300
G01 X109.84 Y23.41 M03 S255 F650
G01 X110.36 Y21.81 M03 S0 F2000
G01 Z0.75 F300
G01 X110.21 Y22.59 M03 S255 F650
G01 X110.28 Y21.05 M03 S0 F2000
G01 Z0.75 F300
G01 X110.36 Y21.81 M03 S255 F650
G01 X109.98 Y20.11 M03 S0 F2000
G01 Z0.75 F300
G01 X110.28 Y21.05 M03 S255 F650
G01 X109.56 Y19.1 M03 S0 F2000
G01 Z0.75 F300
G01 X109.98 Y20.11 M03 S255 F650
G01 X109.06 Y18.09 M03 S0 F2000
G01 Z0.75 F300
G01 X109.56 Y19.1 M03 S255 F650
G01 X108.58 Y17.15 M03 S0 F2000
G01 Z0.75 F300
G01 X109.06 Y18.09 M03 S255 F650
G01 X108.14 Y16.39 M03 S0 F2000
G01 Z0.75 F300
G01 X108.58 Y17.15 M03 S255 F650
G01 X107.96 Y16.09 M03 S0 F2000
G01 Z0.75 F300
G01 X108.14 Y16.39 M03 S255 F650
G01 X107.83 Y15.86 M03 S0 F2000
G01 Z0.75 F300
G01 X107.96 Y16.09 M03 S255 F650
G01 X107.74 Y15.73 M03 S0 F2000
G01 Z0.75 F300
G01 X107.83 Y15.86 M03 S255 F650
G01 X107.71 Y15.68 M03 S0 F2000
G01 Z0.75 F300
G01 X107.74 Y15.73 M03 S255 F650
G01 Z0.75 F300
G01 X84.63 Y17.3 M03 S255 F650
G01 Z0.75 F300
G01 X106.62 Y14.45 M03 S255 F650
G01 X106.61 Y14.33 M03 S0 F2000
G01 Z0.75 F300
G01 X106.63 Y14.45 M03 S255 F650
G01 X106.58 Y13.98 M03 S0 F2000
G01 Z0.75 F300
G01 X106.61 Y14.33 M03 S255 F650
G01 X106.5 Y13.46 M03 S0 F2000
G01 Z0.75 F300
G01 X106.58 Y13.98 M03 S255 F650
G01 X106.39 Y12.84 M03 S0 F2000
G01 Z0.75 F300
G01 X106.5 Y13.46 M03 S255 F650
G01 X106 Y11.43 M03 S0 F2000
G01 Z0.75 F300
G01 X106.39 Y12.84 M03 S255 F650
G01 X105.7 Y10.75 M03 S0 F2000
G01 Z0.75 F300
G01 X106 Y11.43 M03 S255 F650
G01 X105.34 Y10.15 M03 S0 F2000
G01 Z0.75 F300
G01 X105.7 Y10.75 M03 S255 F650
G01 X104.88 Y9.65 M03 S0 F2000
G01 Z0.75 F300
G01 X105.34 Y10.15 M03 S255 F650
G01 X104.21 Y9.09 M03 S0 F2000
G01 Z0.75 F300
G01 X104.88 Y9.65 M03 S255 F650
G01 X103.45 Y8.49 M03 S0 F2000
G01 Z0.75 F300
G01 X104.21 Y9.09 M03 S255 F650
G01 X102.64 Y7.91 M03 S0 F2000
G01 Z0.75 F300
G01 X103.45 Y8.49 M03 S255 F650
G01 X101.88 Y7.39 M03 S0 F2000
G01 Z0.75 F300
G01 X102.64 Y7.91 M03 S255 F650
G01 X101.24 Y6.95 M03 S0 F2000
G01 Z0.75 F300
G01 X101.88 Y7.39 M03 S255 F650
G01 X100.79 Y6.66 M03 S0 F2000
G01 Z0.75 F300
G01 X101.24 Y6.95 M03 S255 F650
G01 X100.66 Y6.59 M03 S0 F2000
G01 Z0.75 F300
G01 X100.79 Y6.66 M03 S255 F650
G01 X100.63 Y6.56 M03 S0 F2000
G01 Z0.75 F300
G01 X100.66 Y6.59 M03 S255 F650
G01 X100.55 Y6.55 M03 S0 F2000
G01 Z0.75 F300
G01 X100.63 Y6.56 M03 S255 F650
G01 X100.35 Y6.51 M03 S0 F2000
G01 Z0.75 F300
G01 X100.55 Y6.55 M03 S255 F650
G01 X100.04 Y6.46 M03 S0 F2000
G01 Z0.75 F300
G01 X100.35 Y6.51 M03 S255 F650
G01 X99.61 Y6.39 M03 S0 F2000
G01 Z0.75 F300
G01 X100.04 Y6.46 M03 S255 F650
G01 X99.1 Y6.3 M03 S0 F2000
G01 Z0.75 F300
G01 X99.61 Y6.39 M03 S255 F650
G01 X98.51 Y6.21 M03 S0 F2000
G01 Z0.75 F300
G01 X99.1 Y6.3 M03 S255 F650
G01 X97.15 Y6.04 M03 S0 F2000
G01 Z0.75 F300
G01 X98.51 Y6.21 M03 S255 F650
G01 X95.64 Y5.89 M03 S0 F2000
G01 Z0.75 F300
G01 X97.15 Y6.04 M03 S255 F650
G01 X94.09 Y5.8 M03 S0 F2000
G01 Z0.75 F300
G01 X95.64 Y5.89 M03 S255 F650
G01 X92.6 Y5.81 M03 S0 F2000
G01 Z0.75 F300
G01 X94.09 Y5.8 M03 S255 F650
G01 X91.29 Y5.95 M03 S0 F2000
G01 Z0.75 F300
G01 X92.6 Y5.81 M03 S255 F650
G01 X90.64 Y6.09 M03 S0 F2000
G01 Z0.75 F300
G01 X91.29 Y5.95 M03 S255 F650
G01 X89.93 Y6.3 M03 S0 F2000
G01 Z0.75 F300
G01 X90.64 Y6.09 M03 S255 F650
G01 X88.36 Y6.84 M03 S0 F2000
G01 Z0.75 F300
G01 X89.93 Y6.3 M03 S255 F650
G01 X86.71 Y7.51 M03 S0 F2000
G01 Z0.75 F300
G01 X88.36 Y6.84 M03 S255 F650
G01 X85.1 Y8.22 M03 S0 F2000
G01 Z0.75 F300
G01 X86.71 Y7.51 M03 S255 F650
G01 X83.63 Y8.91 M03 S0 F2000
G01 Z0.75 F300
G01 X85.1 Y8.22 M03 S255 F650
G01 X82.99 Y9.22 M03 S0 F2000
G01 Z0.75 F300
G01 X83.63 Y8.91 M03 S255 F650
G01 X82.44 Y9.5 M03 S0 F2000
G01 Z0.75 F300
G01 X82.99 Y9.22 M03 S255 F650
G01 X81.98 Y9.74 M03 S0 F2000
G01 Z0.75 F300
G01 X82.44 Y9.5 M03 S255 F650
G01 X81.64 Y9.91 M03 S0 F2000
G01 Z0.75 F300
G01 X81.98 Y9.74 M03 S255 F650
G01 X81.41 Y10.03 M03 S0 F2000
G01 Z0.75 F300
G01 X81.64 Y9.91 M03 S255 F650
G01 X81.34 Y10.06 M03 S0 F2000
G01 Z0.75 F300
G01 X81.41 Y10.03 M03 S255 F650
G01 Z0.75 F300
G01 X90.77 Y4 M03 S255 F650
G01 Z0.75 F300
G01 X91 Y1.2 M03 S255 F650
G01 X90.98 Y1.08 M03 S0 F2000
G01 Z0.75 F300
G01 X91 Y1.2 M03 S255 F650
G01 X90.88 Y0.96 M03 S0 F2000
G01 Z0.75 F300
G01 X90.98 Y1.08 M03 S255 F650
G01 X90.5 Y0.75 M03 S0 F2000
G01 Z0.75 F300
G01 X90.88 Y0.96 M03 S255 F650
G01 X89.95 Y0.55 M03 S0 F2000
G01 Z0.75 F300
G01 X90.5 Y0.75 M03 S255 F650
G01 X89.34 Y0.38 M03 S0 F2000
G01 Z0.75 F300
G01 X89.95 Y0.55 M03 S255 F650
G01 X88.7 Y0.24 M03 S0 F2000
G01 Z0.75 F300
G01 X89.34 Y0.38 M03 S255 F650
G01 X88.16 Y0.13 M03 S0 F2000
G01 Z0.75 F300
G01 X88.7 Y0.24 M03 S255 F650
G01 X87.77 Y0.06 M03 S0 F2000
G01 Z0.75 F300
G01 X88.16 Y0.13 M03 S255 F650
G01 X87.66 Y0.04 M03 S0 F2000
G01 Z0.75 F300
G01 X87.77 Y0.06 M03 S255 F650
G01 X87.63 Y0.04 M03 S0 F2000
G01 Z0.75 F300
G01 X87.66 Y0.04 M03 S255 F650
G01 X87.49 Y0.05 M03 S0 F2000
G01 Z0.75 F300
G01 X87.63 Y0.04 M03 S255 F650
G01 X87.08 Y0.08 M03 S0 F2000
G01 Z0.75 F300
G01 X87.49 Y0.05 M03 S255 F650
G01 X86.43 Y0.11 M03 S0 F2000
G01 Z0.75 F300
G01 X87.08 Y0.08 M03 S255 F650
G01 X85.58 Y0.18 M03 S0 F2000
G01 Z0.75 F300
G01 X86.43 Y0.11 M03 S255 F650
G01 X84.54 Y0.24 M03 S0 F2000
G01 Z0.75 F300
G01 X85.58 Y0.18 M03 S255 F650
G01 X83.35 Y0.33 M03 S0 F2000
G01 Z0.75 F300
G01 X84.54 Y0.24 M03 S255 F650
G01 X82.04 Y0.43 M03 S0 F2000
G01 Z0.75 F300
G01 X83.35 Y0.33 M03 S255 F650
G01 X80.64 Y0.55 M03 S0 F2000
G01 Z0.75 F300
G01 X82.04 Y0.43 M03 S255 F650
G01 X77.68 Y0.83 M03 S0 F2000
G01 Z0.75 F300
G01 X80.64 Y0.55 M03 S255 F650
G01 X74.68 Y1.15 M03 S0 F2000
G01 Z0.75 F300
G01 X77.68 Y0.83 M03 S255 F650
G01 X73.25 Y1.33 M03 S0 F2000
G01 Z0.75 F300
G01 X74.68 Y1.15 M03 S255 F650
G01 X71.89 Y1.51 M03 S0 F2000
G01 Z0.75 F300
G01 X73.25 Y1.33 M03 S255 F650
G01 X70.65 Y1.73 M03 S0 F2000
G01 Z0.75 F300
G01 X71.89 Y1.51 M03 S255 F650
G01 X69.54 Y1.94 M03 S0 F2000
G01 Z0.75 F300
G01 X70.65 Y1.73 M03 S255 F650
G01 X68.52 Y2.18 M03 S0 F2000
G01 Z0.75 F300
G01 X69.54 Y1.94 M03 S255 F650
G01 X67.46 Y2.46 M03 S0 F2000
G01 Z0.75 F300
G01 X68.52 Y2.18 M03 S255 F650
G01 X65.19 Y3.18 M03 S0 F2000
G01 Z0.75 F300
G01 X67.46 Y2.46 M03 S255 F650
G01 X62.88 Y3.99 M03 S0 F2000
G01 Z0.75 F300
G01 X65.19 Y3.18 M03 S255 F650
G01 X60.66 Y4.81 M03 S0 F2000
G01 Z0.75 F300
G01 X62.88 Y3.99 M03 S255 F650
G01 X59.63 Y5.23 M03 S0 F2000
G01 Z0.75 F300
G01 X60.66 Y4.81 M03 S255 F650
G01 X58.69 Y5.6 M03 S0 F2000
G01 Z0.75 F300
G01 X59.63 Y5.23 M03 S255 F650
G01 X57.83 Y5.95 M03 S0 F2000
G01 Z0.75 F300
G01 X58.69 Y5.6 M03 S255 F650
G01 X57.1 Y6.26 M03 S0 F2000
G01 Z0.75 F300
G01 X57.83 Y5.95 M03 S255 F650
G01 X56.49 Y6.51 M03 S0 F2000
G01 Z0.75 F300
G01 X57.1 Y6.26 M03 S255 F650
G01 X56.04 Y6.71 M03 S0 F2000
G01 Z0.75 F300
G01 X56.49 Y6.51 M03 S255 F650
G01 X55.75 Y6.84 M03 S0 F2000
G01 Z0.75 F300
G01 X56.04 Y6.71 M03 S255 F650
G01 X55.65 Y6.88 M03 S0 F2000
G01 Z0.75 F300
G01 X55.75 Y6.84 M03 S255 F650
G01 X55.53 Y6.99 M03 S0 F2000
G01 Z0.75 F300
G01 X55.65 Y6.88 M03 S255 F650
G01 X55.18 Y7.31 M03 S0 F2000
G01 Z0.75 F300
G01 X55.53 Y6.99 M03 S255 F650
G01 X54.65 Y7.78 M03 S0 F2000
G01 Z0.75 F300
G01 X55.18 Y7.31 M03 S255 F650
G01 X54.03 Y8.31 M03 S0 F2000
G01 Z0.75 F300
G01 X54.65 Y7.78 M03 S255 F650
G01 X53.33 Y8.89 M03 S0 F2000
G01 Z0.75 F300
G01 X54.03 Y8.31 M03 S255 F650
G01 X52.61 Y9.42 M03 S0 F2000
G01 Z0.75 F300
G01 X53.33 Y8.89 M03 S255 F650
G01 X51.94 Y9.88 M03 S0 F2000
G01 Z0.75 F300
G01 X52.61 Y9.42 M03 S255 F650
G01 X51.36 Y10.18 M03 S0 F2000
G01 Z0.75 F300
G01 X51.94 Y9.88 M03 S255 F650
G01 X50.14 Y10.61 M03 S0 F2000
G01 Z0.75 F300
G01 X51.36 Y10.18 M03 S255 F650
G01 X48.74 Y11 M03 S0 F2000
G01 Z0.75 F300
G01 X50.14 Y10.61 M03 S255 F650
G01 X47.29 Y11.35 M03 S0 F2000
G01 Z0.75 F300
G01 X48.74 Y11 M03 S255 F650
G01 X45.88 Y11.64 M03 S0 F2000
G01 Z0.75 F300
G01 X47.29 Y11.35 M03 S255 F650
G01 X44.6 Y11.88 M03 S0 F2000
G01 Z0.75 F300
G01 X45.88 Y11.64 M03 S255 F650
G01 X44.05 Y11.98 M03 S0 F2000
G01 Z0.75 F300
G01 X44.6 Y11.88 M03 S255 F650
G01 X43.58 Y12.05 M03 S0 F2000
G01 Z0.75 F300
G01 X44.05 Y11.98 M03 S255 F650
G01 X43.18 Y12.11 M03 S0 F2000
G01 Z0.75 F300
G01 X43.58 Y12.05 M03 S255 F650
G01 X42.88 Y12.16 M03 S0 F2000
G01 Z0.75 F300
G01 X43.18 Y12.11 M03 S255 F650
G01 X42.69 Y12.19 M03 S0 F2000
G01 Z0.75 F300
G01 X42.88 Y12.16 M03 S255 F650
G01 X42.63 Y12.2 M03 S0 F2000
G01 Z0.75 F300
G01 X42.69 Y12.19 M03 S255 F650
G01 X42.54 Y12.23 M03 S0 F2000
G01 Z0.75 F300
G01 X42.63 Y12.2 M03 S255 F650
G01 X42.3 Y12.3 M03 S0 F2000
G01 Z0.75 F300
G01 X42.54 Y12.23 M03 S255 F650
G01 X41.93 Y12.41 M03 S0 F2000
G01 Z0.75 F300
G01 X42.3 Y12.3 M03 S255 F650
G01 X41.43 Y12.56 M03 S0 F2000
G01 Z0.75 F300
G01 X41.93 Y12.41 M03 S255 F650
G01 X40.83 Y12.74 M03 S0 F2000
G01 Z0.75 F300
G01 X41.43 Y12.56 M03 S255 F650
G01 X40.14 Y12.94 M03 S0 F2000
G01 Z0.75 F300
G01 X40.83 Y12.74 M03 S255 F650
G01 X38.58 Y13.39 M03 S0 F2000
G01 Z0.75 F300
G01 X40.14 Y12.94 M03 S255 F650
G01 X36.86 Y13.84 M03 S0 F2000
G01 Z0.75 F300
G01 X38.58 Y13.39 M03 S255 F650
G01 X35.16 Y14.25 M03 S0 F2000
G01 Z0.75 F300
G01 X36.86 Y13.84 M03 S255 F650
G01 X33.6 Y14.56 M03 S0 F2000
G01 Z0.75 F300
G01 X35.16 Y14.25 M03 S255 F650
G01 X32.9 Y14.68 M03 S0 F2000
G01 Z0.75 F300
G01 X33.6 Y14.56 M03 S255 F650
G01 X32.3 Y14.75 M03 S0 F2000
G01 Z0.75 F300
G01 X32.9 Y14.68 M03 S255 F650
G01 X30.98 Y14.85 M03 S0 F2000
G01 Z0.75 F300
G01 X32.3 Y14.75 M03 S255 F650
G01 X29.55 Y14.91 M03 S0 F2000
G01 Z0.75 F300
G01 X30.98 Y14.85 M03 S255 F650
G01 X26.51 Y14.98 M03 S0 F2000
G01 Z0.75 F300
G01 X29.55 Y14.91 M03 S255 F650
G01 X23.39 Y14.98 M03 S0 F2000
G01 Z0.75 F300
G01 X26.51 Y14.98 M03 S255 F650
G01 X21.85 Y14.95 M03 S0 F2000
G01 Z0.75 F300
G01 X23.39 Y14.98 M03 S255 F650
G01 X20.36 Y14.93 M03 S0 F2000
G01 Z0.75 F300
G01 X21.85 Y14.95 M03 S255 F650
G01 X18.96 Y14.89 M03 S0 F2000
G01 Z0.75 F300
G01 X20.36 Y14.93 M03 S255 F650
G01 X17.66 Y14.84 M03 S0 F2000
G01 Z0.75 F300
G01 X18.96 Y14.89 M03 S255 F650
G01 X16.49 Y14.8 M03 S0 F2000
G01 Z0.75 F300
G01 X17.66 Y14.84 M03 S255 F650
G01 X15.48 Y14.76 M03 S0 F2000
G01 Z0.75 F300
G01 X16.49 Y14.8 M03 S255 F650
G01 X14.65 Y14.73 M03 S0 F2000
G01 Z0.75 F300
G01 X15.48 Y14.76 M03 S255 F650
G01 X14.03 Y14.69 M03 S0 F2000
G01 Z0.75 F300
G01 X14.65 Y14.73 M03 S255 F650
G01 X13.63 Y14.68 M03 S0 F2000
G01 Z0.75 F300
G01 X14.03 Y14.69 M03 S255 F650
G01 X13.49 Y14.66 M03 S0 F2000
G01 Z0.75 F300
G01 X13.63 Y14.68 M03 S255 F650
G01 X13.44 Y14.68 M03 S0 F2000
G01 Z0.75 F300
G01 X13.49 Y14.66 M03 S255 F650
G01 X13.29 Y14.7 M03 S0 F2000
G01 Z0.75 F300
G01 X13.44 Y14.68 M03 S255 F650
G01 X13.04 Y14.75 M03 S0 F2000
G01 Z0.75 F300
G01 X13.29 Y14.7 M03 S255 F650
G01 X12.73 Y14.81 M03 S0 F2000
G01 Z0.75 F300
G01 X13.04 Y14.75 M03 S255 F650
G01 X11.9 Y14.98 M03 S0 F2000
G01 Z0.75 F300
G01 X12.73 Y14.81 M03 S255 F650
G01 X10.91 Y15.19 M03 S0 F2000
G01 Z0.75 F300
G01 X11.9 Y14.98 M03 S255 F650
G01 X9.84 Y15.43 M03 S0 F2000
G01 Z0.75 F300
G01 X10.91 Y15.19 M03 S255 F650
G01 X8.76 Y15.68 M03 S0 F2000
G01 Z0.75 F300
G01 X9.84 Y15.43 M03 S255 F650
G01 X7.78 Y15.93 M03 S0 F2000
G01 Z0.75 F300
G01 X8.76 Y15.68 M03 S255 F650
G01 X6.98 Y16.18 M03 S0 F2000
G01 Z0.75 F300
G01 X7.78 Y15.93 M03 S255 F650
G01 X5.91 Y16.58 M03 S0 F2000
G01 Z0.75 F300
G01 X6.98 Y16.18 M03 S255 F650
G01 X4.76 Y17.05 M03 S0 F2000
G01 Z0.75 F300
G01 X5.91 Y16.58 M03 S255 F650
G01 X3.6 Y17.56 M03 S0 F2000
G01 Z0.75 F300
G01 X4.76 Y17.05 M03 S255 F650
G01 X2.5 Y18.08 M03 S0 F2000
G01 Z0.75 F300
G01 X3.6 Y17.56 M03 S255 F650
G01 X1.53 Y18.54 M03 S0 F2000
G01 Z0.75 F300
G01 X2.5 Y18.08 M03 S255 F650
G01 X0.75 Y18.93 M03 S0 F2000
G01 Z0.75 F300
G01 X1.53 Y18.54 M03 S255 F650
G01 X0.45 Y19.08 M03 S0 F2000
G01 Z0.75 F300
G01 X0.75 Y18.93 M03 S255 F650
G01 X0.23 Y19.19 M03 S0 F2000
G01 Z0.75 F300
G01 X0.45 Y19.08 M03 S255 F650
G01 X0.09 Y19.26 M03 S0 F2000
G01 Z0.75 F300
G01 X0.23 Y19.19 M03 S255 F650
G01 X0.04 Y19.29 M03 S0 F2000
G01 Z0.75 F300
G01 X0.09 Y19.26 M03 S255 F650
G01 Z0.75 F300
G01 X0.03 Y19.28 M03 S255 F650
G00 M03 S0
M05
G01 X0.03 Y19.28 M03 S0 F2000
M03 S0
G01 Z1.5 F300
G01 X0.03 Y27.57 M03 S255 F650
G01 Z1.5 F300
G01 X0.04 Y27.58 M03 S255 F650
G01 X0.21 Y27.76 M03 S0 F2000
G01 Z1.5 F300
G01 X0.09 Y27.63 M03 S255 F650
G01 X0.43 Y27.99 M03 S0 F2000
G01 Z1.5 F300
G01 X0.21 Y27.76 M03 S255 F650
G01 X0.71 Y28.28 M03 S0 F2000
G01 Z1.5 F300
G01 X0.43 Y27.99 M03 S255 F650
G01 X1.45 Y29.01 M03 S0 F2000
G01 Z1.5 F300
G01 X0.71 Y28.28 M03 S255 F650
G01 X2.35 Y29.9 M03 S0 F2000
G01 Z1.5 F300
G01 X1.45 Y29.01 M03 S255 F650
G01 X3.34 Y30.84 M03 S0 F2000
G01 Z1.5 F300
G01 X2.35 Y29.9 M03 S255 F650
G01 X4.36 Y31.74 M03 S0 F2000
G01 Z1.5 F300
G01 X3.34 Y30.84 M03 S255 F650
G01 X5.33 Y32.51 M03 S0 F2000
G01 Z1.5 F300
G01 X4.36 Y31.74 M03 S255 F650
G01 X6.16 Y33.09 M03 S0 F2000
G01 Z1.5 F300
G01 X5.33 Y32.51 M03 S255 F650
G01 X7.29 Y33.63 M03 S0 F2000
G01 Z1.5 F300
G01 X6.16 Y33.09 M03 S255 F650
G01 X8.56 Y34.05 M03 S0 F2000
G01 Z1.5 F300
G01 X7.29 Y33.63 M03 S255 F650
G01 X9.89 Y34.39 M03 S0 F2000
G01 Z1.5 F300
G01 X8.56 Y34.05 M03 S255 F650
G01 X11.18 Y34.64 M03 S0 F2000
G01 Z1.5 F300
G01 X9.89 Y34.39 M03 S255 F650
G01 X12.34 Y34.81 M03 S0 F2000
G01 Z1.5 F300
G01 X11.18 Y34.64 M03 S255 F650
G01 X12.85 Y34.88 M03 S0 F2000
G01 Z1.5 F300
G01 X12.34 Y34.81 M03 S255 F650
G01 X13.29 Y34.94 M03 S0 F2000
G01 Z1.5 F300
G01 X12.85 Y34.88 M03 S255 F650
G01 X13.65 Y34.96 M03 S0 F2000
G01 Z1.5 F300
G01 X13.29 Y34.94 M03 S255 F650
G01 X13.91 Y35 M03 S0 F2000
G01 Z1.5 F300
G01 X13.65 Y34.96 M03 S255 F650
G01 X14.09 Y35.01 M03 S0 F2000
G01 Z1.5 F300
G01 X13.91 Y35 M03 S255 F650
G01 X14.15 Y35.01 M03 S0 F2000
G01 Z1.5 F300
G01 X14.09 Y35.01 M03 S255 F650
G01 Z1.5 F300
G01 X14.15 Y35.01 M03 S255 F650
G01 X14.3 Y35 M03 S0 F2000
G01 Z1.5 F300
G01 X14.19 Y35.01 M03 S255 F650
G01 X14.74 Y34.95 M03 S0 F2000
G01 Z1.5 F300
G01 X14.3 Y35 M03 S255 F650
G01 X15.43 Y34.89 M03 S0 F2000
G01 Z1.5 F300
G01 X14.74 Y34.95 M03 S255 F650
G01 X16.34 Y34.79 M03 S0 F2000
G01 Z1.5 F300
G01 X15.43 Y34.89 M03 S255 F650
G01 X17.44 Y34.69 M03 S0 F2000
G01 Z1.5 F300
G01 X16.34 Y34.79 M03 S255 F650
G01 X18.71 Y34.58 M03 S0 F2000
G01 Z1.5 F300
G01 X17.44 Y34.69 M03 S255 F650
G01 X20.11 Y34.45 M03 S0 F2000
G01 Z1.5 F300
G01 X18.71 Y34.58 M03 S255 F650
G01 X21.61 Y34.31 M03 S0 F2000
G01 Z1.5 F300
G01 X20.11 Y34.45 M03 S255 F650
G01 X24.8 Y34.08 M03 S0 F2000
G01 Z1.5 F300
G01 X21.61 Y34.31 M03 S255 F650
G01 X28.04 Y33.86 M03 S0 F2000
G01 Z1.5 F300
G01 X24.8 Y34.08 M03 S255 F650
G01 X29.6 Y33.79 M03 S0 F2000
G01 Z1.5 F300
G01 X28.04 Y33.86 M03 S255 F650
G01 X31.09 Y33.73 M03 S0 F2000
G01 Z1.5 F300
G01 X29.6 Y33.79 M03 S255 F650
G01 X32.45 Y33.7 M03 S0 F2000
G01 Z1.5 F300
G01 X31.09 Y33.73 M03 S255 F650
G01 X33.69 Y33.7 M03 S0 F2000
G01 Z1.5 F300
G01 X32.45 Y33.7 M03 S255 F650
G01 X34.93 Y33.66 M03 S0 F2000
G01 Z1.5 F300
G01 X33.69 Y33.7 M03 S255 F650
G01 X36.21 Y33.53 M03 S0 F2000
G01 Z1.5 F300
G01 X34.93 Y33.66 M03 S255 F650
G01 X38.85 Y33.15 M03 S0 F2000
G01 Z1.5 F300
G01 X36.21 Y33.53 M03 S255 F650
G01 X40.19 Y32.99 M03 S0 F2000
G01 Z1.5 F300
G01 X38.85 Y33.15 M03 S255 F650
G01 X41.53 Y32.89 M03 S0 F2000
G01 Z1.5 F300
G01 X40.19 Y32.99 M03 S255 F650
G01 X42.84 Y32.91 M03 S0 F2000
G01 Z1.5 F300
G01 X41.53 Y32.89 M03 S255 F650
G01 X44.14 Y33.1 M03 S0 F2000
G01 Z1.5 F300
G01 X42.84 Y32.91 M03 S255 F650
G01 X45.39 Y33.45 M03 S0 F2000
G01 Z1.5 F300
G01 X44.14 Y33.1 M03 S255 F650
G01 X46.69 Y33.94 M03 S0 F2000
G01 Z1.5 F300
G01 X45.39 Y33.45 M03 S255 F650
G01 X47.98 Y34.51 M03 S0 F2000
G01 Z1.5 F300
G01 X46.69 Y33.94 M03 S255 F650
G01 X49.2 Y35.1 M03 S0 F2000
G01 Z1.5 F300
G01 X47.98 Y34.51 M03 S255 F650
G01 X50.26 Y35.66 M03 S0 F2000
G01 Z1.5 F300
G01 X49.2 Y35.1 M03 S255 F650
G01 X51.11 Y36.13 M03 S0 F2000
G01 Z1.5 F300
G01 X50.26 Y35.66 M03 S255 F650
G01 X51.44 Y36.31 M03 S0 F2000
G01 Z1.5 F300
G01 X51.11 Y36.13 M03 S255 F650
G01 X51.68 Y36.45 M03 S0 F2000
G01 Z1.5 F300
G01 X51.44 Y36.31 M03 S255 F650
G01 X51.83 Y36.54 M03 S0 F2000
G01 Z1.5 F300
G01 X51.68 Y36.45 M03 S255 F650
G01 X51.88 Y36.58 M03 S0 F2000
G01 Z1.5 F300
G01 X51.83 Y36.54 M03 S255 F650
G01 Z1.5 F300
G01 X51.88 Y36.58 M03 S255 F650
G01 X52.01 Y36.73 M03 S0 F2000
G01 Z1.5 F300
G01 X51.91 Y36.61 M03 S255 F650
G01 X52.38 Y37.14 M03 S0 F2000
G01 Z1.5 F300
G01 X52.01 Y36.73 M03 S255 F650
G01 X52.94 Y37.71 M03 S0 F2000
G01 Z1.5 F300
G01 X52.38 Y37.14 M03 S255 F650
G01 X53.65 Y38.39 M03 S0 F2000
G01 Z1.5 F300
G01 X52.94 Y37.71 M03 S255 F650
G01 X54.44 Y39.1 M03 S0 F2000
G01 Z1.5 F300
G01 X53.65 Y38.39 M03 S255 F650
G01 X55.29 Y39.75 M03 S0 F2000
G01 Z1.5 F300
G01 X54.44 Y39.1 M03 S255 F650
G01 X56.14 Y40.28 M03 S0 F2000
G01 Z1.5 F300
G01 X55.29 Y39.75 M03 S255 F650
G01 X56.95 Y40.59 M03 S0 F2000
G01 Z1.5 F300
G01 X56.14 Y40.28 M03 S255 F650
G01 X57.69 Y40.75 M03 S0 F2000
G01 Z1.5 F300
G01 X56.95 Y40.59 M03 S255 F650
G01 X58.55 Y40.9 M03 S0 F2000
G01 Z1.5 F300
G01 X57.69 Y40.75 M03 S255 F650
G01 X59.49 Y41.03 M03 S0 F2000
G01 Z1.5 F300
G01 X58.55 Y40.9 M03 S255 F650
G01 X60.49 Y41.15 M03 S0 F2000
G01 Z1.5 F300
G01 X59.49 Y41.03 M03 S255 F650
G01 X62.61 Y41.36 M03 S0 F2000
G01 Z1.5 F300
G01 X60.49 Y41.15 M03 S255 F650
G01 X64.75 Y41.54 M03 S0 F2000
G01 Z1.5 F300
G01 X62.61 Y41.36 M03 S255 F650
G01 X65.76 Y41.6 M03 S0 F2000
G01 Z1.5 F300
G01 X64.75 Y41.54 M03 S255 F650
G01 X66.71 Y41.66 M03 S0 F2000
G01 Z1.5 F300
G01 X65.76 Y41.6 M03 S255 F650
G01 X67.58 Y41.71 M03 S0 F2000
G01 Z1.5 F300
G01 X66.71 Y41.66 M03 S255 F650
G01 X68.33 Y41.75 M03 S0 F2000
G01 Z1.5 F300
G01 X67.58 Y41.71 M03 S255 F650
G01 X68.95 Y41.78 M03 S0 F2000
G01 Z1.5 F300
G01 X68.33 Y41.75 M03 S255 F650
G01 X69.43 Y41.8 M03 S0 F2000
G01 Z1.5 F300
G01 X68.95 Y41.78 M03 S255 F650
G01 X69.73 Y41.81 M03 S0 F2000
G01 Z1.5 F300
G01 X69.43 Y41.8 M03 S255 F650
G01 X69.83 Y41.81 M03 S0 F2000
G01 Z1.5 F300
G01 X69.73 Y41.81 M03 S255 F650
G01 X69.91 Y41.81 M03 S0 F2000
G01 Z1.5 F300
G01 X69.83 Y41.81 M03 S255 F650
G01 X70.14 Y41.81 M03 S0 F2000
G01 Z1.5 F300
G01 X69.91 Y41.81 M03 S255 F650
G01 X70.51 Y41.81 M03 S0 F2000
G01 Z1.5 F300
G01 X70.14 Y41.81 M03 S255 F650
G01 X71.01 Y41.81 M03 S0 F2000
G01 Z1.5 F300
G01 X70.51 Y41.81 M03 S255 F650
G01 X71.61 Y41.83 M03 S0 F2000
G01 Z1.5 F300
G01 X71.01 Y41.81 M03 S255 F650
G01 X72.3 Y41.85 M03 S0 F2000
G01 Z1.5 F300
G01 X71.61 Y41.83 M03 S255 F650
G01 X73.88 Y41.94 M03 S0 F2000
G01 Z1.5 F300
G01 X72.3 Y41.85 M03 S255 F650
G01 X75.61 Y42.1 M03 S0 F2000
G01 Z1.5 F300
G01 X73.88 Y41.94 M03 S255 F650
G01 X77.39 Y42.35 M03 S0 F2000
G01 Z1.5 F300
G01 X75.61 Y42.1 M03 S255 F650
G01 X79.05 Y42.73 M03 S0 F2000
G01 Z1.5 F300
G01 X77.39 Y42.35 M03 S255 F650
G01 X79.81 Y42.96 M03 S0 F2000
G01 Z1.5 F300
G01 X79.05 Y42.73 M03 S255 F650
G01 X80.5 Y43.24 M03 S0 F2000
G01 Z1.5 F300
G01 X79.81 Y42.96 M03 S255 F650
G01 X81.01 Y43.51 M03 S0 F2000
G01 Z1.5 F300
G01 X80.5 Y43.24 M03 S255 F650
G01 X81.58 Y43.85 M03 S0 F2000
G01 Z1.5 F300
G01 X81.01 Y43.51 M03 S255 F650
G01 X82.77 Y44.73 M03 S0 F2000
G01 Z1.5 F300
G01 X81.58 Y43.85 M03 S255 F650
G01 X84 Y45.75 M03 S0 F2000
G01 Z1.5 F300
G01 X82.77 Y44.73 M03 S255 F650
G01 X85.19 Y46.81 M03 S0 F2000
G01 Z1.5 F300
G01 X84 Y45.75 M03 S255 F650
G01 X86.25 Y47.83 M03 S0 F2000
G01 Z1.5 F300
G01 X85.19 Y46.81 M03 S255 F650
G01 X87.11 Y48.69 M03 S0 F2000
G01 Z1.5 F300
G01 X86.25 Y47.83 M03 S255 F650
G01 X87.44 Y49.01 M03 S0 F2000
G01 Z1.5 F300
G01 X87.11 Y48.69 M03 S255 F650
G01 X87.69 Y49.26 M03 S0 F2000
G01 Z1.5 F300
G01 X87.44 Y49.01 M03 S255 F650
G01 X87.85 Y49.43 M03 S0 F2000
G01 Z1.5 F300
G01 X87.69 Y49.26 M03 S255 F650
G01 X87.9 Y49.49 M03 S0 F2000
G01 Z1.5 F300
G01 X87.85 Y49.43 M03 S255 F650
G01 X87.98 Y49.45 M03 S0 F2000
G01 Z1.5 F300
G01 X87.9 Y49.49 M03 S255 F650
G01 X88.16 Y49.35 M03 S0 F2000
G01 Z1.5 F300
G01 X87.98 Y49.45 M03 S255 F650
G01 X88.48 Y49.18 M03 S0 F2000
G01 Z1.5 F300
G01 X88.16 Y49.35 M03 S255 F650
G01 X88.88 Y48.95 M03 S0 F2000
G01 Z1.5 F300
G01 X88.48 Y49.18 M03 S255 F650
G01 X89.35 Y48.69 M03 S0 F2000
G01 Z1.5 F300
G01 X88.88 Y48.95 M03 S255 F650
G01 X89.89 Y48.38 M03 S0 F2000
G01 Z1.5 F300
G01 X89.35 Y48.69 M03 S255 F650
G01 X91.1 Y47.65 M03 S0 F2000
G01 Z1.5 F300
G01 X89.89 Y48.38 M03 S255 F650
G01 X92.35 Y46.85 M03 S0 F2000
G01 Z1.5 F300
G01 X91.1 Y47.65 M03 S255 F650
G01 X93.54 Y46.01 M03 S0 F2000
G01 Z1.5 F300
G01 X92.35 Y46.85 M03 S255 F650
G01 X94.05 Y45.6 M03 S0 F2000
G01 Z1.5 F300
G01 X93.54 Y46.01 M03 S255 F650
G01 X94.51 Y45.2 M03 S0 F2000
G01 Z1.5 F300
G01 X94.05 Y45.6 M03 S255 F650
G01 X94.88 Y44.83 M03 S0 F2000
G01 Z1.5 F300
G01 X94.51 Y45.2 M03 S255 F650
G01 X95.15 Y44.48 M03 S0 F2000
G01 Z1.5 F300
G01 X94.88 Y44.83 M03 S255 F650
G01 X95.35 Y43.9 M03 S0 F2000
G01 Z1.5 F300
G01 X95.15 Y44.48 M03 S255 F650
G01 X95.35 Y43.21 M03 S0 F2000
G01 Z1.5 F300
G01 X95.35 Y43.9 M03 S255 F650
G01 X95.18 Y42.49 M03 S0 F2000
G01 Z1.5 F300
G01 X95.35 Y43.21 M03 S255 F650
G01 X94.91 Y41.76 M03 S0 F2000
G01 Z1.5 F300
G01 X95.18 Y42.49 M03 S255 F650
G01 X94.6 Y41.1 M03 S0 F2000
G01 Z1.5 F300
G01 X94.91 Y41.76 M03 S255 F650
G01 X94.3 Y40.56 M03 S0 F2000
G01 Z1.5 F300
G01 X94.6 Y41.1 M03 S255 F650
G01 X94.09 Y40.2 M03 S0 F2000
G01 Z1.5 F300
G01 X94.3 Y40.56 M03 S255 F650
G01 X94 Y40.06 M03 S0 F2000
G01 Z1.5 F300
G01 X94.09 Y40.2 M03 S255 F650
G01 X94 Y40.06 M03 S0 F2000
G01 Z1.5 F300
G01 X84.79 Y37.02 M03 S255 F650
G01 Z1.5 F300
G01 X105.96 Y38.55 M03 S255 F650
G01 Z1.5 F300
G01 X105.96 Y38.55 M03 S255 F650
G01 X106.13 Y38.4 M03 S0 F2000
G01 Z1.5 F300
G01 X106 Y38.51 M03 S255 F650
G01 X106.54 Y38 M03 S0 F2000
G01 Z1.5 F300
G01 X106.13 Y38.4 M03 S255 F650
G01 X107.11 Y37.41 M03 S0 F2000
G01 Z1.5 F300
G01 X106.54 Y38 M03 S255 F650
G01 X107.78 Y36.68 M03 S0 F2000
G01 Z1.5 F300
G01 X107.11 Y37.41 M03 S255 F650
G01 X108.44 Y35.89 M03 S0 F2000
G01 Z1.5 F300
G01 X107.78 Y36.68 M03 S255 F650
G01 X109.01 Y35.08 M03 S0 F2000
G01 Z1.5 F300
G01 X108.44 Y35.89 M03 S255 F650
G01 X109.41 Y34.31 M03 S0 F2000
G01 Z1.5 F300
G01 X109.01 Y35.08 M03 S255 F650
G01 X109.53 Y33.98 M03 S0 F2000
G01 Z1.5 F300
G01 X109.41 Y34.31 M03 S255 F650
G01 X109.55 Y33.68 M03 S0 F2000
G01 Z1.5 F300
G01 X109.53 Y33.98 M03 S255 F650
G01 X109.49 Y33.3 M03 S0 F2000
G01 Z1.5 F300
G01 X109.55 Y33.68 M03 S255 F650
G01 X109.35 Y32.9 M03 S0 F2000
G01 Z1.5 F300
G01 X109.49 Y33.3 M03 S255 F650
G01 X108.89 Y32.05 M03 S0 F2000
G01 Z1.5 F300
G01 X109.35 Y32.9 M03 S255 F650
G01 X108.24 Y31.16 M03 S0 F2000
G01 Z1.5 F300
G01 X108.89 Y32.05 M03 S255 F650
G01 X107.5 Y30.3 M03 S0 F2000
G01 Z1.5 F300
G01 X108.24 Y31.16 M03 S255 F650
G01 X106.76 Y29.53 M03 S0 F2000
G01 Z1.5 F300
G01 X107.5 Y30.3 M03 S255 F650
G01 X106.13 Y28.9 M03 S0 F2000
G01 Z1.5 F300
G01 X106.76 Y29.53 M03 S255 F650
G01 X105.69 Y28.49 M03 S0 F2000
G01 Z1.5 F300
G01 X106.13 Y28.9 M03 S255 F650
G01 X105.56 Y28.38 M03 S0 F2000
G01 Z1.5 F300
G01 X105.69 Y28.49 M03 S255 F650
G01 X105.51 Y28.34 M03 S0 F2000
G01 Z1.5 F300
G01 X105.56 Y28.38 M03 S255 F650
G01 Z1.5 F300
G01 X85.51 Y26.56 M03 S255 F650
G01 Z1.5 F300
G01 X107.23 Y26.75 M03 S255 F650
G01 X107.36 Y26.61 M03 S0 F2000
G01 Z1.5 F300
G01 X107.24 Y26.75 M03 S255 F650
G01 X107.71 Y26.25 M03 S0 F2000
G01 Z1.5 F300
G01 X107.36 Y26.61 M03 S255 F650
G01 X108.21 Y25.7 M03 S0 F2000
G01 Z1.5 F300
G01 X107.71 Y26.25 M03 S255 F650
G01 X108.78 Y25.01 M03 S0 F2000
G01 Z1.5 F300
G01 X108.21 Y25.7 M03 S255 F650
G01 X109.34 Y24.24 M03 S0 F2000
G01 Z1.5 F300
G01 X108.78 Y25.01 M03 S255 F650
G01 X109.84 Y23.41 M03 S0 F2000
G01 Z1.5 F300
G01 X109.34 Y24.24 M03 S255 F650
G01 X110.21 Y22.59 M03 S0 F2000
G01 Z1.5 F300
G01 X109.84 Y23.41 M03 S255 F650
G01 X110.36 Y21.81 M03 S0 F2000
G01 Z1.5 F300
G01 X110.21 Y22.59 M03 S255 F650
G01 X110.28 Y21.05 M03 S0 F2000
G01 Z1.5 F300
G01 X110.36 Y21.81 M03 S255 F650
G01 X109.98 Y20.11 M03 S0 F2000
G01 Z1.5 F300
G01 X110.28 Y21.05 M03 S255 F650
G01 X109.56 Y19.1 M03 S0 F2000
G01 Z1.5 F300
G01 X109.98 Y20.11 M03 S255 F650
G01 X109.06 Y18.09 M03 S0 F2000
G01 Z1.5 F300
G01 X109.56 Y19.1 M03 S255 F650
G01 X108.58 Y17.15 M03 S0 F2000
G01 Z1.5 F300
G01 X109.06 Y18.09 M03 S255 F650
G01 X108.14 Y16.39 M03 S0 F2000
G01 Z1.5 F300
G01 X108.58 Y17.15 M03 S255 F650
G01 X107.96 Y16.09 M03 S0 F2000
G01 Z1.5 F300
G01 X108.14 Y16.39 M03 S255 F650
G01 X107.83 Y15.86 M03 S0 F2000
G01 Z1.5 F300
G01 X107.96 Y16.09 M03 S255 F650
G01 X107.74 Y15.73 M03 S0 F2000
G01 Z1.5 F300
G01 X107.83 Y15.86 M03 S255 F650
G01 X107.71 Y15.68 M03 S0 F2000
G01 Z1.5 F300
G01 X107.74 Y15.73 M03 S255 F650
G01 Z1.5 F300
G01 X84.63 Y17.3 M03 S255 F650
G01 Z1.5 F300
G01 X106.62 Y14.45 M03 S255 F650
G01 X106.61 Y14.33 M03 S0 F2000
G01 Z1.5 F300
G01 X106.63 Y14.45 M03 S255 F650
G01 X106.58 Y13.98 M03 S0 F2000
G01 Z1.5 F300
G01 X106.61 Y14.33 M03 S255 F650
G01 X106.5 Y13.46 M03 S0 F2000
G01 Z1.5 F300
G01 X106.58 Y13.98 M03 S255 F650
G01 X106.39 Y12.84 M03 S0 F2000
G01 Z1.5 F300
G01 X106.5 Y13.46 M03 S255 F650
G01 X106 Y11.43 M03 S0 F2000
G01 Z1.5 F300
G01 X106.39 Y12.84 M03 S255 F650
G01 X105.7 Y10.75 M03 S0 F2000
G01 Z1.5 F300
G01 X106 Y11.43 M03 S255 F650
G01 X105.34 Y10.15 M03 S0 F2000
G01 Z1.5 F300
G01 X105.7 Y10.75 M03 S255 F650
G01 X104.88 Y9.65 M03 S0 F2000
G01 Z1.5 F300
G01 X105.34 Y10.15 M03 S255 F650
G01 X104.21 Y9.09 M03 S0 F2000
G01 Z1.5 F300
G01 X104.88 Y9.65 M03 S255 F650
G01 X103.45 Y8.49 M03 S0 F2000
G01 Z1.5 F300
G01 X104.21 Y9.09 M03 S255 F650
G01 X102.64 Y7.91 M03 S0 F2000
G01 Z1.5 F300
G01 X103.45 Y8.49 M03 S255 F650
G01 X101.88 Y7.39 M03 S0 F2000
G01 Z1.5 F300
G01 X102.64 Y7.91 M03 S255 F650
G01 X101.24 Y6.95 M03 S0 F2000
G01 Z1.5 F300
G01 X101.88 Y7.39 M03 S255 F650
G01 X100.79 Y6.66 M03 S0 F2000
G01 Z1.5 F300
G01 X101.24 Y6.95 M03 S255 F650
G01 X100.66 Y6.59 M03 S0 F2000
G01 Z1.5 F300
G01 X100.79 Y6.66 M03 S255 F650
G01 X100.63 Y6.56 M03 S0 F2000
G01 Z1.5 F300
G01 X100.66 Y6.59 M03 S255 F650
G01 X100.55 Y6.55 M03 S0 F2000
G01 Z1.5 F300
G01 X100.63 Y6.56 M03 S255 F650
G01 X100.35 Y6.51 M03 S0 F2000
G01 Z1.5 F300
G01 X100.55 Y6.55 M03 S255 F650
G01 X100.04 Y6.46 M03 S0 F2000
G01 Z1.5 F300
G01 X100.35 Y6.51 M03 S255 F650
G01 X99.61 Y6.39 M03 S0 F2000
G01 Z1.5 F300
G01 X100.04 Y6.46 M03 S255 F650
G01 X99.1 Y6.3 M03 S0 F2000
G01 Z1.5 F300
G01 X99.61 Y6.39 M03 S255 F650
G01 X98.51 Y6.21 M03 S0 F2000
G01 Z1.5 F300
G01 X99.1 Y6.3 M03 S255 F650
G01 X97.15 Y6.04 M03 S0 F2000
G01 Z1.5 F300
G01 X98.51 Y6.21 M03 S255 F650
G01 X95.64 Y5.89 M03 S0 F2000
G01 Z1.5 F300
G01 X97.15 Y6.04 M03 S255 F650
G01 X94.09 Y5.8 M03 S0 F2000
G01 Z1.5 F300
G01 X95.64 Y5.89 M03 S255 F650
G01 X92.6 Y5.81 M03 S0 F2000
G01 Z1.5 F300
G01 X94.09 Y5.8 M03 S255 F650
G01 X91.29 Y5.95 M03 S0 F2000
G01 Z1.5 F300
G01 X92.6 Y5.81 M03 S255 F650
G01 X90.64 Y6.09 M03 S0 F2000
G01 Z1.5 F300
G01 X91.29 Y5.95 M03 S255 F650
G01 X89.93 Y6.3 M03 S0 F2000
G01 Z1.5 F300
G01 X90.64 Y6.09 M03 S255 F650
G01 X88.36 Y6.84 M03 S0 F2000
G01 Z1.5 F300
G01 X89.93 Y6.3 M03 S255 F650
G01 X86.71 Y7.51 M03 S0 F2000
G01 Z1.5 F300
G01 X88.36 Y6.84 M03 S255 F650
G01 X85.1 Y8.22 M03 S0 F2000
G01 Z1.5 F300
G01 X86.71 Y7.51 M03 S255 F650
G01 X83.63 Y8.91 M03 S0 F2000
G01 Z1.5 F300
G01 X85.1 Y8.22 M03 S255 F650
G01 X82.99 Y9.22 M03 S0 F2000
G01 Z1.5 F300
G01 X83.63 Y8.91 M03 S255 F650
G01 X82.44 Y9.5 M03 S0 F2000
G01 Z1.5 F300
G01 X82.99 Y9.22 M03 S255 F650
G01 X81.98 Y9.74 M03 S0 F2000
G01 Z1.5 F300
G01 X82.44 Y9.5 M03 S255 F650
G01 X81.64 Y9.91 M03 S0 F2000
G01 Z1.5 F300
G01 X81.98 Y9.74 M03 S255 F650
G01 X81.41 Y10.03 M03 S0 F2000
G01 Z1.5 F300
G01 X81.64 Y9.91 M03 S255 F650
G01 X81.34 Y10.06 M03 S0 F2000
G01 Z1.5 F300
G01 X81.41 Y10.03 M03 S255 F650
G01 Z1.5 F300
G01 X90.77 Y4 M03 S255 F650
G01 Z1.5 F300
G01 X91 Y1.2 M03 S255 F650
G01 X90.98 Y1.08 M03 S0 F2000
G01 Z1.5 F300
G01 X91 Y1.2 M03 S255 F650
G01 X90.88 Y0.96 M03 S0 F2000
G01 Z1.5 F300
G01 X90.98 Y1.08 M03 S255 F650
G01 X90.5 Y0.75 M03 S0 F2000
G01 Z1.5 F300
G01 X90.88 Y0.96 M03 S255 F650
G01 X89.95 Y0.55 M03 S0 F2000
G01 Z1.5 F300
G01 X90.5 Y0.75 M03 S255 F650
G01 X89.34 Y0.38 M03 S0 F2000
G01 Z1.5 F300
G01 X89.95 Y0.55 M03 S255 F650
G01 X88.7 Y0.24 M03 S0 F2000
G01 Z1.5 F300
G01 X89.34 Y0.38 M03 S255 F650
G01 X88.16 Y0.13 M03 S0 F2000
G01 Z1.5 F300
G01 X88.7 Y0.24 M03 S255 F650
G01 X87.77 Y0.06 M03 S0 F2000
G01 Z1.5 F300
G01 X88.16 Y0.13 M03 S255 F650
G01 X87.66 Y0.04 M03 S0 F2000
G01 Z1.5 F300
G01 X87.77 Y0.06 M03 S255 F650
G01 X87.63 Y0.04 M03 S0 F2000
G01 Z1.5 F300
G01 X87.66 Y0.04 M03 S255 F650
G01 X87.49 Y0.05 M03 S0 F2000
G01 Z1.5 F300
G01 X87.63 Y0.04 M03 S255 F650
G01 X87.08 Y0.08 M03 S0 F2000
G01 Z1.5 F300
G01 X87.49 Y0.05 M03 S255 F650
G01 X86.43 Y0.11 M03 S0 F2000
G01 Z1.5 F300
G01 X87.08 Y0.08 M03 S255 F650
G01 X85.58 Y0.18 M03 S0 F2000
G01 Z1.5 F300
G01 X86.43 Y0.11 M03 S255 F650
G01 X84.54 Y0.24 M03 S0 F2000
G01 Z1.5 F300
G01 X85.58 Y0.18 M03 S255 F650
G01 X83.35 Y0.33 M03 S0 F2000
G01 Z1.5 F300
G01 X84.54 Y0.24 M03 S255 F650
G01 X82.04 Y0.43 M03 S0 F2000
G01 Z1.5 F300
G01 X83.35 Y0.33 M03 S255 F650
G01 X80.64 Y0.55 M03 S0 F2000
G01 Z1.5 F300
G01 X82.04 Y0.43 M03 S255 F650
G01 X77.68 Y0.83 M03 S0 F2000
G01 Z1.5 F300
G01 X80.64 Y0.55 M03 S255 F650
G01 X74.68 Y1.15 M03 S0 F2000
G01 Z1.5 F300
G01 X77.68 Y0.83 M03 S255 F650
G01 X73.25 Y1.33 M03 S0 F2000
G01 Z1.5 F300
G01 X74.68 Y1.15 M03 S255 F650
G01 X71.89 Y1.51 M03 S0 F2000
G01 Z1.5 F300
G01 X73.25 Y1.33 M03 S255 F650
G01 X70.65 Y1.73 M03 S0 F2000
G01 Z1.5 F300
G01 X71.89 Y1.51 M03 S255 F650
G01 X69.54 Y1.94 M03 S0 F2000
G01 Z1.5 F300
G01 X70.65 Y1.73 M03 S255 F650
G01 X68.52 Y2.18 M03 S0 F2000
G01 Z1.5 F300
G01 X69.54 Y1.94 M03 S255 F650
G01 X67.46 Y2.46 M03 S0 F2000
G01 Z1.5 F300
G01 X68.52 Y2.18 M03 S255 F650
G01 X65.19 Y3.18 M03 S0 F2000
G01 Z1.5 F300
G01 X67.46 Y2.46 M03 S255 F650
G01 X62.88 Y3.99 M03 S0 F2000
G01 Z1.5 F300
G01 X65.19 Y3.18 M03 S255 F650
G01 X60.66 Y4.81 M03 S0 F2000
G01 Z1.5 F300
G01 X62.88 Y3.99 M03 S255 F650
G01 X59.63 Y5.23 M03 S0 F2000
G01 Z1.5 F300
G01 X60.66 Y4.81 M03 S255 F650
G01 X58.69 Y5.6 M03 S0 F2000
G01 Z1.5 F300
G01 X59.63 Y5.23 M03 S255 F650
G01 X57.83 Y5.95 M03 S0 F2000
G01 Z1.5 F300
G01 X58.69 Y5.6 M03 S255 F650
G01 X57.1 Y6.26 M03 S0 F2000
G01 Z1.5 F300
G01 X57.83 Y5.95 M03 S255 F650
G01 X56.49 Y6.51 M03 S0 F2000
G01 Z1.5 F300
G01 X57.1 Y6.26 M03 S255 F650
G01 X56.04 Y6.71 M03 S0 F2000
G01 Z1.5 F300
G01 X56.49 Y6.51 M03 S255 F650
G01 X55.75 Y6.84 M03 S0 F2000
G01 Z1.5 F300
G01 X56.04 Y6.71 M03 S255 F650
G01 X55.65 Y6.88 M03 S0 F2000
G01 Z1.5 F300
G01 X55.75 Y6.84 M03 S255 F650
G01 X55.53 Y6.99 M03 S0 F2000
G01 Z1.5 F300
G01 X55.65 Y6.88 M03 S255 F650
G01 X55.18 Y7.31 M03 S0 F2000
G01 Z1.5 F300
G01 X55.53 Y6.99 M03 S255 F650
G01 X54.65 Y7.78 M03 S0 F2000
G01 Z1.5 F300
G01 X55.18 Y7.31 M03 S255 F650
G01 X54.03 Y8.31 M03 S0 F2000
G01 Z1.5 F300
G01 X54.65 Y7.78 M03 S255 F650
G01 X53.33 Y8.89 M03 S0 F2000
G01 Z1.5 F300
G01 X54.03 Y8.31 M03 S255 F650
G01 X52.61 Y9.42 M03 S0 F2000
G01 Z1.5 F300
G01 X53.33 Y8.89 M03 S255 F650
G01 X51.94 Y9.88 M03 S0 F2000
G01 Z1.5 F300
G01 X52.61 Y9.42 M03 S255 F650
G01 X51.36 Y10.18 M03 S0 F2000
G01 Z1.5 F300
G01 X51.94 Y9.88 M03 S255 F650
G01 X50.14 Y10.61 M03 S0 F2000
G01 Z1.5 F300
G01 X51.36 Y10.18 M03 S255 F650
G01 X48.74 Y11 M03 S0 F2000
G01 Z1.5 F300
G01 X50.14 Y10.61 M03 S255 F650
G01 X47.29 Y11.35 M03 S0 F2000
G01 Z1.5 F300
G01 X48.74 Y11 M03 S255 F650
G01 X45.88 Y11.64 M03 S0 F2000
G01 Z1.5 F300
G01 X47.29 Y11.35 M03 S255 F650
G01 X44.6 Y11.88 M03 S0 F2000
G01 Z1.5 F300
G01 X45.88 Y11.64 M03 S255 F650
G01 X44.05 Y11.98 M03 S0 F2000
G01 Z1.5 F300
G01 X44.6 Y11.88 M03 S255 F650
G01 X43.58 Y12.05 M03 S0 F2000
G01 Z1.5 F300
G01 X44.05 Y11.98 M03 S255 F650
G01 X43.18 Y12.11 M03 S0 F2000
G01 Z1.5 F300
G01 X43.58 Y12.05 M03 S255 F650
G01 X42.88 Y12.16 M03 S0 F2000
G01 Z1.5 F300
G01 X43.18 Y12.11 M03 S255 F650
G01 X42.69 Y12.19 M03 S0 F2000
G01 Z1.5 F300
G01 X42.88 Y12.16 M03 S255 F650
G01 X42.63 Y12.2 M03 S0 F2000
G01 Z1.5 F300
G01 X42.69 Y12.19 M03 S255 F650
G01 X42.54 Y12.23 M03 S0 F2000
G01 Z1.5 F300
G01 X42.63 Y12.2 M03 S255 F650
G01 X42.3 Y12.3 M03 S0 F2000
G01 Z1.5 F300
G01 X42.54 Y12.23 M03 S255 F650
G01 X41.93 Y12.41 M03 S0 F2000
G01 Z1.5 F300
G01 X42.3 Y12.3 M03 S255 F650
G01 X41.43 Y12.56 M03 S0 F2000
G01 Z1.5 F300
G01 X41.93 Y12.41 M03 S255 F650
G01 X40.83 Y12.74 M03 S0 F2000
G01 Z1.5 F300
G01 X41.43 Y12.56 M03 S255 F650
G01 X40.14 Y12.94 M03 S0 F2000
G01 Z1.5 F300
G01 X40.83 Y12.74 M03 S255 F650
G01 X38.58 Y13.39 M03 S0 F2000
G01 Z1.5 F300
G01 X40.14 Y12.94 M03 S255 F650
G01 X36.86 Y13.84 M03 S0 F2000
G01 Z1.5 F300
G01 X38.58 Y13.39 M03 S255 F650
G01 X35.16 Y14.25 M03 S0 F2000
G01 Z1.5 F300
G01 X36.86 Y13.84 M03 S255 F650
G01 X33.6 Y14.56 M03 S0 F2000
G01 Z1.5 F300
G01 X35.16 Y14.25 M03 S255 F650
G01 X32.9 Y14.68 M03 S0 F2000
G01 Z1.5 F300
G01 X33.6 Y14.56 M03 S255 F650
G01 X32.3 Y14.75 M03 S0 F2000
G01 Z1.5 F300
G01 X32.9 Y14.68 M03 S255 F650
G01 X30.98 Y14.85 M03 S0 F2000
G01 Z1.5 F300
G01 X32.3 Y14.75 M03 S255 F650
G01 X29.55 Y14.91 M03 S0 F2000
G01 Z1.5 F300
G01 X30.98 Y14.85 M03 S255 F650
G01 X26.51 Y14.98 M03 S0 F2000
G01 Z1.5 F300
G01 X29.55 Y14.91 M03 S255 F650
G01 X23.39 Y14.98 M03 S0 F2000
G01 Z1.5 F300
G01 X26.51 Y14.98 M03 S255 F650
G01 X21.85 Y14.95 M03 S0 F2000
G01 Z1.5 F300
G01 X23.39 Y14.98 M03 S255 F650
G01 X20.36 Y14.93 M03 S0 F2000
G01 Z1.5 F300
G01 X21.85 Y14.95 M03 S255 F650
G01 X18.96 Y14.89 M03 S0 F2000
G01 Z1.5 F300
G01 X20.36 Y14.93 M03 S255 F650
G01 X17.66 Y14.84 M03 S0 F2000
G01 Z1.5 F300
G01 X18.96 Y14.89 M03 S255 F650
G01 X16.49 Y14.8 M03 S0 F2000
G01 Z1.5 F300
G01 X17.66 Y14.84 M03 S255 F650
G01 X15.48 Y14.76 M03 S0 F2000
G01 Z1.5 F300
G01 X16.49 Y14.8 M03 S255 F650
G01 X14.65 Y14.73 M03 S0 F2000
G01 Z1.5 F300
G01 X15.48 Y14.76 M03 S255 F650
G01 X14.03 Y14.69 M03 S0 F2000
G01 Z1.5 F300
G01 X14.65 Y14.73 M03 S255 F650
G01 X13.63 Y14.68 M03 S0 F2000
G01 Z1.5 F300
G01 X14.03 Y14.69 M03 S255 F650
G01 X13.49 Y14.66 M03 S0 F2000
G01 Z1.5 F300
G01 X13.63 Y14.68 M03 S255 F650
G01 X13.44 Y14.68 M03 S0 F2000
G01 Z1.5 F300
G01 X13.49 Y14.66 M03 S255 F650
G01 X13.29 Y14.7 M03 S0 F2000
G01 Z1.5 F300
G01 X13.44 Y14.68 M03 S255 F650
G01 X13.04 Y14.75 M03 S0 F2000
G01 Z1.5 F300
G01 X13.29 Y14.7 M03 S255 F650
G01 X12.73 Y14.81 M03 S0 F2000
G01 Z1.5 F300
G01 X13.04 Y14.75 M03 S255 F650
G01 X11.9 Y14.98 M03 S0 F2000
G01 Z1.5 F300
G01 X12.73 Y14.81 M03 S255 F650
G01 X10.91 Y15.19 M03 S0 F2000
G01 Z1.5 F300
G01 X11.9 Y14.98 M03 S255 F650
G01 X9.84 Y15.43 M03 S0 F2000
G01 Z1.5 F300
G01 X10.91 Y15.19 M03 S255 F650
G01 X8.76 Y15.68 M03 S0 F2000
G01 Z1.5 F300
G01 X9.84 Y15.43 M03 S255 F650
G01 X7.78 Y15.93 M03 S0 F2000
G01 Z1.5 F300
G01 X8.76 Y15.68 M03 S255 F650
G01 X6.98 Y16.18 M03 S0 F2000
G01 Z1.5 F300
G01 X7.78 Y15.93 M03 S255 F650
G01 X5.91 Y16.58 M03 S0 F2000
G01 Z1.5 F300
G01 X6.98 Y16.18 M03 S255 F650
G01 X4.76 Y17.05 M03 S0 F2000
G01 Z1.5 F300
G01 X5.91 Y16.58 M03 S255 F650
G01 X3.6 Y17.56 M03 S0 F2000
G01 Z1.5 F300
G01 X4.76 Y17.05 M03 S255 F650
G01 X2.5 Y18.08 M03 S0 F2000
G01 Z1.5 F300
G01 X3.6 Y17.56 M03 S255 F650
G01 X1.53 Y18.54 M03 S0 F2000
G01 Z1.5 F300
G01 X2.5 Y18.08 M03 S255 F650
G01 X0.75 Y18.93 M03 S0 F2000
G01 Z1.5 F300
G01 X1.53 Y18.54 M03 S255 F650
G01 X0.45 Y19.08 M03 S0 F2000
G01 Z1.5 F300
G01 X0.75 Y18.93 M03 S255 F650
G01 X0.23 Y19.19 M03 S0 F2000
G01 Z1.5 F300
G01 X0.45 Y19.08 M03 S255 F650
G01 X0.09 Y19.26 M03 S0 F2000
G01 Z1.5 F300
G01 X0.23 Y19.19 M03 S255 F650
G01 X0.04 Y19.29 M03 S0 F2000
G01 Z1.5 F300
G01 X0.09 Y19.26 M03 S255 F650
G01 Z1.5 F300
G01 X0.03 Y19.28 M03 S255 F650
G00 M03 S0
M05
G01 X0.03 Y19.28 M03 S0 F2000
M03 S0
G01 Z2.25 F300
G01 X0.03 Y27.57 M03 S255 F650
G01 Z2.25 F300
G01 X0.04 Y27.58 M03 S255 F650
G01 X0.21 Y27.76 M03 S0 F2000
G01 Z2.25 F300
G01 X0.09 Y27.63 M03 S255 F650
G01 X0.43 Y27.99 M03 S0 F2000
G01 Z2.25 F300
G01 X0.21 Y27.76 M03 S255 F650
G01 X0.71 Y28.28 M03 S0 F2000
G01 Z2.25 F300
G01 X0.43 Y27.99 M03 S255 F650
G01 X1.45 Y29.01 M03 S0 F2000
G01 Z2.25 F300
G01 X0.71 Y28.28 M03 S255 F650
G01 X2.35 Y29.9 M03 S0 F2000
G01 Z2.25 F300
G01 X1.45 Y29.01 M03 S255 F650
G01 X3.34 Y30.84 M03 S0 F2000
G01 Z2.25 F300
G01 X2.35 Y29.9 M03 S255 F650
G01 X4.36 Y31.74 M03 S0 F2000
G01 Z2.25 F300
G01 X3.34 Y30.84 M03 S255 F650
G01 X5.33 Y32.51 M03 S0 F2000
G01 Z2.25 F300
G01 X4.36 Y31.74 M03 S255 F650
G01 X6.16 Y33.09 M03 S0 F2000
G01 Z2.25 F300
G01 X5.33 Y32.51 M03 S255 F650
G01 X7.29 Y33.63 M03 S0 F2000
G01 Z2.25 F300
G01 X6.16 Y33.09 M03 S255 F650
G01 X8.56 Y34.05 M03 S0 F2000
G01 Z2.25 F300
G01 X7.29 Y33.63 M03 S255 F650
G01 X9.89 Y34.39 M03 S0 F2000
G01 Z2.25 F300
G01 X8.56 Y34.05 M03 S255 F650
G01 X11.18 Y34.64 M03 S0 F2000
G01 Z2.25 F300
G01 X9.89 Y34.39 M03 S255 F650
G01 X12.34 Y34.81 M03 S0 F2000
G01 Z2.25 F300
G01 X11.18 Y34.64 M03 S255 F650
G01 X12.85 Y34.88 M03 S0 F2000
G01 Z2.25 F300
G01 X12.34 Y34.81 M03 S255 F650
G01 X13.29 Y34.94 M03 S0 F2000
G01 Z2.25 F300
G01 X12.85 Y34.88 M03 S255 F650
G01 X13.65 Y34.96 M03 S0 F2000
G01 Z2.25 F300
G01 X13.29 Y34.94 M03 S255 F650
G01 X13.91 Y35 M03 S0 F2000
G01 Z2.25 F300
G01 X13.65 Y34.96 M03 S255 F650
G01 X14.09 Y35.01 M03 S0 F2000
G01 Z2.25 F300
G01 X13.91 Y35 M03 S255 F650
G01 X14.15 Y35.01 M03 S0 F2000
G01 Z2.25 F300
G01 X14.09 Y35.01 M03 S255 F650
G01 Z2.25 F300
G01 X14.15 Y35.01 M03 S255 F650
G01 X14.3 Y35 M03 S0 F2000
G01 Z2.25 F300
G01 X14.19 Y35.01 M03 S255 F650
G01 X14.74 Y34.95 M03 S0 F2000
G01 Z2.25 F300
G01 X14.3 Y35 M03 S255 F650
G01 X15.43 Y34.89 M03 S0 F2000
G01 Z2.25 F300
G01 X14.74 Y34.95 M03 S255 F650
G01 X16.34 Y34.79 M03 S0 F2000
G01 Z2.25 F300
G01 X15.43 Y34.89 M03 S255 F650
G01 X17.44 Y34.69 M03 S0 F2000
G01 Z2.25 F300
G01 X16.34 Y34.79 M03 S255 F650
G01 X18.71 Y34.58 M03 S0 F2000
G01 Z2.25 F300
G01 X17.44 Y34.69 M03 S255 F650
G01 X20.11 Y34.45 M03 S0 F2000
G01 Z2.25 F300
G01 X18.71 Y34.58 M03 S255 F650
G01 X21.61 Y34.31 M03 S0 F2000
G01 Z2.25 F300
G01 X20.11 Y34.45 M03 S255 F650
G01 X24.8 Y34.08 M03 S0 F2000
G01 Z2.25 F300
G01 X21.61 Y34.31 M03 S255 F650
G01 X28.04 Y33.86 M03 S0 F2000
G01 Z2.25 F300
G01 X24.8 Y34.08 M03 S255 F650
G01 X29.6 Y33.79 M03 S0 F2000
G01 Z2.25 F300
G01 X28.04 Y33.86 M03 S255 F650
G01 X31.09 Y33.73 M03 S0 F2000
G01 Z2.25 F300
G01 X29.6 Y33.79 M03 S255 F650
G01 X32.45 Y33.7 M03 S0 F2000
G01 Z2.25 F300
G01 X31.09 Y33.73 M03 S255 F650
G01 X33.69 Y33.7 M03 S0 F2000
G01 Z2.25 F300
G01 X32.45 Y33.7 M03 S255 F650
G01 X34.93 Y33.66 M03 S0 F2000
G01 Z2.25 F300
G01 X33.69 Y33.7 M03 S255 F650
G01 X36.21 Y33.53 M03 S0 F2000
G01 Z2.25 F300
G01 X34.93 Y33.66 M03 S255 F650
G01 X38.85 Y33.15 M03 S0 F2000
G01 Z2.25 F300
G01 X36.21 Y33.53 M03 S255 F650
G01 X40.19 Y32.99 M03 S0 F2000
G01 Z2.25 F300
G01 X38.85 Y33.15 M03 S255 F650
G01 X41.53 Y32.89 M03 S0 F2000
G01 Z2.25 F300
G01 X40.19 Y32.99 M03 S255 F650
G01 X42.84 Y32.91 M03 S0 F2000
G01 Z2.25 F300
G01 X41.53 Y32.89 M03 S255 F650
G01 X44.14 Y33.1 M03 S0 F2000
G01 Z2.25 F300
G01 X42.84 Y32.91 M03 S255 F650
G01 X45.39 Y33.45 M03 S0 F2000
G01 Z2.25 F300
G01 X44.14 Y33.1 M03 S255 F650
G01 X46.69 Y33.94 M03 S0 F2000
G01 Z2.25 F300
G01 X45.39 Y33.45 M03 S255 F650
G01 X47.98 Y34.51 M03 S0 F2000
G01 Z2.25 F300
G01 X46.69 Y33.94 M03 S255 F650
G01 X49.2 Y35.1 M03 S0 F2000
G01 Z2.25 F300
G01 X47.98 Y34.51 M03 S255 F650
G01 X50.26 Y35.66 M03 S0 F2000
G01 Z2.25 F300
G01 X49.2 Y35.1 M03 S255 F650
G01 X51.11 Y36.13 M03 S0 F2000
G01 Z2.25 F300
G01 X50.26 Y35.66 M03 S255 F650
G01 X51.44 Y36.31 M03 S0 F2000
G01 Z2.25 F300
G01 X51.11 Y36.13 M03 S255 F650
G01 X51.68 Y36.45 M03 S0 F2000
G01 Z2.25 F300
G01 X51.44 Y36.31 M03 S255 F650
G01 X51.83 Y36.54 M03 S0 F2000
G01 Z2.25 F300
G01 X51.68 Y36.45 M03 S255 F650
G01 X51.88 Y36.58 M03 S0 F2000
G01 Z2.25 F300
G01 X51.83 Y36.54 M03 S255 F650
G01 Z2.25 F300
G01 X51.88 Y36.58 M03 S255 F650
G01 X52.01 Y36.73 M03 S0 F2000
G01 Z2.25 F300
G01 X51.91 Y36.61 M03 S255 F650
G01 X52.38 Y37.14 M03 S0 F2000
G01 Z2.25 F300
G01 X52.01 Y36.73 M03 S255 F650
G01 X52.94 Y37.71 M03 S0 F2000
G01 Z2.25 F300
G01 X52.38 Y37.14 M03 S255 F650
G01 X53.65 Y38.39 M03 S0 F2000
G01 Z2.25 F300
G01 X52.94 Y37.71 M03 S255 F650
G01 X54.44 Y39.1 M03 S0 F2000
G01 Z2.25 F300
G01 X53.65 Y38.39 M03 S255 F650
G01 X55.29 Y39.75 M03 S0 F2000
G01 Z2.25 F300
G01 X54.44 Y39.1 M03 S255 F650
G01 X56.14 Y40.28 M03 S0 F2000
G01 Z2.25 F300
G01 X55.29 Y39.75 M03 S255 F650
G01 X56.95 Y40.59 M03 S0 F2000
G01 Z2.25 F300
G01 X56.14 Y40.28 M03 S255 F650
G01 X57.69 Y40.75 M03 S0 F2000
G01 Z2.25 F300
G01 X56.95 Y40.59 M03 S255 F650
G01 X58.55 Y40.9 M03 S0 F2000
G01 Z2.25 F300
G01 X57.69 Y40.75 M03 S255 F650
G01 X59.49 Y41.03 M03 S0 F2000
G01 Z2.25 F300
G01 X58.55 Y40.9 M03 S255 F650
G01 X60.49 Y41.15 M03 S0 F2000
G01 Z2.25 F300
G01 X59.49 Y41.03 M03 S255 F650
G01 X62.61 Y41.36 M03 S0 F2000
G01 Z2.25 F300
G01 X60.49 Y41.15 M03 S255 F650
G01 X64.75 Y41.54 M03 S0 F2000
G01 Z2.25 F300
G01 X62.61 Y41.36 M03 S255 F650
G01 X65.76 Y41.6 M03 S0 F2000
G01 Z2.25 F300
G01 X64.75 Y41.54 M03 S255 F650
G01 X66.71 Y41.66 M03 S0 F2000
G01 Z2.25 F300
G01 X65.76 Y41.6 M03 S255 F650
G01 X67.58 Y41.71 M03 S0 F2000
G01 Z2.25 F300
G01 X66.71 Y41.66 M03 S255 F650
G01 X68.33 Y41.75 M03 S0 F2000
G01 Z2.25 F300
G01 X67.58 Y41.71 M03 S255 F650
G01 X68.95 Y41.78 M03 S0 F2000
G01 Z2.25 F300
G01 X68.33 Y41.75 M03 S255 F650
G01 X69.43 Y41.8 M03 S0 F2000
G01 Z2.25 F300
G01 X68.95 Y41.78 M03 S255 F650
G01 X69.73 Y41.81 M03 S0 F2000
G01 Z2.25 F300
G01 X69.43 Y41.8 M03 S255 F650
G01 X69.83 Y41.81 M03 S0 F2000
G01 Z2.25 F300
G01 X69.73 Y41.81 M03 S255 F650
G01 X69.91 Y41.81 M03 S0 F2000
G01 Z2.25 F300
G01 X69.83 Y41.81 M03 S255 F650
G01 X70.14 Y41.81 M03 S0 F2000
G01 Z2.25 F300
G01 X69.91 Y41.81 M03 S255 F650
G01 X70.51 Y41.81 M03 S0 F2000
G01 Z2.25 F300
G01 X70.14 Y41.81 M03 S255 F650
G01 X71.01 Y41.81 M03 S0 F2000
G01 Z2.25 F300
G01 X70.51 Y41.81 M03 S255 F650
G01 X71.61 Y41.83 M03 S0 F2000
G01 Z2.25 F300
G01 X71.01 Y41.81 M03 S255 F650
G01 X72.3 Y41.85 M03 S0 F2000
G01 Z2.25 F300
G01 X71.61 Y41.83 M03 S255 F650
G01 X73.88 Y41.94 M03 S0 F2000
G01 Z2.25 F300
G01 X72.3 Y41.85 M03 S255 F650
G01 X75.61 Y42.1 M03 S0 F2000
G01 Z2.25 F300
G01 X73.88 Y41.94 M03 S255 F650
G01 X77.39 Y42.35 M03 S0 F2000
G01 Z2.25 F300
G01 X75.61 Y42.1 M03 S255 F650
G01 X79.05 Y42.73 M03 S0 F2000
G01 Z2.25 F300
G01 X77.39 Y42.35 M03 S255 F650
G01 X79.81 Y42.96 M03 S0 F2000
G01 Z2.25 F300
G01 X79.05 Y42.73 M03 S255 F650
G01 X80.5 Y43.24 M03 S0 F2000
G01 Z2.25 F300
G01 X79.81 Y42.96 M03 S255 F650
G01 X81.01 Y43.51 M03 S0 F2000
G01 Z2.25 F300
G01 X80.5 Y43.24 M03 S255 F650
G01 X81.58 Y43.85 M03 S0 F2000
G01 Z2.25 F300
G01 X81.01 Y43.51 M03 S255 F650
G01 X82.77 Y44.73 M03 S0 F2000
G01 Z2.25 F300
G01 X81.58 Y43.85 M03 S255 F650
G01 X84 Y45.75 M03 S0 F2000
G01 Z2.25 F300
G01 X82.77 Y44.73 M03 S255 F650
G01 X85.19 Y46.81 M03 S0 F2000
G01 Z2.25 F300
G01 X84 Y45.75 M03 S255 F650
G01 X86.25 Y47.83 M03 S0 F2000
G01 Z2.25 F300
G01 X85.19 Y46.81 M03 S255 F650
G01 X87.11 Y48.69 M03 S0 F2000
G01 Z2.25 F300
G01 X86.25 Y47.83 M03 S255 F650
G01 X87.44 Y49.01 M03 S0 F2000
G01 Z2.25 F300
G01 X87.11 Y48.69 M03 S255 F650
G01 X87.69 Y49.26 M03 S0 F2000
G01 Z2.25 F300
G01 X87.44 Y49.01 M03 S255 F650
G01 X87.85 Y49.43 M03 S0 F2000
G01 Z2.25 F300
G01 X87.69 Y49.26 M03 S255 F650
G01 X87.9 Y49.49 M03 S0 F2000
G01 Z2.25 F300
G01 X87.85 Y49.43 M03 S255 F650
G01 X87.98 Y49.45 M03 S0 F2000
G01 Z2.25 F300
G01 X87.9 Y49.49 M03 S255 F650
G01 X88.16 Y49.35 M03 S0 F2000
G01 Z2.25 F300
G01 X87.98 Y49.45 M03 S255 F650
G01 X88.48 Y49.18 M03 S0 F2000
G01 Z2.25 F300
G01 X88.16 Y49.35 M03 S255 F650
G01 X88.88 Y48.95 M03 S0 F2000
G01 Z2.25 F300
G01 X88.48 Y49.18 M03 S255 F650
G01 X89.35 Y48.69 M03 S0 F2000
G01 Z2.25 F300
G01 X88.88 Y48.95 M03 S255 F650
G01 X89.89 Y48.38 M03 S0 F2000
G01 Z2.25 F300
G01 X89.35 Y48.69 M03 S255 F650
G01 X91.1 Y47.65 M03 S0 F2000
G01 Z2.25 F300
G01 X89.89 Y48.38 M03 S255 F650
G01 X92.35 Y46.85 M03 S0 F2000
G01 Z2.25 F300
G01 X91.1 Y47.65 M03 S255 F650
G01 X93.54 Y46.01 M03 S0 F2000
G01 Z2.25 F300
G01 X92.35 Y46.85 M03 S255 F650
G01 X94.05 Y45.6 M03 S0 F2000
G01 Z2.25 F300
G01 X93.54 Y46.01 M03 S255 F650
G01 X94.51 Y45.2 M03 S0 F2000
G01 Z2.25 F300
G01 X94.05 Y45.6 M03 S255 F650
G01 X94.88 Y44.83 M03 S0 F2000
G01 Z2.25 F300
G01 X94.51 Y45.2 M03 S255 F650
G01 X95.15 Y44.48 M03 S0 F2000
G01 Z2.25 F300
G01 X94.88 Y44.83 M03 S255 F650
G01 X95.35 Y43.9 M03 S0 F2000
G01 Z2.25 F300
G01 X95.15 Y44.48 M03 S255 F650
G01 X95.35 Y43.21 M03 S0 F2000
G01 Z2.25 F300
G01 X95.35 Y43.9 M03 S255 F650
G01 X95.18 Y42.49 M03 S0 F2000
G01 Z2.25 F300
G01 X95.35 Y43.21 M03 S255 F650
G01 X94.91 Y41.76 M03 S0 F2000
G01 Z2.25 F300
G01 X95.18 Y42.49 M03 S255 F650
G01 X94.6 Y41.1 M03 S0 F2000
G01 Z2.25 F300
G01 X94.91 Y41.76 M03 S255 F650
G01 X94.3 Y40.56 M03 S0 F2000
G01 Z2.25 F300
G01 X94.6 Y41.1 M03 S255 F650
G01 X94.09 Y40.2 M03 S0 F2000
G01 Z2.25 F300
G01 X94.3 Y40.56 M03 S255 F650
G01 X94 Y40.06 M03 S0 F2000
G01 Z2.25 F300
G01 X94.09 Y40.2 M03 S255 F650
G01 X94 Y40.06 M03 S0 F2000
G01 Z2.25 F300
G01 X84.79 Y37.02 M03 S255 F650
G01 Z2.25 F300
G01 X105.96 Y38.55 M03 S255 F650
G01 Z2.25 F300
G01 X105.96 Y38.55 M03 S255 F650
G01 X106.13 Y38.4 M03 S0 F2000
G01 Z2.25 F300
G01 X106 Y38.51 M03 S255 F650
G01 X106.54 Y38 M03 S0 F2000
G01 Z2.25 F300
G01 X106.13 Y38.4 M03 S255 F650
G01 X107.11 Y37.41 M03 S0 F2000
G01 Z2.25 F300
G01 X106.54 Y38 M03 S255 F650
G01 X107.78 Y36.68 M03 S0 F2000
G01 Z2.25 F300
G01 X107.11 Y37.41 M03 S255 F650
G01 X108.44 Y35.89 M03 S0 F2000
G01 Z2.25 F300
G01 X107.78 Y36.68 M03 S255 F650
G01 X109.01 Y35.08 M03 S0 F2000
G01 Z2.25 F300
G01 X108.44 Y35.89 M03 S255 F650
G01 X109.41 Y34.31 M03 S0 F2000
G01 Z2.25 F300
G01 X109.01 Y35.08 M03 S255 F650
G01 X109.53 Y33.98 M03 S0 F2000
G01 Z2.25 F300
G01 X109.41 Y34.31 M03 S255 F650
G01 X109.55 Y33.68 M03 S0 F2000
G01 Z2.25 F300
G01 X109.53 Y33.98 M03 S255 F650
G01 X109.49 Y33.3 M03 S0 F2000
G01 Z2.25 F300
G01 X109.55 Y33.68 M03 S255 F650
G01 X109.35 Y32.9 M03 S0 F2000
G01 Z2.25 F300
G01 X109.49 Y33.3 M03 S255 F650
G01 X108.89 Y32.05 M03 S0 F2000
G01 Z2.25 F300
G01 X109.35 Y32.9 M03 S255 F650
G01 X108.24 Y31.16 M03 S0 F2000
G01 Z2.25 F300
G01 X108.89 Y32.05 M03 S255 F650
G01 X107.5 Y30.3 M03 S0 F2000
G01 Z2.25 F300
G01 X108.24 Y31.16 M03 S255 F650
G01 X106.76 Y29.53 M03 S0 F2000
G01 Z2.25 F300
G01 X107.5 Y30.3 M03 S255 F650
G01 X106.13 Y28.9 M03 S0 F2000
G01 Z2.25 F300
G01 X106.76 Y29.53 M03 S255 F650
G01 X105.69 Y28.49 M03 S0 F2000
G01 Z2.25 F300
G01 X106.13 Y28.9 M03 S255 F650
G01 X105.56 Y28.38 M03 S0 F2000
G01 Z2.25 F300
G01 X105.69 Y28.49 M03 S255 F650
G01 X105.51 Y28.34 M03 S0 F2000
G01 Z2.25 F300
G01 X105.56 Y28.38 M03 S255 F650
G01 Z2.25 F300
G01 X85.51 Y26.56 M03 S255 F650
G01 Z2.25 F300
G01 X107.23 Y26.75 M03 S255 F650
G01 X107.36 Y26.61 M03 S0 F2000
G01 Z2.25 F300
G01 X107.24 Y26.75 M03 S255 F650
G01 X107.71 Y26.25 M03 S0 F2000
G01 Z2.25 F300
G01 X107.36 Y26.61 M03 S255 F650
G01 X108.21 Y25.7 M03 S0 F2000
G01 Z2.25 F300
G01 X107.71 Y26.25 M03 S255 F650
G01 X108.78 Y25.01 M03 S0 F2000
G01 Z2.25 F300
G01 X108.21 Y25.7 M03 S255 F650
G01 X109.34 Y24.24 M03 S0 F2000
G01 Z2.25 F300
G01 X108.78 Y25.01 M03 S255 F650
G01 X109.84 Y23.41 M03 S0 F2000
G01 Z2.25 F300
G01 X109.34 Y24.24 M03 S255 F650
G01 X110.21 Y22.59 M03 S0 F2000
G01 Z2.25 F300
G01 X109.84 Y23.41 M03 S255 F650
G01 X110.36 Y21.81 M03 S0 F2000
G01 Z2.25 F300
G01 X110.21 Y22.59 M03 S255 F650
G01 X110.28 Y21.05 M03 S0 F2000
G01 Z2.25 F300
G01 X110.36 Y21.81 M03 S255 F650
G01 X109.98 Y20.11 M03 S0 F2000
G01 Z2.25 F300
G01 X110.28 Y21.05 M03 S255 F650
G01 X109.56 Y19.1 M03 S0 F2000
G01 Z2.25 F300
G01 X109.98 Y20.11 M03 S255 F650
G01 X109.06 Y18.09 M03 S0 F2000
G01 Z2.25 F300
G01 X109.56 Y19.1 M03 S255 F650
G01 X108.58 Y17.15 M03 S0 F2000
G01 Z2.25 F300
G01 X109.06 Y18.09 M03 S255 F650
G01 X108.14 Y16.39 M03 S0 F2000
G01 Z2.25 F300
G01 X108.58 Y17.15 M03 S255 F650
G01 X107.96 Y16.09 M03 S0 F2000
G01 Z2.25 F300
G01 X108.14 Y16.39 M03 S255 F650
G01 X107.83 Y15.86 M03 S0 F2000
G01 Z2.25 F300
G01 X107.96 Y16.09 M03 S255 F650
G01 X107.74 Y15.73 M03 S0 F2000
G01 Z2.25 F300
G01 X107.83 Y15.86 M03 S255 F650
G01 X107.71 Y15.68 M03 S0 F2000
G01 Z2.25 F300
G01 X107.74 Y15.73 M03 S255 F650
G01 Z2.25 F300
G01 X84.63 Y17.3 M03 S255 F650
G01 Z2.25 F300
G01 X106.62 Y14.45 M03 S255 F650
G01 X106.61 Y14.33 M03 S0 F2000
G01 Z2.25 F300
G01 X106.63 Y14.45 M03 S255 F650
G01 X106.58 Y13.98 M03 S0 F2000
G01 Z2.25 F300
G01 X106.61 Y14.33 M03 S255 F650
G01 X106.5 Y13.46 M03 S0 F2000
G01 Z2.25 F300
G01 X106.58 Y13.98 M03 S255 F650
G01 X106.39 Y12.84 M03 S0 F2000
G01 Z2.25 F300
G01 X106.5 Y13.46 M03 S255 F650
G01 X106 Y11.43 M03 S0 F2000
G01 Z2.25 F300
G01 X106.39 Y12.84 M03 S255 F650
G01 X105.7 Y10.75 M03 S0 F2000
G01 Z2.25 F300
G01 X106 Y11.43 M03 S255 F650
G01 X105.34 Y10.15 M03 S0 F2000
G01 Z2.25 F300
G01 X105.7 Y10.75 M03 S255 F650
G01 X104.88 Y9.65 M03 S0 F2000
G01 Z2.25 F300
G01 X105.34 Y10.15 M03 S255 F650
G01 X104.21 Y9.09 M03 S0 F2000
G01 Z2.25 F300
G01 X104.88 Y9.65 M03 S255 F650
G01 X103.45 Y8.49 M03 S0 F2000
G01 Z2.25 F300
G01 X104.21 Y9.09 M03 S255 F650
G01 X102.64 Y7.91 M03 S0 F2000
G01 Z2.25 F300
G01 X103.45 Y8.49 M03 S255 F650
G01 X101.88 Y7.39 M03 S0 F2000
G01 Z2.25 F300
G01 X102.64 Y7.91 M03 S255 F650
G01 X101.24 Y6.95 M03 S0 F2000
G01 Z2.25 F300
G01 X101.88 Y7.39 M03 S255 F650
G01 X100.79 Y6.66 M03 S0 F2000
G01 Z2.25 F300
G01 X101.24 Y6.95 M03 S255 F650
G01 X100.66 Y6.59 M03 S0 F2000
G01 Z2.25 F300
G01 X100.79 Y6.66 M03 S255 F650
G01 X100.63 Y6.56 M03 S0 F2000
G01 Z2.25 F300
G01 X100.66 Y6.59 M03 S255 F650
G01 X100.55 Y6.55 M03 S0 F2000
G01 Z2.25 F300
G01 X100.63 Y6.56 M03 S255 F650
G01 X100.35 Y6.51 M03 S0 F2000
G01 Z2.25 F300
G01 X100.55 Y6.55 M03 S255 F650
G01 X100.04 Y6.46 M03 S0 F2000
G01 Z2.25 F300
G01 X100.35 Y6.51 M03 S255 F650
G01 X99.61 Y6.39 M03 S0 F2000
G01 Z2.25 F300
G01 X100.04 Y6.46 M03 S255 F650
G01 X99.1 Y6.3 M03 S0 F2000
G01 Z2.25 F300
G01 X99.61 Y6.39 M03 S255 F650
G01 X98.51 Y6.21 M03 S0 F2000
G01 Z2.25 F300
G01 X99.1 Y6.3 M03 S255 F650
G01 X97.15 Y6.04 M03 S0 F2000
G01 Z2.25 F300
G01 X98.51 Y6.21 M03 S255 F650
G01 X95.64 Y5.89 M03 S0 F2000
G01 Z2.25 F300
G01 X97.15 Y6.04 M03 S255 F650
G01 X94.09 Y5.8 M03 S0 F2000
G01 Z2.25 F300
G01 X95.64 Y5.89 M03 S255 F650
G01 X92.6 Y5.81 M03 S0 F2000
G01 Z2.25 F300
G01 X94.09 Y5.8 M03 S255 F650
G01 X91.29 Y5.95 M03 S0 F2000
G01 Z2.25 F300
G01 X92.6 Y5.81 M03 S255 F650
G01 X90.64 Y6.09 M03 S0 F2000
G01 Z2.25 F300
G01 X91.29 Y5.95 M03 S255 F650
G01 X89.93 Y6.3 M03 S0 F2000
G01 Z2.25 F300
G01 X90.64 Y6.09 M03 S255 F650
G01 X88.36 Y6.84 M03 S0 F2000
G01 Z2.25 F300
G01 X89.93 Y6.3 M03 S255 F650
G01 X86.71 Y7.51 M03 S0 F2000
G01 Z2.25 F300
G01 X88.36 Y6.84 M03 S255 F650
G01 X85.1 Y8.22 M03 S0 F2000
G01 Z2.25 F300
G01 X86.71 Y7.51 M03 S255 F650
G01 X83.63 Y8.91 M03 S0 F2000
G01 Z2.25 F300
G01 X85.1 Y8.22 M03 S255 F650
G01 X82.99 Y9.22 M03 S0 F2000
G01 Z2.25 F300
G01 X83.63 Y8.91 M03 S255 F650
G01 X82.44 Y9.5 M03 S0 F2000
G01 Z2.25 F300
G01 X82.99 Y9.22 M03 S255 F650
G01 X81.98 Y9.74 M03 S0 F2000
G01 Z2.25 F300
G01 X82.44 Y9.5 M03 S255 F650
G01 X81.64 Y9.91 M03 S0 F2000
G01 Z2.25 F300
G01 X81.98 Y9.74 M03 S255 F650
G01 X81.41 Y10.03 M03 S0 F2000
G01 Z2.25 F300
G01 X81.64 Y9.91 M03 S255 F650
G01 X81.34 Y10.06 M03 S0 F2000
G01 Z2.25 F300
G01 X81.41 Y10.03 M03 S255 F650
G01 Z2.25 F300
G01 X90.77 Y4 M03 S255 F650
G01 Z2.25 F300
G01 X91 Y1.2 M03 S255 F650
G01 X90.98 Y1.08 M03 S0 F2000
G01 Z2.25 F300
G01 X91 Y1.2 M03 S255 F650
G01 X90.88 Y0.96 M03 S0 F2000
G01 Z2.25 F300
G01 X90.98 Y1.08 M03 S255 F650
G01 X90.5 Y0.75 M03 S0 F2000
G01 Z2.25 F300
G01 X90.88 Y0.96 M03 S255 F650
G01 X89.95 Y0.55 M03 S0 F2000
G01 Z2.25 F300
G01 X90.5 Y0.75 M03 S255 F650
G01 X89.34 Y0.38 M03 S0 F2000
G01 Z2.25 F300
G01 X89.95 Y0.55 M03 S255 F650
G01 X88.7 Y0.24 M03 S0 F2000
G01 Z2.25 F300
G01 X89.34 Y0.38 M03 S255 F650
G01 X88.16 Y0.13 M03 S0 F2000
G01 Z2.25 F300
G01 X88.7 Y0.24 M03 S255 F650
G01 X87.77 Y0.06 M03 S0 F2000
G01 Z2.25 F300
G01 X88.16 Y0.13 M03 S255 F650
G01 X87.66 Y0.04 M03 S0 F2000
G01 Z2.25 F300
G01 X87.77 Y0.06 M03 S255 F650
G01 X87.63 Y0.04 M03 S0 F2000
G01 Z2.25 F300
G01 X87.66 Y0.04 M03 S255 F650
G01 X87.49 Y0.05 M03 S0 F2000
G01 Z2.25 F300
G01 X87.63 Y0.04 M03 S255 F650
G01 X87.08 Y0.08 M03 S0 F2000
G01 Z2.25 F300
G01 X87.49 Y0.05 M03 S255 F650
G01 X86.43 Y0.11 M03 S0 F2000
G01 Z2.25 F300
G01 X87.08 Y0.08 M03 S255 F650
G01 X85.58 Y0.18 M03 S0 F2000
G01 Z2.25 F300
G01 X86.43 Y0.11 M03 S255 F650
G01 X84.54 Y0.24 M03 S0 F2000
G01 Z2.25 F300
G01 X85.58 Y0.18 M03 S255 F650
G01 X83.35 Y0.33 M03 S0 F2000
G01 Z2.25 F300
G01 X84.54 Y0.24 M03 S255 F650
G01 X82.04 Y0.43 M03 S0 F2000
G01 Z2.25 F300
G01 X83.35 Y0.33 M03 S255 F650
G01 X80.64 Y0.55 M03 S0 F2000
G01 Z2.25 F300
G01 X82.04 Y0.43 M03 S255 F650
G01 X77.68 Y0.83 M03 S0 F2000
G01 Z2.25 F300
G01 X80.64 Y0.55 M03 S255 F650
G01 X74.68 Y1.15 M03 S0 F2000
G01 Z2.25 F300
G01 X77.68 Y0.83 M03 S255 F650
G01 X73.25 Y1.33 M03 S0 F2000
G01 Z2.25 F300
G01 X74.68 Y1.15 M03 S255 F650
G01 X71.89 Y1.51 M03 S0 F2000
G01 Z2.25 F300
G01 X73.25 Y1.33 M03 S255 F650
G01 X70.65 Y1.73 M03 S0 F2000
G01 Z2.25 F300
G01 X71.89 Y1.51 M03 S255 F650
G01 X69.54 Y1.94 M03 S0 F2000
G01 Z2.25 F300
G01 X70.65 Y1.73 M03 S255 F650
G01 X68.52 Y2.18 M03 S0 F2000
G01 Z2.25 F300
G01 X69.54 Y1.94 M03 S255 F650
G01 X67.46 Y2.46 M03 S0 F2000
G01 Z2.25 F300
G01 X68.52 Y2.18 M03 S255 F650
G01 X65.19 Y3.18 M03 S0 F2000
G01 Z2.25 F300
G01 X67.46 Y2.46 M03 S255 F650
G01 X62.88 Y3.99 M03 S0 F2000
G01 Z2.25 F300
G01 X65.19 Y3.18 M03 S255 F650
G01 X60.66 Y4.81 M03 S0 F2000
G01 Z2.25 F300
G01 X62.88 Y3.99 M03 S255 F650
G01 X59.63 Y5.23 M03 S0 F2000
G01 Z2.25 F300
G01 X60.66 Y4.81 M03 S255 F650
G01 X58.69 Y5.6 M03 S0 F2000
G01 Z2.25 F300
G01 X59.63 Y5.23 M03 S255 F650
G01 X57.83 Y5.95 M03 S0 F2000
G01 Z2.25 F300
G01 X58.69 Y5.6 M03 S255 F650
G01 X57.1 Y6.26 M03 S0 F2000
G01 Z2.25 F300
G01 X57.83 Y5.95 M03 S255 F650
G01 X56.49 Y6.51 M03 S0 F2000
G01 Z2.25 F300
G01 X57.1 Y6.26 M03 S255 F650
G01 X56.04 Y6.71 M03 S0 F2000
G01 Z2.25 F300
G01 X56.49 Y6.51 M03 S255 F650
G01 X55.75 Y6.84 M03 S0 F2000
G01 Z2.25 F300
G01 X56.04 Y6.71 M03 S255 F650
G01 X55.65 Y6.88 M03 S0 F2000
G01 Z2.25 F300
G01 X55.75 Y6.84 M03 S255 F650
G01 X55.53 Y6.99 M03 S0 F2000
G01 Z2.25 F300
G01 X55.65 Y6.88 M03 S255 F650
G01 X55.18 Y7.31 M03 S0 F2000
G01 Z2.25 F300
G01 X55.53 Y6.99 M03 S255 F650
G01 X54.65 Y7.78 M03 S0 F2000
G01 Z2.25 F300
G01 X55.18 Y7.31 M03 S255 F650
G01 X54.03 Y8.31 M03 S0 F2000
G01 Z2.25 F300
G01 X54.65 Y7.78 M03 S255 F650
G01 X53.33 Y8.89 M03 S0 F2000
G01 Z2.25 F300
G01 X54.03 Y8.31 M03 S255 F650
G01 X52.61 Y9.42 M03 S0 F2000
G01 Z2.25 F300
G01 X53.33 Y8.89 M03 S255 F650
G01 X51.94 Y9.88 M03 S0 F2000
G01 Z2.25 F300
G01 X52.61 Y9.42 M03 S255 F650
G01 X51.36 Y10.18 M03 S0 F2000
G01 Z2.25 F300
G01 X51.94 Y9.88 M03 S255 F650
G01 X50.14 Y10.61 M03 S0 F2000
G01 Z2.25 F300
G01 X51.36 Y10.18 M03 S255 F650
G01 X48.74 Y11 M03 S0 F2000
G01 Z2.25 F300
G01 X50.14 Y10.61 M03 S255 F650
G01 X47.29 Y11.35 M03 S0 F2000
G01 Z2.25 F300
G01 X48.74 Y11 M03 S255 F650
G01 X45.88 Y11.64 M03 S0 F2000
G01 Z2.25 F300
G01 X47.29 Y11.35 M03 S255 F650
G01 X44.6 Y11.88 M03 S0 F2000
G01 Z2.25 F300
G01 X45.88 Y11.64 M03 S255 F650
G01 X44.05 Y11.98 M03 S0 F2000
G01 Z2.25 F300
G01 X44.6 Y11.88 M03 S255 F650
G01 X43.58 Y12.05 M03 S0 F2000
G01 Z2.25 F300
G01 X44.05 Y11.98 M03 S255 F650
G01 X43.18 Y12.11 M03 S0 F2000
G01 Z2.25 F300
G01 X43.58 Y12.05 M03 S255 F650
G01 X42.88 Y12.16 M03 S0 F2000
G01 Z2.25 F300
G01 X43.18 Y12.11 M03 S255 F650
G01 X42.69 Y12.19 M03 S0 F2000
G01 Z2.25 F300
G01 X42.88 Y12.16 M03 S255 F650
G01 X42.63 Y12.2 M03 S0 F2000
G01 Z2.25 F300
G01 X42.69 Y12.19 M03 S255 F650
G01 X42.54 Y12.23 M03 S0 F2000
G01 Z2.25 F300
G01 X42.63 Y12.2 M03 S255 F650
G01 X42.3 Y12.3 M03 S0 F2000
G01 Z2.25 F300
G01 X42.54 Y12.23 M03 S255 F650
G01 X41.93 Y12.41 M03 S0 F2000
G01 Z2.25 F300
G01 X42.3 Y12.3 M03 S255 F650
G01 X41.43 Y12.56 M03 S0 F2000
G01 Z2.25 F300
G01 X41.93 Y12.41 M03 S255 F650
G01 X40.83 Y12.74 M03 S0 F2000
G01 Z2.25 F300
G01 X41.43 Y12.56 M03 S255 F650
G01 X40.14 Y12.94 M03 S0 F2000
G01 Z2.25 F300
G01 X40.83 Y12.74 M03 S255 F650
G01 X38.58 Y13.39 M03 S0 F2000
G01 Z2.25 F300
G01 X40.14 Y12.94 M03 S255 F650
G01 X36.86 Y13.84 M03 S0 F2000
G01 Z2.25 F300
G01 X38.58 Y13.39 M03 S255 F650
G01 X35.16 Y14.25 M03 S0 F2000
G01 Z2.25 F300
G01 X36.86 Y13.84 M03 S255 F650
G01 X33.6 Y14.56 M03 S0 F2000
G01 Z2.25 F300
G01 X35.16 Y14.25 M03 S255 F650
G01 X32.9 Y14.68 M03 S0 F2000
G01 Z2.25 F300
G01 X33.6 Y14.56 M03 S255 F650
G01 X32.3 Y14.75 M03 S0 F2000
G01 Z2.25 F300
G01 X32.9 Y14.68 M03 S255 F650
G01 X30.98 Y14.85 M03 S0 F2000
G01 Z2.25 F300
G01 X32.3 Y14.75 M03 S255 F650
G01 X29.55 Y14.91 M03 S0 F2000
G01 Z2.25 F300
G01 X30.98 Y14.85 M03 S255 F650
G01 X26.51 Y14.98 M03 S0 F2000
G01 Z2.25 F300
G01 X29.55 Y14.91 M03 S255 F650
G01 X23.39 Y14.98 M03 S0 F2000
G01 Z2.25 F300
G01 X26.51 Y14.98 M03 S255 F650
G01 X21.85 Y14.95 M03 S0 F2000
G01 Z2.25 F300
G01 X23.39 Y14.98 M03 S255 F650
G01 X20.36 Y14.93 M03 S0 F2000
G01 Z2.25 F300
G01 X21.85 Y14.95 M03 S255 F650
G01 X18.96 Y14.89 M03 S0 F2000
G01 Z2.25 F300
G01 X20.36 Y14.93 M03 S255 F650
G01 X17.66 Y14.84 M03 S0 F2000
G01 Z2.25 F300
G01 X18.96 Y14.89 M03 S255 F650
G01 X16.49 Y14.8 M03 S0 F2000
G01 Z2.25 F300
G01 X17.66 Y14.84 M03 S255 F650
G01 X15.48 Y14.76 M03 S0 F2000
G01 Z2.25 F300
G01 X16.49 Y14.8 M03 S255 F650
G01 X14.65 Y14.73 M03 S0 F2000
G01 Z2.25 F300
G01 X15.48 Y14.76 M03 S255 F650
G01 X14.03 Y14.69 M03 S0 F2000
G01 Z2.25 F300
G01 X14.65 Y14.73 M03 S255 F650
G01 X13.63 Y14.68 M03 S0 F2000
G01 Z2.25 F300
G01 X14.03 Y14.69 M03 S255 F650
G01 X13.49 Y14.66 M03 S0 F2000
G01 Z2.25 F300
G01 X13.63 Y14.68 M03 S255 F650
G01 X13.44 Y14.68 M03 S0 F2000
G01 Z2.25 F300
G01 X13.49 Y14.66 M03 S255 F650
G01 X13.29 Y14.7 M03 S0 F2000
G01 Z2.25 F300
G01 X13.44 Y14.68 M03 S255 F650
G01 X13.04 Y14.75 M03 S0 F2000
G01 Z2.25 F300
G01 X13.29 Y14.7 M03 S255 F650
G01 X12.73 Y14.81 M03 S0 F2000
G01 Z2.25 F300
G01 X13.04 Y14.75 M03 S255 F650
G01 X11.9 Y14.98 M03 S0 F2000
G01 Z2.25 F300
G01 X12.73 Y14.81 M03 S255 F650
G01 X10.91 Y15.19 M03 S0 F2000
G01 Z2.25 F300
G01 X11.9 Y14.98 M03 S255 F650
G01 X9.84 Y15.43 M03 S0 F2000
G01 Z2.25 F300
G01 X10.91 Y15.19 M03 S255 F650
G01 X8.76 Y15.68 M03 S0 F2000
G01 Z2.25 F300
G01 X9.84 Y15.43 M03 S255 F650
G01 X7.78 Y15.93 M03 S0 F2000
G01 Z2.25 F300
G01 X8.76 Y15.68 M03 S255 F650
G01 X6.98 Y16.18 M03 S0 F2000
G01 Z2.25 F300
G01 X7.78 Y15.93 M03 S255 F650
G01 X5.91 Y16.58 M03 S0 F2000
G01 Z2.25 F300
G01 X6.98 Y16.18 M03 S255 F650
G01 X4.76 Y17.05 M03 S0 F2000
G01 Z2.25 F300
G01 X5.91 Y16.58 M03 S255 F650
G01 X3.6 Y17.56 M03 S0 F2000
G01 Z2.25 F300
G01 X4.76 Y17.05 M03 S255 F650
G01 X2.5 Y18.08 M03 S0 F2000
G01 Z2.25 F300
G01 X3.6 Y17.56 M03 S255 F650
G01 X1.53 Y18.54 M03 S0 F2000
G01 Z2.25 F300
G01 X2.5 Y18.08 M03 S255 F650
G01 X0.75 Y18.93 M03 S0 F2000
G01 Z2.25 F300
G01 X1.53 Y18.54 M03 S255 F650
G01 X0.45 Y19.08 M03 S0 F2000
G01 Z2.25 F300
G01 X0.75 Y18.93 M03 S255 F650
G01 X0.23 Y19.19 M03 S0 F2000
G01 Z2.25 F300
G01 X0.45 Y19.08 M03 S255 F650
G01 X0.09 Y19.26 M03 S0 F2000
G01 Z2.25 F300
G01 X0.23 Y19.19 M03 S255 F650
G01 X0.04 Y19.29 M03 S0 F2000
G01 Z2.25 F300
G01 X0.09 Y19.26 M03 S255 F650
G01 Z2.25 F300
G01 X0.03 Y19.28 M03 S255 F650
G00 Z0 M03 S0
M05
G00 X0 Y0 
