( Generated by T2Laser ) 
(  DXF2Gcode for Grbl  )
( Start Point: LL      )
( Frame Mode : Extents )
( X Maximum  : 161.8   )
( Y Maximum  : 118.4   )
( Laser Power: 255     )
( Vector Rate: 800     )
( Rapid Feed : 2000    )
( Vector Name: BirdBodyTail.dxf )
G21
G90
F800
M05
G00 Z0 
G01 X0.26 Y86.24 F2000
M03 S0
G01 Z3 F300
G01 X0.24 Y86.13 M03 S255 F800
G01 X0.34 Y86.56 M03 S0 F2000
G01 Z3 F300
G01 X0.26 Y86.24 M03 S255 F800
G01 X0.46 Y87.08 M03 S0 F2000
G01 Z3 F300
G01 X0.34 Y86.56 M03 S255 F800
G01 X0.63 Y87.75 M03 S0 F2000
G01 Z3 F300
G01 X0.46 Y87.08 M03 S255 F800
G01 X0.84 Y88.55 M03 S0 F2000
G01 Z3 F300
G01 X0.63 Y87.75 M03 S255 F800
G01 X1.1 Y89.46 M03 S0 F2000
G01 Z3 F300
G01 X0.84 Y88.55 M03 S255 F800
G01 X1.39 Y90.46 M03 S0 F2000
G01 Z3 F300
G01 X1.1 Y89.46 M03 S255 F800
G01 X1.73 Y91.52 M03 S0 F2000
G01 Z3 F300
G01 X1.39 Y90.46 M03 S255 F800
G01 X2.5 Y93.71 M03 S0 F2000
G01 Z3 F300
G01 X1.73 Y91.52 M03 S255 F800
G01 X3.41 Y95.84 M03 S0 F2000
G01 Z3 F300
G01 X2.5 Y93.71 M03 S255 F800
G01 X3.9 Y96.8 M03 S0 F2000
G01 Z3 F300
G01 X3.41 Y95.84 M03 S255 F800
G01 X4.44 Y97.68 M03 S0 F2000
G01 Z3 F300
G01 X3.9 Y96.8 M03 S255 F800
G01 X4.99 Y98.44 M03 S0 F2000
G01 Z3 F300
G01 X4.44 Y97.68 M03 S255 F800
G01 X5.56 Y99.05 M03 S0 F2000
G01 Z3 F300
G01 X4.99 Y98.44 M03 S255 F800
G01 X6.1 Y99.45 M03 S0 F2000
G01 Z3 F300
G01 X5.56 Y99.05 M03 S255 F800
G01 X6.76 Y99.79 M03 S0 F2000
G01 Z3 F300
G01 X6.1 Y99.45 M03 S255 F800
G01 X7.53 Y100.1 M03 S0 F2000
G01 Z3 F300
G01 X6.76 Y99.79 M03 S255 F800
G01 X8.39 Y100.35 M03 S0 F2000
G01 Z3 F300
G01 X7.53 Y100.1 M03 S255 F800
G01 X10.26 Y100.76 M03 S0 F2000
G01 Z3 F300
G01 X8.39 Y100.35 M03 S255 F800
G01 X12.21 Y101.05 M03 S0 F2000
G01 Z3 F300
G01 X10.26 Y100.76 M03 S255 F800
G01 X14.04 Y101.23 M03 S0 F2000
G01 Z3 F300
G01 X12.21 Y101.05 M03 S255 F800
G01 X14.85 Y101.28 M03 S0 F2000
G01 Z3 F300
G01 X14.04 Y101.23 M03 S255 F800
G01 X15.56 Y101.31 M03 S0 F2000
G01 Z3 F300
G01 X14.85 Y101.28 M03 S255 F800
G01 X16.16 Y101.34 M03 S0 F2000
G01 Z3 F300
G01 X15.56 Y101.31 M03 S255 F800
G01 X16.63 Y101.35 M03 S0 F2000
G01 Z3 F300
G01 X16.16 Y101.34 M03 S255 F800
G01 X16.91 Y101.36 M03 S0 F2000
G01 Z3 F300
G01 X16.63 Y101.35 M03 S255 F800
G01 X17.01 Y101.36 M03 S0 F2000
G01 Z3 F300
G01 X16.91 Y101.36 M03 S255 F800
G01 X17.11 Y101.39 M03 S0 F2000
G01 Z3 F300
G01 X17.01 Y101.36 M03 S255 F800
G01 X17.4 Y101.45 M03 S0 F2000
G01 Z3 F300
G01 X17.11 Y101.39 M03 S255 F800
G01 X17.86 Y101.55 M03 S0 F2000
G01 Z3 F300
G01 X17.4 Y101.45 M03 S255 F800
G01 X18.48 Y101.69 M03 S0 F2000
G01 Z3 F300
G01 X17.86 Y101.55 M03 S255 F800
G01 X19.21 Y101.84 M03 S0 F2000
G01 Z3 F300
G01 X18.48 Y101.69 M03 S255 F800
G01 X20.08 Y102.01 M03 S0 F2000
G01 Z3 F300
G01 X19.21 Y101.84 M03 S255 F800
G01 X21.01 Y102.2 M03 S0 F2000
G01 Z3 F300
G01 X20.08 Y102.01 M03 S255 F800
G01 X22.04 Y102.4 M03 S0 F2000
G01 Z3 F300
G01 X21.01 Y102.2 M03 S255 F800
G01 X24.21 Y102.79 M03 S0 F2000
G01 Z3 F300
G01 X22.04 Y102.4 M03 S255 F800
G01 X26.45 Y103.13 M03 S0 F2000
G01 Z3 F300
G01 X24.21 Y102.79 M03 S255 F800
G01 X28.59 Y103.39 M03 S0 F2000
G01 Z3 F300
G01 X26.45 Y103.13 M03 S255 F800
G01 X29.56 Y103.46 M03 S0 F2000
G01 Z3 F300
G01 X28.59 Y103.39 M03 S255 F800
G01 X30.46 Y103.5 M03 S0 F2000
G01 Z3 F300
G01 X29.56 Y103.46 M03 S255 F800
G01 X31.53 Y103.5 M03 S0 F2000
G01 Z3 F300
G01 X30.46 Y103.5 M03 S255 F800
G01 X32.7 Y103.46 M03 S0 F2000
G01 Z3 F300
G01 X31.53 Y103.5 M03 S255 F800
G01 X33.95 Y103.39 M03 S0 F2000
G01 Z3 F300
G01 X32.7 Y103.46 M03 S255 F800
G01 X35.26 Y103.3 M03 S0 F2000
G01 Z3 F300
G01 X33.95 Y103.39 M03 S255 F800
G01 X37.96 Y103.05 M03 S0 F2000
G01 Z3 F300
G01 X35.26 Y103.3 M03 S255 F800
G01 X40.59 Y102.75 M03 S0 F2000
G01 Z3 F300
G01 X37.96 Y103.05 M03 S255 F800
G01 X41.83 Y102.6 M03 S0 F2000
G01 Z3 F300
G01 X40.59 Y102.75 M03 S255 F800
G01 X42.98 Y102.45 M03 S0 F2000
G01 Z3 F300
G01 X41.83 Y102.6 M03 S255 F800
G01 X44.01 Y102.31 M03 S0 F2000
G01 Z3 F300
G01 X42.98 Y102.45 M03 S255 F800
G01 X44.91 Y102.19 M03 S0 F2000
G01 Z3 F300
G01 X44.01 Y102.31 M03 S255 F800
G01 X45.66 Y102.08 M03 S0 F2000
G01 Z3 F300
G01 X44.91 Y102.19 M03 S255 F800
G01 X46.23 Y102 M03 S0 F2000
G01 Z3 F300
G01 X45.66 Y102.08 M03 S255 F800
G01 X46.58 Y101.95 M03 S0 F2000
G01 Z3 F300
G01 X46.23 Y102 M03 S255 F800
G01 X46.7 Y101.93 M03 S0 F2000
G01 Z3 F300
G01 X46.58 Y101.95 M03 S255 F800
G01 X46.83 Y101.89 M03 S0 F2000
G01 Z3 F300
G01 X46.7 Y101.93 M03 S255 F800
G01 X47.2 Y101.79 M03 S0 F2000
G01 Z3 F300
G01 X46.83 Y101.89 M03 S255 F800
G01 X47.79 Y101.61 M03 S0 F2000
G01 Z3 F300
G01 X47.2 Y101.79 M03 S255 F800
G01 X48.56 Y101.39 M03 S0 F2000
G01 Z3 F300
G01 X47.79 Y101.61 M03 S255 F800
G01 X49.51 Y101.1 M03 S0 F2000
G01 Z3 F300
G01 X48.56 Y101.39 M03 S255 F800
G01 X50.59 Y100.78 M03 S0 F2000
G01 Z3 F300
G01 X49.51 Y101.1 M03 S255 F800
G01 X51.78 Y100.41 M03 S0 F2000
G01 Z3 F300
G01 X50.59 Y100.78 M03 S255 F800
G01 X53.04 Y100.01 M03 S0 F2000
G01 Z3 F300
G01 X51.78 Y100.41 M03 S255 F800
G01 X55.73 Y99.13 M03 S0 F2000
G01 Z3 F300
G01 X53.04 Y100.01 M03 S255 F800
G01 X58.43 Y98.18 M03 S0 F2000
G01 Z3 F300
G01 X55.73 Y99.13 M03 S255 F800
G01 X59.71 Y97.69 M03 S0 F2000
G01 Z3 F300
G01 X58.43 Y98.18 M03 S255 F800
G01 X60.93 Y97.2 M03 S0 F2000
G01 Z3 F300
G01 X59.71 Y97.69 M03 S255 F800
G01 X62.04 Y96.73 M03 S0 F2000
G01 Z3 F300
G01 X60.93 Y97.2 M03 S255 F800
G01 X63.03 Y96.25 M03 S0 F2000
G01 Z3 F300
G01 X62.04 Y96.73 M03 S255 F800
G01 X63.69 Y95.89 M03 S0 F2000
G01 Z3 F300
G01 X63.03 Y96.25 M03 S255 F800
G01 X64.38 Y95.46 M03 S0 F2000
G01 Z3 F300
G01 X63.69 Y95.89 M03 S255 F800
G01 X65.8 Y94.44 M03 S0 F2000
G01 Z3 F300
G01 X64.38 Y95.46 M03 S255 F800
G01 X67.24 Y93.3 M03 S0 F2000
G01 Z3 F300
G01 X65.8 Y94.44 M03 S255 F800
G01 X68.59 Y92.15 M03 S0 F2000
G01 Z3 F300
G01 X67.24 Y93.3 M03 S255 F800
G01 X69.77 Y91.08 M03 S0 F2000
G01 Z3 F300
G01 X68.59 Y92.15 M03 S255 F800
G01 X70.29 Y90.59 M03 S0 F2000
G01 Z3 F300
G01 X69.77 Y91.08 M03 S255 F800
G01 X70.73 Y90.18 M03 S0 F2000
G01 Z3 F300
G01 X70.29 Y90.59 M03 S255 F800
G01 X71.08 Y89.83 M03 S0 F2000
G01 Z3 F300
G01 X70.73 Y90.18 M03 S255 F800
G01 X71.35 Y89.56 M03 S0 F2000
G01 Z3 F300
G01 X71.08 Y89.83 M03 S255 F800
G01 X71.51 Y89.4 M03 S0 F2000
G01 Z3 F300
G01 X71.35 Y89.56 M03 S255 F800
G01 X71.58 Y89.34 M03 S0 F2000
G01 Z3 F300
G01 X71.51 Y89.4 M03 S255 F800
G01 X71.64 Y89.25 M03 S0 F2000
G01 Z3 F300
G01 X71.58 Y89.34 M03 S255 F800
G01 X71.84 Y88.99 M03 S0 F2000
G01 Z3 F300
G01 X71.64 Y89.25 M03 S255 F800
G01 X72.13 Y88.58 M03 S0 F2000
G01 Z3 F300
G01 X71.84 Y88.99 M03 S255 F800
G01 X72.51 Y88.02 M03 S0 F2000
G01 Z3 F300
G01 X72.13 Y88.58 M03 S255 F800
G01 X72.96 Y87.38 M03 S0 F2000
G01 Z3 F300
G01 X72.51 Y88.02 M03 S255 F800
G01 X73.46 Y86.61 M03 S0 F2000
G01 Z3 F300
G01 X72.96 Y87.38 M03 S255 F800
G01 X74.01 Y85.79 M03 S0 F2000
G01 Z3 F300
G01 X73.46 Y86.61 M03 S255 F800
G01 X74.56 Y84.9 M03 S0 F2000
G01 Z3 F300
G01 X74.01 Y85.79 M03 S255 F800
G01 X75.68 Y83.04 M03 S0 F2000
G01 Z3 F300
G01 X74.56 Y84.9 M03 S255 F800
G01 X76.64 Y81.18 M03 S0 F2000
G01 Z3 F300
G01 X75.68 Y83.04 M03 S255 F800
G01 X77.04 Y80.29 M03 S0 F2000
G01 Z3 F300
G01 X76.64 Y81.18 M03 S255 F800
G01 X77.34 Y79.45 M03 S0 F2000
G01 Z3 F300
G01 X77.04 Y80.29 M03 S255 F800
G01 X77.54 Y78.7 M03 S0 F2000
G01 Z3 F300
G01 X77.34 Y79.45 M03 S255 F800
G01 X77.63 Y78.04 M03 S0 F2000
G01 Z3 F300
G01 X77.54 Y78.7 M03 S255 F800
G01 X77.58 Y77.31 M03 S0 F2000
G01 Z3 F300
G01 X77.63 Y78.04 M03 S255 F800
G01 X77.41 Y76.55 M03 S0 F2000
G01 Z3 F300
G01 X77.58 Y77.31 M03 S255 F800
G01 X77.15 Y75.76 M03 S0 F2000
G01 Z3 F300
G01 X77.41 Y76.55 M03 S255 F800
G01 X76.8 Y74.96 M03 S0 F2000
G01 Z3 F300
G01 X77.15 Y75.76 M03 S255 F800
G01 X75.91 Y73.36 M03 S0 F2000
G01 Z3 F300
G01 X76.8 Y74.96 M03 S255 F800
G01 X74.9 Y71.84 M03 S0 F2000
G01 Z3 F300
G01 X75.91 Y73.36 M03 S255 F800
G01 X73.88 Y70.49 M03 S0 F2000
G01 Z3 F300
G01 X74.9 Y71.84 M03 S255 F800
G01 X73.4 Y69.9 M03 S0 F2000
G01 Z3 F300
G01 X73.88 Y70.49 M03 S255 F800
G01 X72.98 Y69.4 M03 S0 F2000
G01 Z3 F300
G01 X73.4 Y69.9 M03 S255 F800
G01 X72.61 Y68.99 M03 S0 F2000
G01 Z3 F300
G01 X72.98 Y69.4 M03 S255 F800
G01 X72.34 Y68.69 M03 S0 F2000
G01 Z3 F300
G01 X72.61 Y68.99 M03 S255 F800
G01 X72.16 Y68.49 M03 S0 F2000
G01 Z3 F300
G01 X72.34 Y68.69 M03 S255 F800
G01 X72.1 Y68.43 M03 S0 F2000
G01 Z3 F300
G01 X72.16 Y68.49 M03 S255 F800
G01 X72.05 Y68.41 M03 S0 F2000
G01 Z3 F300
G01 X72.1 Y68.43 M03 S255 F800
G01 X71.91 Y68.36 M03 S0 F2000
G01 Z3 F300
G01 X72.05 Y68.41 M03 S255 F800
G01 X71.7 Y68.3 M03 S0 F2000
G01 Z3 F300
G01 X71.91 Y68.36 M03 S255 F800
G01 X71.4 Y68.21 M03 S0 F2000
G01 Z3 F300
G01 X71.7 Y68.3 M03 S255 F800
G01 X70.59 Y67.96 M03 S0 F2000
G01 Z3 F300
G01 X71.4 Y68.21 M03 S255 F800
G01 X69.5 Y67.64 M03 S0 F2000
G01 Z3 F300
G01 X70.59 Y67.96 M03 S255 F800
G01 X68.21 Y67.25 M03 S0 F2000
G01 Z3 F300
G01 X69.5 Y67.64 M03 S255 F800
G01 X66.73 Y66.81 M03 S0 F2000
G01 Z3 F300
G01 X68.21 Y67.25 M03 S255 F800
G01 X65.11 Y66.34 M03 S0 F2000
G01 Z3 F300
G01 X66.73 Y66.81 M03 S255 F800
G01 X63.39 Y65.84 M03 S0 F2000
G01 Z3 F300
G01 X65.11 Y66.34 M03 S255 F800
G01 X59.79 Y64.84 M03 S0 F2000
G01 Z3 F300
G01 X63.39 Y65.84 M03 S255 F800
G01 X57.98 Y64.36 M03 S0 F2000
G01 Z3 F300
G01 X59.79 Y64.84 M03 S255 F800
G01 X56.23 Y63.91 M03 S0 F2000
G01 Z3 F300
G01 X57.98 Y64.36 M03 S255 F800
G01 X54.58 Y63.51 M03 S0 F2000
G01 Z3 F300
G01 X56.23 Y63.91 M03 S255 F800
G01 X53.05 Y63.18 M03 S0 F2000
G01 Z3 F300
G01 X54.58 Y63.51 M03 S255 F800
G01 X51.69 Y62.91 M03 S0 F2000
G01 Z3 F300
G01 X53.05 Y63.18 M03 S255 F800
G01 X50.54 Y62.74 M03 S0 F2000
G01 Z3 F300
G01 X51.69 Y62.91 M03 S255 F800
G01 X48.25 Y62.58 M03 S0 F2000
G01 Z3 F300
G01 X50.54 Y62.74 M03 S255 F800
G01 X45.96 Y62.63 M03 S0 F2000
G01 Z3 F300
G01 X48.25 Y62.58 M03 S255 F800
G01 X43.78 Y62.83 M03 S0 F2000
G01 Z3 F300
G01 X45.96 Y62.63 M03 S255 F800
G01 X41.78 Y63.13 M03 S0 F2000
G01 Z3 F300
G01 X43.78 Y62.83 M03 S255 F800
G01 X40.88 Y63.29 M03 S0 F2000
G01 Z3 F300
G01 X41.78 Y63.13 M03 S255 F800
G01 X40.06 Y63.45 M03 S0 F2000
G01 Z3 F300
G01 X40.88 Y63.29 M03 S255 F800
G01 X39.34 Y63.61 M03 S0 F2000
G01 Z3 F300
G01 X40.06 Y63.45 M03 S255 F800
G01 X38.71 Y63.76 M03 S0 F2000
G01 Z3 F300
G01 X39.34 Y63.61 M03 S255 F800
G01 X38.21 Y63.89 M03 S0 F2000
G01 Z3 F300
G01 X38.71 Y63.76 M03 S255 F800
G01 X37.84 Y63.99 M03 S0 F2000
G01 Z3 F300
G01 X38.21 Y63.89 M03 S255 F800
G01 X37.6 Y64.05 M03 S0 F2000
G01 Z3 F300
G01 X37.84 Y63.99 M03 S255 F800
G01 X37.53 Y64.08 M03 S0 F2000
G01 Z3 F300
G01 X37.6 Y64.05 M03 S255 F800
G01 X37.49 Y64.09 M03 S0 F2000
G01 Z3 F300
G01 X37.53 Y64.08 M03 S255 F800
G01 X37.38 Y64.11 M03 S0 F2000
G01 Z3 F300
G01 X37.49 Y64.09 M03 S255 F800
G01 X36.94 Y64.21 M03 S0 F2000
G01 Z3 F300
G01 X37.38 Y64.11 M03 S255 F800
G01 X36.25 Y64.36 M03 S0 F2000
G01 Z3 F300
G01 X36.94 Y64.21 M03 S255 F800
G01 X35.34 Y64.58 M03 S0 F2000
G01 Z3 F300
G01 X36.25 Y64.36 M03 S255 F800
G01 X34.24 Y64.84 M03 S0 F2000
G01 Z3 F300
G01 X35.34 Y64.58 M03 S255 F800
G01 X32.98 Y65.15 M03 S0 F2000
G01 Z3 F300
G01 X34.24 Y64.84 M03 S255 F800
G01 X31.59 Y65.5 M03 S0 F2000
G01 Z3 F300
G01 X32.98 Y65.15 M03 S255 F800
G01 X30.11 Y65.89 M03 S0 F2000
G01 Z3 F300
G01 X31.59 Y65.5 M03 S255 F800
G01 X27.01 Y66.75 M03 S0 F2000
G01 Z3 F300
G01 X30.11 Y65.89 M03 S255 F800
G01 X23.91 Y67.69 M03 S0 F2000
G01 Z3 F300
G01 X27.01 Y66.75 M03 S255 F800
G01 X22.45 Y68.19 M03 S0 F2000
G01 Z3 F300
G01 X23.91 Y67.69 M03 S255 F800
G01 X21.08 Y68.69 M03 S0 F2000
G01 Z3 F300
G01 X22.45 Y68.19 M03 S255 F800
G01 X19.84 Y69.19 M03 S0 F2000
G01 Z3 F300
G01 X21.08 Y68.69 M03 S255 F800
G01 X18.76 Y69.69 M03 S0 F2000
G01 Z3 F300
G01 X19.84 Y69.19 M03 S255 F800
G01 X17.73 Y70.26 M03 S0 F2000
G01 Z3 F300
G01 X18.76 Y69.69 M03 S255 F800
G01 X16.64 Y70.93 M03 S0 F2000
G01 Z3 F300
G01 X17.73 Y70.26 M03 S255 F800
G01 X15.54 Y71.68 M03 S0 F2000
G01 Z3 F300
G01 X16.64 Y70.93 M03 S255 F800
G01 X14.41 Y72.49 M03 S0 F2000
G01 Z3 F300
G01 X15.54 Y71.68 M03 S255 F800
G01 X12.2 Y74.23 M03 S0 F2000
G01 Z3 F300
G01 X14.41 Y72.49 M03 S255 F800
G01 X10.11 Y75.99 M03 S0 F2000
G01 Z3 F300
G01 X12.2 Y74.23 M03 S255 F800
G01 X9.16 Y76.83 M03 S0 F2000
G01 Z3 F300
G01 X10.11 Y75.99 M03 S255 F800
G01 X8.29 Y77.63 M03 S0 F2000
G01 Z3 F300
G01 X9.16 Y76.83 M03 S255 F800
G01 X7.51 Y78.34 M03 S0 F2000
G01 Z3 F300
G01 X8.29 Y77.63 M03 S255 F800
G01 X6.84 Y78.98 M03 S0 F2000
G01 Z3 F300
G01 X7.51 Y78.34 M03 S255 F800
G01 X6.29 Y79.5 M03 S0 F2000
G01 Z3 F300
G01 X6.84 Y78.98 M03 S255 F800
G01 X5.88 Y79.9 M03 S0 F2000
G01 Z3 F300
G01 X6.29 Y79.5 M03 S255 F800
G01 X5.61 Y80.15 M03 S0 F2000
G01 Z3 F300
G01 X5.88 Y79.9 M03 S255 F800
G01 X5.53 Y80.24 M03 S0 F2000
G01 Z3 F300
G01 X5.61 Y80.15 M03 S255 F800
G01 Z3 F300
G01 X0.23 Y86.12 M03 S255 F800
G01 X0.06 Y43.01 M03 S0 F2000
G01 Z3 F300
G01 X0.04 Y42.9 M03 S255 F800
G01 X0.14 Y43.34 M03 S0 F2000
G01 Z3 F300
G01 X0.06 Y43.01 M03 S255 F800
G01 X0.26 Y43.85 M03 S0 F2000
G01 Z3 F300
G01 X0.14 Y43.34 M03 S255 F800
G01 X0.43 Y44.53 M03 S0 F2000
G01 Z3 F300
G01 X0.26 Y43.85 M03 S255 F800
G01 X0.64 Y45.33 M03 S0 F2000
G01 Z3 F300
G01 X0.43 Y44.53 M03 S255 F800
G01 X0.9 Y46.24 M03 S0 F2000
G01 Z3 F300
G01 X0.64 Y45.33 M03 S255 F800
G01 X1.19 Y47.24 M03 S0 F2000
G01 Z3 F300
G01 X0.9 Y46.24 M03 S255 F800
G01 X1.53 Y48.3 M03 S0 F2000
G01 Z3 F300
G01 X1.19 Y47.24 M03 S255 F800
G01 X2.3 Y50.49 M03 S0 F2000
G01 Z3 F300
G01 X1.53 Y48.3 M03 S255 F800
G01 X3.2 Y52.61 M03 S0 F2000
G01 Z3 F300
G01 X2.3 Y50.49 M03 S255 F800
G01 X3.7 Y53.58 M03 S0 F2000
G01 Z3 F300
G01 X3.2 Y52.61 M03 S255 F800
G01 X4.23 Y54.45 M03 S0 F2000
G01 Z3 F300
G01 X3.7 Y53.58 M03 S255 F800
G01 X4.78 Y55.21 M03 S0 F2000
G01 Z3 F300
G01 X4.23 Y54.45 M03 S255 F800
G01 X5.35 Y55.83 M03 S0 F2000
G01 Z3 F300
G01 X4.78 Y55.21 M03 S255 F800
G01 X5.89 Y56.23 M03 S0 F2000
G01 Z3 F300
G01 X5.35 Y55.83 M03 S255 F800
G01 X6.55 Y56.56 M03 S0 F2000
G01 Z3 F300
G01 X5.89 Y56.23 M03 S255 F800
G01 X7.33 Y56.88 M03 S0 F2000
G01 Z3 F300
G01 X6.55 Y56.56 M03 S255 F800
G01 X8.17 Y57.13 M03 S0 F2000
G01 Z3 F300
G01 X7.33 Y56.88 M03 S255 F800
G01 X10.06 Y57.54 M03 S0 F2000
G01 Z3 F300
G01 X8.17 Y57.13 M03 S255 F800
G01 X12 Y57.83 M03 S0 F2000
G01 Z3 F300
G01 X10.06 Y57.54 M03 S255 F800
G01 X13.84 Y58 M03 S0 F2000
G01 Z3 F300
G01 X12 Y57.83 M03 S255 F800
G01 X14.65 Y58.05 M03 S0 F2000
G01 Z3 F300
G01 X13.84 Y58 M03 S255 F800
G01 X15.36 Y58.09 M03 S0 F2000
G01 Z3 F300
G01 X14.65 Y58.05 M03 S255 F800
G01 X15.96 Y58.11 M03 S0 F2000
G01 Z3 F300
G01 X15.36 Y58.09 M03 S255 F800
G01 X16.43 Y58.13 M03 S0 F2000
G01 Z3 F300
G01 X15.96 Y58.11 M03 S255 F800
G01 X16.71 Y58.14 M03 S0 F2000
G01 Z3 F300
G01 X16.43 Y58.13 M03 S255 F800
G01 X16.81 Y58.14 M03 S0 F2000
G01 Z3 F300
G01 X16.71 Y58.14 M03 S255 F800
G01 X16.91 Y58.16 M03 S0 F2000
G01 Z3 F300
G01 X16.81 Y58.14 M03 S255 F800
G01 X17.2 Y58.23 M03 S0 F2000
G01 Z3 F300
G01 X16.91 Y58.16 M03 S255 F800
G01 X17.66 Y58.33 M03 S0 F2000
G01 Z3 F300
G01 X17.2 Y58.23 M03 S255 F800
G01 X18.28 Y58.46 M03 S0 F2000
G01 Z3 F300
G01 X17.66 Y58.33 M03 S255 F800
G01 X19.01 Y58.61 M03 S0 F2000
G01 Z3 F300
G01 X18.28 Y58.46 M03 S255 F800
G01 X19.88 Y58.79 M03 S0 F2000
G01 Z3 F300
G01 X19.01 Y58.61 M03 S255 F800
G01 X20.81 Y58.98 M03 S0 F2000
G01 Z3 F300
G01 X19.88 Y58.79 M03 S255 F800
G01 X21.84 Y59.18 M03 S0 F2000
G01 Z3 F300
G01 X20.81 Y58.98 M03 S255 F800
G01 X24.01 Y59.56 M03 S0 F2000
G01 Z3 F300
G01 X21.84 Y59.18 M03 S255 F800
G01 X26.25 Y59.9 M03 S0 F2000
G01 Z3 F300
G01 X24.01 Y59.56 M03 S255 F800
G01 X28.39 Y60.16 M03 S0 F2000
G01 Z3 F300
G01 X26.25 Y59.9 M03 S255 F800
G01 X29.36 Y60.24 M03 S0 F2000
G01 Z3 F300
G01 X28.39 Y60.16 M03 S255 F800
G01 X30.26 Y60.28 M03 S0 F2000
G01 Z3 F300
G01 X29.36 Y60.24 M03 S255 F800
G01 X31.33 Y60.28 M03 S0 F2000
G01 Z3 F300
G01 X30.26 Y60.28 M03 S255 F800
G01 X32.5 Y60.24 M03 S0 F2000
G01 Z3 F300
G01 X31.33 Y60.28 M03 S255 F800
G01 X33.75 Y60.16 M03 S0 F2000
G01 Z3 F300
G01 X32.5 Y60.24 M03 S255 F800
G01 X35.06 Y60.08 M03 S0 F2000
G01 Z3 F300
G01 X33.75 Y60.16 M03 S255 F800
G01 X37.76 Y59.81 M03 S0 F2000
G01 Z3 F300
G01 X35.06 Y60.08 M03 S255 F800
G01 X40.39 Y59.51 M03 S0 F2000
G01 Z3 F300
G01 X37.76 Y59.81 M03 S255 F800
G01 X41.63 Y59.36 M03 S0 F2000
G01 Z3 F300
G01 X40.39 Y59.51 M03 S255 F800
G01 X42.78 Y59.21 M03 S0 F2000
G01 Z3 F300
G01 X41.63 Y59.36 M03 S255 F800
G01 X43.81 Y59.08 M03 S0 F2000
G01 Z3 F300
G01 X42.78 Y59.21 M03 S255 F800
G01 X44.71 Y58.95 M03 S0 F2000
G01 Z3 F300
G01 X43.81 Y59.08 M03 S255 F800
G01 X45.46 Y58.84 M03 S0 F2000
G01 Z3 F300
G01 X44.71 Y58.95 M03 S255 F800
G01 X46.03 Y58.76 M03 S0 F2000
G01 Z3 F300
G01 X45.46 Y58.84 M03 S255 F800
G01 X46.38 Y58.71 M03 S0 F2000
G01 Z3 F300
G01 X46.03 Y58.76 M03 S255 F800
G01 X46.5 Y58.69 M03 S0 F2000
G01 Z3 F300
G01 X46.38 Y58.71 M03 S255 F800
G01 X46.63 Y58.65 M03 S0 F2000
G01 Z3 F300
G01 X46.5 Y58.69 M03 S255 F800
G01 X47 Y58.55 M03 S0 F2000
G01 Z3 F300
G01 X46.63 Y58.65 M03 S255 F800
G01 X47.59 Y58.38 M03 S0 F2000
G01 Z3 F300
G01 X47 Y58.55 M03 S255 F800
G01 X48.36 Y58.15 M03 S0 F2000
G01 Z3 F300
G01 X47.59 Y58.38 M03 S255 F800
G01 X49.31 Y57.88 M03 S0 F2000
G01 Z3 F300
G01 X48.36 Y58.15 M03 S255 F800
G01 X50.39 Y57.55 M03 S0 F2000
G01 Z3 F300
G01 X49.31 Y57.88 M03 S255 F800
G01 X51.58 Y57.18 M03 S0 F2000
G01 Z3 F300
G01 X50.39 Y57.55 M03 S255 F800
G01 X52.84 Y56.78 M03 S0 F2000
G01 Z3 F300
G01 X51.58 Y57.18 M03 S255 F800
G01 X55.53 Y55.9 M03 S0 F2000
G01 Z3 F300
G01 X52.84 Y56.78 M03 S255 F800
G01 X58.23 Y54.95 M03 S0 F2000
G01 Z3 F300
G01 X55.53 Y55.9 M03 S255 F800
G01 X59.51 Y54.46 M03 S0 F2000
G01 Z3 F300
G01 X58.23 Y54.95 M03 S255 F800
G01 X60.73 Y53.98 M03 S0 F2000
G01 Z3 F300
G01 X59.51 Y54.46 M03 S255 F800
G01 X61.84 Y53.5 M03 S0 F2000
G01 Z3 F300
G01 X60.73 Y53.98 M03 S255 F800
G01 X62.83 Y53.03 M03 S0 F2000
G01 Z3 F300
G01 X61.84 Y53.5 M03 S255 F800
G01 X63.49 Y52.66 M03 S0 F2000
G01 Z3 F300
G01 X62.83 Y53.03 M03 S255 F800
G01 X64.18 Y52.24 M03 S0 F2000
G01 Z3 F300
G01 X63.49 Y52.66 M03 S255 F800
G01 X65.6 Y51.21 M03 S0 F2000
G01 Z3 F300
G01 X64.18 Y52.24 M03 S255 F800
G01 X67.04 Y50.08 M03 S0 F2000
G01 Z3 F300
G01 X65.6 Y51.21 M03 S255 F800
G01 X68.38 Y48.93 M03 S0 F2000
G01 Z3 F300
G01 X67.04 Y50.08 M03 S255 F800
G01 X69.56 Y47.85 M03 S0 F2000
G01 Z3 F300
G01 X68.38 Y48.93 M03 S255 F800
G01 X70.08 Y47.36 M03 S0 F2000
G01 Z3 F300
G01 X69.56 Y47.85 M03 S255 F800
G01 X70.51 Y46.95 M03 S0 F2000
G01 Z3 F300
G01 X70.08 Y47.36 M03 S255 F800
G01 X70.86 Y46.6 M03 S0 F2000
G01 Z3 F300
G01 X70.51 Y46.95 M03 S255 F800
G01 X71.14 Y46.34 M03 S0 F2000
G01 Z3 F300
G01 X70.86 Y46.6 M03 S255 F800
G01 X71.3 Y46.18 M03 S0 F2000
G01 Z3 F300
G01 X71.14 Y46.34 M03 S255 F800
G01 X71.36 Y46.11 M03 S0 F2000
G01 Z3 F300
G01 X71.3 Y46.18 M03 S255 F800
G01 X71.43 Y46.03 M03 S0 F2000
G01 Z3 F300
G01 X71.36 Y46.11 M03 S255 F800
G01 X71.63 Y45.76 M03 S0 F2000
G01 Z3 F300
G01 X71.43 Y46.03 M03 S255 F800
G01 X71.91 Y45.35 M03 S0 F2000
G01 Z3 F300
G01 X71.63 Y45.76 M03 S255 F800
G01 X72.3 Y44.8 M03 S0 F2000
G01 Z3 F300
G01 X71.91 Y45.35 M03 S255 F800
G01 X72.75 Y44.15 M03 S0 F2000
G01 Z3 F300
G01 X72.3 Y44.8 M03 S255 F800
G01 X73.26 Y43.39 M03 S0 F2000
G01 Z3 F300
G01 X72.75 Y44.15 M03 S255 F800
G01 X73.8 Y42.56 M03 S0 F2000
G01 Z3 F300
G01 X73.26 Y43.39 M03 S255 F800
G01 X74.36 Y41.68 M03 S0 F2000
G01 Z3 F300
G01 X73.8 Y42.56 M03 S255 F800
G01 X75.46 Y39.81 M03 S0 F2000
G01 Z3 F300
G01 X74.36 Y41.68 M03 S255 F800
G01 X76.44 Y37.95 M03 S0 F2000
G01 Z3 F300
G01 X75.46 Y39.81 M03 S255 F800
G01 X76.83 Y37.06 M03 S0 F2000
G01 Z3 F300
G01 X76.44 Y37.95 M03 S255 F800
G01 X77.13 Y36.23 M03 S0 F2000
G01 Z3 F300
G01 X76.83 Y37.06 M03 S255 F800
G01 X77.34 Y35.48 M03 S0 F2000
G01 Z3 F300
G01 X77.13 Y36.23 M03 S255 F800
G01 X77.41 Y34.81 M03 S0 F2000
G01 Z3 F300
G01 X77.34 Y35.48 M03 S255 F800
G01 X77.36 Y34.09 M03 S0 F2000
G01 Z3 F300
G01 X77.41 Y34.81 M03 S255 F800
G01 X77.2 Y33.33 M03 S0 F2000
G01 Z3 F300
G01 X77.36 Y34.09 M03 S255 F800
G01 X76.94 Y32.54 M03 S0 F2000
G01 Z3 F300
G01 X77.2 Y33.33 M03 S255 F800
G01 X76.59 Y31.74 M03 S0 F2000
G01 Z3 F300
G01 X76.94 Y32.54 M03 S255 F800
G01 X75.71 Y30.14 M03 S0 F2000
G01 Z3 F300
G01 X76.59 Y31.74 M03 S255 F800
G01 X74.69 Y28.61 M03 S0 F2000
G01 Z3 F300
G01 X75.71 Y30.14 M03 S255 F800
G01 X73.68 Y27.26 M03 S0 F2000
G01 Z3 F300
G01 X74.69 Y28.61 M03 S255 F800
G01 X73.2 Y26.68 M03 S0 F2000
G01 Z3 F300
G01 X73.68 Y27.26 M03 S255 F800
G01 X72.77 Y26.18 M03 S0 F2000
G01 Z3 F300
G01 X73.2 Y26.68 M03 S255 F800
G01 X72.41 Y25.76 M03 S0 F2000
G01 Z3 F300
G01 X72.77 Y26.18 M03 S255 F800
G01 X72.14 Y25.46 M03 S0 F2000
G01 Z3 F300
G01 X72.41 Y25.76 M03 S255 F800
G01 X71.96 Y25.26 M03 S0 F2000
G01 Z3 F300
G01 X72.14 Y25.46 M03 S255 F800
G01 X71.9 Y25.2 M03 S0 F2000
G01 Z3 F300
G01 X71.96 Y25.26 M03 S255 F800
G01 X71.85 Y25.19 M03 S0 F2000
G01 Z3 F300
G01 X71.9 Y25.2 M03 S255 F800
G01 X71.71 Y25.14 M03 S0 F2000
G01 Z3 F300
G01 X71.85 Y25.19 M03 S255 F800
G01 X71.5 Y25.08 M03 S0 F2000
G01 Z3 F300
G01 X71.71 Y25.14 M03 S255 F800
G01 X71.2 Y24.99 M03 S0 F2000
G01 Z3 F300
G01 X71.5 Y25.08 M03 S255 F800
G01 X70.39 Y24.74 M03 S0 F2000
G01 Z3 F300
G01 X71.2 Y24.99 M03 S255 F800
G01 X69.3 Y24.41 M03 S0 F2000
G01 Z3 F300
G01 X70.39 Y24.74 M03 S255 F800
G01 X68.01 Y24.03 M03 S0 F2000
G01 Z3 F300
G01 X69.3 Y24.41 M03 S255 F800
G01 X66.52 Y23.59 M03 S0 F2000
G01 Z3 F300
G01 X68.01 Y24.03 M03 S255 F800
G01 X64.91 Y23.11 M03 S0 F2000
G01 Z3 F300
G01 X66.52 Y23.59 M03 S255 F800
G01 X63.19 Y22.61 M03 S0 F2000
G01 Z3 F300
G01 X64.91 Y23.11 M03 S255 F800
G01 X59.59 Y21.61 M03 S0 F2000
G01 Z3 F300
G01 X63.19 Y22.61 M03 S255 F800
G01 X57.78 Y21.14 M03 S0 F2000
G01 Z3 F300
G01 X59.59 Y21.61 M03 S255 F800
G01 X56.03 Y20.69 M03 S0 F2000
G01 Z3 F300
G01 X57.78 Y21.14 M03 S255 F800
G01 X54.38 Y20.29 M03 S0 F2000
G01 Z3 F300
G01 X56.03 Y20.69 M03 S255 F800
G01 X52.85 Y19.95 M03 S0 F2000
G01 Z3 F300
G01 X54.38 Y20.29 M03 S255 F800
G01 X51.49 Y19.69 M03 S0 F2000
G01 Z3 F300
G01 X52.85 Y19.95 M03 S255 F800
G01 X50.34 Y19.51 M03 S0 F2000
G01 Z3 F300
G01 X51.49 Y19.69 M03 S255 F800
G01 X48.05 Y19.35 M03 S0 F2000
G01 Z3 F300
G01 X50.34 Y19.51 M03 S255 F800
G01 X45.76 Y19.4 M03 S0 F2000
G01 Z3 F300
G01 X48.05 Y19.35 M03 S255 F800
G01 X43.58 Y19.6 M03 S0 F2000
G01 Z3 F300
G01 X45.76 Y19.4 M03 S255 F800
G01 X41.58 Y19.9 M03 S0 F2000
G01 Z3 F300
G01 X43.58 Y19.6 M03 S255 F800
G01 X40.68 Y20.06 M03 S0 F2000
G01 Z3 F300
G01 X41.58 Y19.9 M03 S255 F800
G01 X39.86 Y20.23 M03 S0 F2000
G01 Z3 F300
G01 X40.68 Y20.06 M03 S255 F800
G01 X39.14 Y20.39 M03 S0 F2000
G01 Z3 F300
G01 X39.86 Y20.23 M03 S255 F800
G01 X38.51 Y20.54 M03 S0 F2000
G01 Z3 F300
G01 X39.14 Y20.39 M03 S255 F800
G01 X38.01 Y20.66 M03 S0 F2000
G01 Z3 F300
G01 X38.51 Y20.54 M03 S255 F800
G01 X37.64 Y20.76 M03 S0 F2000
G01 Z3 F300
G01 X38.01 Y20.66 M03 S255 F800
G01 X37.4 Y20.83 M03 S0 F2000
G01 Z3 F300
G01 X37.64 Y20.76 M03 S255 F800
G01 X37.33 Y20.85 M03 S0 F2000
G01 Z3 F300
G01 X37.4 Y20.83 M03 S255 F800
G01 X37.29 Y20.86 M03 S0 F2000
G01 Z3 F300
G01 X37.33 Y20.85 M03 S255 F800
G01 X37.18 Y20.89 M03 S0 F2000
G01 Z3 F300
G01 X37.29 Y20.86 M03 S255 F800
G01 X36.74 Y20.99 M03 S0 F2000
G01 Z3 F300
G01 X37.18 Y20.89 M03 S255 F800
G01 X36.05 Y21.14 M03 S0 F2000
G01 Z3 F300
G01 X36.74 Y20.99 M03 S255 F800
G01 X35.14 Y21.35 M03 S0 F2000
G01 Z3 F300
G01 X36.05 Y21.14 M03 S255 F800
G01 X34.04 Y21.61 M03 S0 F2000
G01 Z3 F300
G01 X35.14 Y21.35 M03 S255 F800
G01 X32.78 Y21.93 M03 S0 F2000
G01 Z3 F300
G01 X34.04 Y21.61 M03 S255 F800
G01 X31.39 Y22.28 M03 S0 F2000
G01 Z3 F300
G01 X32.78 Y21.93 M03 S255 F800
G01 X29.91 Y22.66 M03 S0 F2000
G01 Z3 F300
G01 X31.39 Y22.28 M03 S255 F800
G01 X26.81 Y23.53 M03 S0 F2000
G01 Z3 F300
G01 X29.91 Y22.66 M03 S255 F800
G01 X23.71 Y24.46 M03 S0 F2000
G01 Z3 F300
G01 X26.81 Y23.53 M03 S255 F800
G01 X22.25 Y24.96 M03 S0 F2000
G01 Z3 F300
G01 X23.71 Y24.46 M03 S255 F800
G01 X20.88 Y25.46 M03 S0 F2000
G01 Z3 F300
G01 X22.25 Y24.96 M03 S255 F800
G01 X19.64 Y25.96 M03 S0 F2000
G01 Z3 F300
G01 X20.88 Y25.46 M03 S255 F800
G01 X18.56 Y26.46 M03 S0 F2000
G01 Z3 F300
G01 X19.64 Y25.96 M03 S255 F800
G01 X17.53 Y27.04 M03 S0 F2000
G01 Z3 F300
G01 X18.56 Y26.46 M03 S255 F800
G01 X16.44 Y27.7 M03 S0 F2000
G01 Z3 F300
G01 X17.53 Y27.04 M03 S255 F800
G01 X15.33 Y28.45 M03 S0 F2000
G01 Z3 F300
G01 X16.44 Y27.7 M03 S255 F800
G01 X14.21 Y29.26 M03 S0 F2000
G01 Z3 F300
G01 X15.33 Y28.45 M03 S255 F800
G01 X12 Y31 M03 S0 F2000
G01 Z3 F300
G01 X14.21 Y29.26 M03 S255 F800
G01 X9.91 Y32.76 M03 S0 F2000
G01 Z3 F300
G01 X12 Y31 M03 S255 F800
G01 X8.96 Y33.6 M03 S0 F2000
G01 Z3 F300
G01 X9.91 Y32.76 M03 S255 F800
G01 X8.09 Y34.4 M03 S0 F2000
G01 Z3 F300
G01 X8.96 Y33.6 M03 S255 F800
G01 X7.3 Y35.11 M03 S0 F2000
G01 Z3 F300
G01 X8.09 Y34.4 M03 S255 F800
G01 X6.64 Y35.75 M03 S0 F2000
G01 Z3 F300
G01 X7.3 Y35.11 M03 S255 F800
G01 X6.09 Y36.28 M03 S0 F2000
G01 Z3 F300
G01 X6.64 Y35.75 M03 S255 F800
G01 X5.68 Y36.68 M03 S0 F2000
G01 Z3 F300
G01 X6.09 Y36.28 M03 S255 F800
G01 X5.41 Y36.93 M03 S0 F2000
G01 Z3 F300
G01 X5.68 Y36.68 M03 S255 F800
G01 X5.33 Y37.01 M03 S0 F2000
G01 Z3 F300
G01 X5.41 Y36.93 M03 S255 F800
G01 Z3 F300
G01 X0.03 Y42.89 M03 S255 F800
G01 X94.09 Y8.01 M03 S0 F2000
G01 Z3 F300
G01 X85.93 Y9.41 M03 S255 F800
G01 Z3 F300
G01 X85.94 Y9.41 M03 S255 F800
G01 X85.79 Y9.63 M03 S0 F2000
G01 Z3 F300
G01 X85.9 Y9.46 M03 S255 F800
G01 X85.6 Y9.88 M03 S0 F2000
G01 Z3 F300
G01 X85.79 Y9.63 M03 S255 F800
G01 X85.36 Y10.2 M03 S0 F2000
G01 Z3 F300
G01 X85.6 Y9.88 M03 S255 F800
G01 X84.76 Y11.05 M03 S0 F2000
G01 Z3 F300
G01 X85.36 Y10.2 M03 S255 F800
G01 X84.04 Y12.09 M03 S0 F2000
G01 Z3 F300
G01 X84.76 Y11.05 M03 S255 F800
G01 X83.29 Y13.23 M03 S0 F2000
G01 Z3 F300
G01 X84.04 Y12.09 M03 S255 F800
G01 X82.56 Y14.38 M03 S0 F2000
G01 Z3 F300
G01 X83.29 Y13.23 M03 S255 F800
G01 X81.96 Y15.46 M03 S0 F2000
G01 Z3 F300
G01 X82.56 Y14.38 M03 S255 F800
G01 X81.54 Y16.39 M03 S0 F2000
G01 Z3 F300
G01 X81.96 Y15.46 M03 S255 F800
G01 X81.2 Y17.59 M03 S0 F2000
G01 Z3 F300
G01 X81.54 Y16.39 M03 S255 F800
G01 X80.99 Y18.91 M03 S0 F2000
G01 Z3 F300
G01 X81.2 Y17.59 M03 S255 F800
G01 X80.89 Y20.29 M03 S0 F2000
G01 Z3 F300
G01 X80.99 Y18.91 M03 S255 F800
G01 X80.85 Y21.6 M03 S0 F2000
G01 Z3 F300
G01 X80.89 Y20.29 M03 S255 F800
G01 X80.88 Y22.78 M03 S0 F2000
G01 Z3 F300
G01 X80.85 Y21.6 M03 S255 F800
G01 X80.9 Y23.29 M03 S0 F2000
G01 Z3 F300
G01 X80.88 Y22.78 M03 S255 F800
G01 X80.93 Y23.73 M03 S0 F2000
G01 Z3 F300
G01 X80.9 Y23.29 M03 S255 F800
G01 X80.95 Y24.09 M03 S0 F2000
G01 Z3 F300
G01 X80.93 Y23.73 M03 S255 F800
G01 X80.96 Y24.36 M03 S0 F2000
G01 Z3 F300
G01 X80.95 Y24.09 M03 S255 F800
G01 X80.99 Y24.53 M03 S0 F2000
G01 Z3 F300
G01 X80.96 Y24.36 M03 S255 F800
G01 X80.99 Y24.59 M03 S0 F2000
G01 Z3 F300
G01 X80.99 Y24.53 M03 S255 F800
G01 Z3 F300
G01 X80.99 Y24.59 M03 S255 F800
G01 X81.02 Y24.74 M03 S0 F2000
G01 Z3 F300
G01 X81 Y24.63 M03 S255 F800
G01 X81.15 Y25.15 M03 S0 F2000
G01 Z3 F300
G01 X81.02 Y24.74 M03 S255 F800
G01 X81.33 Y25.83 M03 S0 F2000
G01 Z3 F300
G01 X81.15 Y25.15 M03 S255 F800
G01 X81.58 Y26.7 M03 S0 F2000
G01 Z3 F300
G01 X81.33 Y25.83 M03 S255 F800
G01 X81.86 Y27.78 M03 S0 F2000
G01 Z3 F300
G01 X81.58 Y26.7 M03 S255 F800
G01 X82.19 Y29 M03 S0 F2000
G01 Z3 F300
G01 X81.86 Y27.78 M03 S255 F800
G01 X82.55 Y30.36 M03 S0 F2000
G01 Z3 F300
G01 X82.19 Y29 M03 S255 F800
G01 X82.93 Y31.83 M03 S0 F2000
G01 Z3 F300
G01 X82.55 Y30.36 M03 S255 F800
G01 X83.71 Y34.93 M03 S0 F2000
G01 Z3 F300
G01 X82.93 Y31.83 M03 S255 F800
G01 X84.46 Y38.08 M03 S0 F2000
G01 Z3 F300
G01 X83.71 Y34.93 M03 S255 F800
G01 X84.8 Y39.6 M03 S0 F2000
G01 Z3 F300
G01 X84.46 Y38.08 M03 S255 F800
G01 X85.1 Y41.06 M03 S0 F2000
G01 Z3 F300
G01 X84.8 Y39.6 M03 S255 F800
G01 X85.36 Y42.4 M03 S0 F2000
G01 Z3 F300
G01 X85.1 Y41.06 M03 S255 F800
G01 X85.58 Y43.63 M03 S0 F2000
G01 Z3 F300
G01 X85.36 Y42.4 M03 S255 F800
G01 X85.83 Y44.84 M03 S0 F2000
G01 Z3 F300
G01 X85.58 Y43.63 M03 S255 F800
G01 X86.18 Y46.08 M03 S0 F2000
G01 Z3 F300
G01 X85.83 Y44.84 M03 S255 F800
G01 X87 Y48.61 M03 S0 F2000
G01 Z3 F300
G01 X86.18 Y46.08 M03 S255 F800
G01 X87.39 Y49.9 M03 S0 F2000
G01 Z3 F300
G01 X87 Y48.61 M03 S255 F800
G01 X87.7 Y51.2 M03 S0 F2000
G01 Z3 F300
G01 X87.39 Y49.9 M03 S255 F800
G01 X87.9 Y52.51 M03 S0 F2000
G01 Z3 F300
G01 X87.7 Y51.2 M03 S255 F800
G01 X87.94 Y53.81 M03 S0 F2000
G01 Z3 F300
G01 X87.9 Y52.51 M03 S255 F800
G01 X87.81 Y55.1 M03 S0 F2000
G01 Z3 F300
G01 X87.94 Y53.81 M03 S255 F800
G01 X87.55 Y56.48 M03 S0 F2000
G01 Z3 F300
G01 X87.81 Y55.1 M03 S255 F800
G01 X87.21 Y57.84 M03 S0 F2000
G01 Z3 F300
G01 X87.55 Y56.48 M03 S255 F800
G01 X86.83 Y59.15 M03 S0 F2000
G01 Z3 F300
G01 X87.21 Y57.84 M03 S255 F800
G01 X86.46 Y60.29 M03 S0 F2000
G01 Z3 F300
G01 X86.83 Y59.15 M03 S255 F800
G01 X86.29 Y60.79 M03 S0 F2000
G01 Z3 F300
G01 X86.46 Y60.29 M03 S255 F800
G01 X86.14 Y61.21 M03 S0 F2000
G01 Z3 F300
G01 X86.29 Y60.79 M03 S255 F800
G01 X86.01 Y61.56 M03 S0 F2000
G01 Z3 F300
G01 X86.14 Y61.21 M03 S255 F800
G01 X85.91 Y61.81 M03 S0 F2000
G01 Z3 F300
G01 X86.01 Y61.56 M03 S255 F800
G01 X85.85 Y61.98 M03 S0 F2000
G01 Z3 F300
G01 X85.91 Y61.81 M03 S255 F800
G01 X85.83 Y62.04 M03 S0 F2000
G01 Z3 F300
G01 X85.85 Y61.98 M03 S255 F800
G01 X85.79 Y62.08 M03 S0 F2000
G01 Z3 F300
G01 X85.83 Y62.04 M03 S255 F800
G01 X85.7 Y62.2 M03 S0 F2000
G01 Z3 F300
G01 X85.79 Y62.08 M03 S255 F800
G01 X85.36 Y62.63 M03 S0 F2000
G01 Z3 F300
G01 X85.7 Y62.2 M03 S255 F800
G01 X84.89 Y63.28 M03 S0 F2000
G01 Z3 F300
G01 X85.36 Y62.63 M03 S255 F800
G01 X84.34 Y64.09 M03 S0 F2000
G01 Z3 F300
G01 X84.89 Y63.28 M03 S255 F800
G01 X83.77 Y65 M03 S0 F2000
G01 Z3 F300
G01 X84.34 Y64.09 M03 S255 F800
G01 X83.27 Y65.94 M03 S0 F2000
G01 Z3 F300
G01 X83.77 Y65 M03 S255 F800
G01 X82.9 Y66.86 M03 S0 F2000
G01 Z3 F300
G01 X83.27 Y65.94 M03 S255 F800
G01 X82.73 Y67.71 M03 S0 F2000
G01 Z3 F300
G01 X82.9 Y66.86 M03 S255 F800
G01 X82.69 Y68.48 M03 S0 F2000
G01 Z3 F300
G01 X82.73 Y67.71 M03 S255 F800
G01 X82.69 Y69.34 M03 S0 F2000
G01 Z3 F300
G01 X82.69 Y68.48 M03 S255 F800
G01 X82.71 Y70.29 M03 S0 F2000
G01 Z3 F300
G01 X82.69 Y69.34 M03 S255 F800
G01 X82.76 Y71.3 M03 S0 F2000
G01 Z3 F300
G01 X82.71 Y70.29 M03 S255 F800
G01 X82.91 Y73.43 M03 S0 F2000
G01 Z3 F300
G01 X82.76 Y71.3 M03 S255 F800
G01 X83.11 Y75.56 M03 S0 F2000
G01 Z3 F300
G01 X82.91 Y73.43 M03 S255 F800
G01 X83.21 Y76.56 M03 S0 F2000
G01 Z3 F300
G01 X83.11 Y75.56 M03 S255 F800
G01 X83.33 Y77.51 M03 S0 F2000
G01 Z3 F300
G01 X83.21 Y76.56 M03 S255 F800
G01 X83.43 Y78.38 M03 S0 F2000
G01 Z3 F300
G01 X83.33 Y77.51 M03 S255 F800
G01 X83.51 Y79.13 M03 S0 F2000
G01 Z3 F300
G01 X83.43 Y78.38 M03 S255 F800
G01 X83.59 Y79.74 M03 S0 F2000
G01 Z3 F300
G01 X83.51 Y79.13 M03 S255 F800
G01 X83.65 Y80.21 M03 S0 F2000
G01 Z3 F300
G01 X83.59 Y79.74 M03 S255 F800
G01 X83.69 Y80.51 M03 S0 F2000
G01 Z3 F300
G01 X83.65 Y80.21 M03 S255 F800
G01 X83.7 Y80.61 M03 S0 F2000
G01 Z3 F300
G01 X83.69 Y80.51 M03 S255 F800
G01 X83.71 Y80.69 M03 S0 F2000
G01 Z3 F300
G01 X83.7 Y80.61 M03 S255 F800
G01 X83.76 Y80.93 M03 S0 F2000
G01 Z3 F300
G01 X83.71 Y80.69 M03 S255 F800
G01 X83.83 Y81.29 M03 S0 F2000
G01 Z3 F300
G01 X83.76 Y80.93 M03 S255 F800
G01 X83.9 Y81.77 M03 S0 F2000
G01 Z3 F300
G01 X83.83 Y81.29 M03 S255 F800
G01 X83.99 Y82.38 M03 S0 F2000
G01 Z3 F300
G01 X83.9 Y81.77 M03 S255 F800
G01 X84.08 Y83.05 M03 S0 F2000
G01 Z3 F300
G01 X83.99 Y82.38 M03 S255 F800
G01 X84.26 Y84.63 M03 S0 F2000
G01 Z3 F300
G01 X84.08 Y83.05 M03 S255 F800
G01 X84.39 Y86.36 M03 S0 F2000
G01 Z3 F300
G01 X84.26 Y84.63 M03 S255 F800
G01 X84.44 Y88.15 M03 S0 F2000
G01 Z3 F300
G01 X84.39 Y86.36 M03 S255 F800
G01 X84.35 Y89.86 M03 S0 F2000
G01 Z3 F300
G01 X84.44 Y88.15 M03 S255 F800
G01 X84.25 Y90.65 M03 S0 F2000
G01 Z3 F300
G01 X84.35 Y89.86 M03 S255 F800
G01 X84.09 Y91.38 M03 S0 F2000
G01 Z3 F300
G01 X84.25 Y90.65 M03 S255 F800
G01 X83.91 Y91.94 M03 S0 F2000
G01 Z3 F300
G01 X84.09 Y91.38 M03 S255 F800
G01 X83.66 Y92.54 M03 S0 F2000
G01 Z3 F300
G01 X83.91 Y91.94 M03 S255 F800
G01 X83.01 Y93.86 M03 S0 F2000
G01 Z3 F300
G01 X83.66 Y92.54 M03 S255 F800
G01 X82.21 Y95.25 M03 S0 F2000
G01 Z3 F300
G01 X83.01 Y93.86 M03 S255 F800
G01 X81.36 Y96.6 M03 S0 F2000
G01 Z3 F300
G01 X82.21 Y95.25 M03 S255 F800
G01 X80.55 Y97.81 M03 S0 F2000
G01 Z3 F300
G01 X81.36 Y96.6 M03 S255 F800
G01 X80.19 Y98.35 M03 S0 F2000
G01 Z3 F300
G01 X80.55 Y97.81 M03 S255 F800
G01 X79.86 Y98.8 M03 S0 F2000
G01 Z3 F300
G01 X80.19 Y98.35 M03 S255 F800
G01 X79.59 Y99.19 M03 S0 F2000
G01 Z3 F300
G01 X79.86 Y98.8 M03 S255 F800
G01 X79.38 Y99.48 M03 S0 F2000
G01 Z3 F300
G01 X79.59 Y99.19 M03 S255 F800
G01 X79.25 Y99.65 M03 S0 F2000
G01 Z3 F300
G01 X79.38 Y99.48 M03 S255 F800
G01 X79.2 Y99.71 M03 S0 F2000
G01 Z3 F300
G01 X79.25 Y99.65 M03 S255 F800
G01 X79.25 Y99.77 M03 S0 F2000
G01 Z3 F300
G01 X79.2 Y99.71 M03 S255 F800
G01 X79.39 Y99.95 M03 S0 F2000
G01 Z3 F300
G01 X79.25 Y99.77 M03 S255 F800
G01 X79.6 Y100.23 M03 S0 F2000
G01 Z3 F300
G01 X79.39 Y99.95 M03 S255 F800
G01 X79.89 Y100.58 M03 S0 F2000
G01 Z3 F300
G01 X79.6 Y100.23 M03 S255 F800
G01 X80.64 Y101.49 M03 S0 F2000
G01 Z3 F300
G01 X79.89 Y100.58 M03 S255 F800
G01 X81.55 Y102.55 M03 S0 F2000
G01 Z3 F300
G01 X80.64 Y101.49 M03 S255 F800
G01 X82.55 Y103.66 M03 S0 F2000
G01 Z3 F300
G01 X81.55 Y102.55 M03 S255 F800
G01 X83.56 Y104.69 M03 S0 F2000
G01 Z3 F300
G01 X82.55 Y103.66 M03 S255 F800
G01 X84.06 Y105.14 M03 S0 F2000
G01 Z3 F300
G01 X83.56 Y104.69 M03 S255 F800
G01 X84.52 Y105.51 M03 S0 F2000
G01 Z3 F300
G01 X84.06 Y105.14 M03 S255 F800
G01 X84.96 Y105.81 M03 S0 F2000
G01 Z3 F300
G01 X84.52 Y105.51 M03 S255 F800
G01 X85.35 Y106.03 M03 S0 F2000
G01 Z3 F300
G01 X84.96 Y105.81 M03 S255 F800
G01 X85.95 Y106.13 M03 S0 F2000
G01 Z3 F300
G01 X85.35 Y106.03 M03 S255 F800
G01 X86.63 Y106 M03 S0 F2000
G01 Z3 F300
G01 X85.95 Y106.13 M03 S255 F800
G01 X87.33 Y105.71 M03 S0 F2000
G01 Z3 F300
G01 X86.63 Y106 M03 S255 F800
G01 X87.99 Y105.33 M03 S0 F2000
G01 Z3 F300
G01 X87.33 Y105.71 M03 S255 F800
G01 X88.59 Y104.91 M03 S0 F2000
G01 Z3 F300
G01 X87.99 Y105.33 M03 S255 F800
G01 X89.08 Y104.54 M03 S0 F2000
G01 Z3 F300
G01 X88.59 Y104.91 M03 S255 F800
G01 X89.4 Y104.26 M03 S0 F2000
G01 Z3 F300
G01 X89.08 Y104.54 M03 S255 F800
G01 X89.51 Y104.15 M03 S0 F2000
G01 Z3 F300
G01 X89.4 Y104.26 M03 S255 F800
G01 X89.51 Y104.14 M03 S0 F2000
G01 Z3 F300
G01 X90.95 Y94.55 M03 S255 F800
G01 Z3 F300
G01 X93.01 Y115.67 M03 S255 F800
G01 Z3 F300
G01 X93.02 Y115.68 M03 S255 F800
G01 X93.2 Y115.8 M03 S0 F2000
G01 Z3 F300
G01 X93.08 Y115.71 M03 S255 F800
G01 X93.66 Y116.14 M03 S0 F2000
G01 Z3 F300
G01 X93.2 Y115.8 M03 S255 F800
G01 X94.35 Y116.61 M03 S0 F2000
G01 Z3 F300
G01 X93.66 Y116.14 M03 S255 F800
G01 X95.18 Y117.15 M03 S0 F2000
G01 Z3 F300
G01 X94.35 Y116.61 M03 S255 F800
G01 X96.08 Y117.66 M03 S0 F2000
G01 Z3 F300
G01 X95.18 Y117.15 M03 S255 F800
G01 X96.96 Y118.1 M03 S0 F2000
G01 Z3 F300
G01 X96.08 Y117.66 M03 S255 F800
G01 X97.77 Y118.36 M03 S0 F2000
G01 Z3 F300
G01 X96.96 Y118.1 M03 S255 F800
G01 X98.13 Y118.41 M03 S0 F2000
G01 Z3 F300
G01 X97.77 Y118.36 M03 S255 F800
G01 X98.43 Y118.39 M03 S0 F2000
G01 Z3 F300
G01 X98.13 Y118.41 M03 S255 F800
G01 X98.79 Y118.26 M03 S0 F2000
G01 Z3 F300
G01 X98.43 Y118.39 M03 S255 F800
G01 X99.16 Y118.06 M03 S0 F2000
G01 Z3 F300
G01 X98.79 Y118.26 M03 S255 F800
G01 X99.93 Y117.46 M03 S0 F2000
G01 Z3 F300
G01 X99.16 Y118.06 M03 S255 F800
G01 X100.7 Y116.68 M03 S0 F2000
G01 Z3 F300
G01 X99.93 Y117.46 M03 S255 F800
G01 X101.41 Y115.8 M03 S0 F2000
G01 Z3 F300
G01 X100.7 Y116.68 M03 S255 F800
G01 X102.05 Y114.95 M03 S0 F2000
G01 Z3 F300
G01 X101.41 Y115.8 M03 S255 F800
G01 X102.56 Y114.21 M03 S0 F2000
G01 Z3 F300
G01 X102.05 Y114.95 M03 S255 F800
G01 X102.75 Y113.93 M03 S0 F2000
G01 Z3 F300
G01 X102.56 Y114.21 M03 S255 F800
G01 X102.89 Y113.7 M03 S0 F2000
G01 Z3 F300
G01 X102.75 Y113.93 M03 S255 F800
G01 X102.99 Y113.56 M03 S0 F2000
G01 Z3 F300
G01 X102.89 Y113.7 M03 S255 F800
G01 X103.01 Y113.51 M03 S0 F2000
G01 Z3 F300
G01 X102.99 Y113.56 M03 S255 F800
G01 Z3 F300
G01 X101.37 Y93.49 M03 S255 F800
G01 Z3 F300
G01 X104.86 Y114.93 M03 S255 F800
G01 Z3 F300
G01 X104.86 Y114.94 M03 S255 F800
G01 X105.01 Y115.05 M03 S0 F2000
G01 Z3 F300
G01 X104.9 Y114.96 M03 S255 F800
G01 X105.44 Y115.33 M03 S0 F2000
G01 Z3 F300
G01 X105.01 Y115.05 M03 S255 F800
G01 X106.06 Y115.71 M03 S0 F2000
G01 Z3 F300
G01 X105.44 Y115.33 M03 S255 F800
G01 X106.84 Y116.16 M03 S0 F2000
G01 Z3 F300
G01 X106.06 Y115.71 M03 S255 F800
G01 X107.71 Y116.59 M03 S0 F2000
G01 Z3 F300
G01 X106.84 Y116.16 M03 S255 F800
G01 X108.61 Y116.94 M03 S0 F2000
G01 Z3 F300
G01 X107.71 Y116.59 M03 S255 F800
G01 X109.48 Y117.16 M03 S0 F2000
G01 Z3 F300
G01 X108.61 Y116.94 M03 S255 F800
G01 X110.26 Y117.19 M03 S0 F2000
G01 Z3 F300
G01 X109.48 Y117.16 M03 S255 F800
G01 X110.61 Y117.11 M03 S0 F2000
G01 Z3 F300
G01 X110.26 Y117.19 M03 S255 F800
G01 X111 Y116.96 M03 S0 F2000
G01 Z3 F300
G01 X110.61 Y117.11 M03 S255 F800
G01 X111.88 Y116.53 M03 S0 F2000
G01 Z3 F300
G01 X111 Y116.96 M03 S255 F800
G01 X112.8 Y115.93 M03 S0 F2000
G01 Z3 F300
G01 X111.88 Y116.53 M03 S255 F800
G01 X113.73 Y115.28 M03 S0 F2000
G01 Z3 F300
G01 X112.8 Y115.93 M03 S255 F800
G01 X114.56 Y114.63 M03 S0 F2000
G01 Z3 F300
G01 X113.73 Y115.28 M03 S255 F800
G01 X115.24 Y114.06 M03 S0 F2000
G01 Z3 F300
G01 X114.56 Y114.63 M03 S255 F800
G01 X115.7 Y113.68 M03 S0 F2000
G01 Z3 F300
G01 X115.24 Y114.06 M03 S255 F800
G01 X115.83 Y113.56 M03 S0 F2000
G01 Z3 F300
G01 X115.7 Y113.68 M03 S255 F800
G01 X115.88 Y113.53 M03 S0 F2000
G01 Z3 F300
G01 X115.83 Y113.56 M03 S255 F800
G01 Z3 F300
G01 X110.35 Y91.06 M03 S255 F800
G01 Z3 F300
G01 X116.88 Y112.25 M03 S255 F800
G01 X117.01 Y112.21 M03 S0 F2000
G01 Z3 F300
G01 X116.89 Y112.25 M03 S255 F800
G01 X117.34 Y112.13 M03 S0 F2000
G01 Z3 F300
G01 X117.01 Y112.21 M03 S255 F800
G01 X117.84 Y111.96 M03 S0 F2000
G01 Z3 F300
G01 X117.34 Y112.13 M03 S255 F800
G01 X118.44 Y111.75 M03 S0 F2000
G01 Z3 F300
G01 X117.84 Y111.96 M03 S255 F800
G01 X119.76 Y111.13 M03 S0 F2000
G01 Z3 F300
G01 X118.44 Y111.75 M03 S255 F800
G01 X120.38 Y110.71 M03 S0 F2000
G01 Z3 F300
G01 X119.76 Y111.13 M03 S255 F800
G01 X120.9 Y110.25 M03 S0 F2000
G01 Z3 F300
G01 X120.38 Y110.71 M03 S255 F800
G01 X121.31 Y109.71 M03 S0 F2000
G01 Z3 F300
G01 X120.9 Y110.25 M03 S255 F800
G01 X121.76 Y108.96 M03 S0 F2000
G01 Z3 F300
G01 X121.31 Y109.71 M03 S255 F800
G01 X122.21 Y108.1 M03 S0 F2000
G01 Z3 F300
G01 X121.76 Y108.96 M03 S255 F800
G01 X122.65 Y107.21 M03 S0 F2000
G01 Z3 F300
G01 X122.21 Y108.1 M03 S255 F800
G01 X123.04 Y106.38 M03 S0 F2000
G01 Z3 F300
G01 X122.65 Y107.21 M03 S255 F800
G01 X123.35 Y105.66 M03 S0 F2000
G01 Z3 F300
G01 X123.04 Y106.38 M03 S255 F800
G01 X123.48 Y105.39 M03 S0 F2000
G01 Z3 F300
G01 X123.35 Y105.66 M03 S255 F800
G01 X123.56 Y105.18 M03 S0 F2000
G01 Z3 F300
G01 X123.48 Y105.39 M03 S255 F800
G01 X123.61 Y105.05 M03 S0 F2000
G01 Z3 F300
G01 X123.56 Y105.18 M03 S255 F800
G01 X123.64 Y105 M03 S0 F2000
G01 Z3 F300
G01 X123.61 Y105.05 M03 S255 F800
G01 X123.64 Y104.93 M03 S0 F2000
G01 Z3 F300
G01 X123.64 Y105 M03 S255 F800
G01 X123.64 Y104.73 M03 S0 F2000
G01 Z3 F300
G01 X123.64 Y104.93 M03 S255 F800
G01 X123.64 Y104.4 M03 S0 F2000
G01 Z3 F300
G01 X123.64 Y104.73 M03 S255 F800
G01 X123.64 Y103.98 M03 S0 F2000
G01 Z3 F300
G01 X123.64 Y104.4 M03 S255 F800
G01 X123.64 Y103.45 M03 S0 F2000
G01 Z3 F300
G01 X123.64 Y103.98 M03 S255 F800
G01 X123.63 Y102.86 M03 S0 F2000
G01 Z3 F300
G01 X123.64 Y103.45 M03 S255 F800
G01 X123.56 Y101.49 M03 S0 F2000
G01 Z3 F300
G01 X123.63 Y102.86 M03 S255 F800
G01 X123.46 Y99.98 M03 S0 F2000
G01 Z3 F300
G01 X123.56 Y101.49 M03 S255 F800
G01 X123.29 Y98.44 M03 S0 F2000
G01 Z3 F300
G01 X123.46 Y99.98 M03 S255 F800
G01 X123.04 Y96.98 M03 S0 F2000
G01 Z3 F300
G01 X123.29 Y98.44 M03 S255 F800
G01 X122.86 Y96.3 M03 S0 F2000
G01 Z3 F300
G01 X123.04 Y96.98 M03 S255 F800
G01 X122.68 Y95.7 M03 S0 F2000
G01 Z3 F300
G01 X122.86 Y96.3 M03 S255 F800
G01 X122.43 Y95.09 M03 S0 F2000
G01 Z3 F300
G01 X122.68 Y95.7 M03 S255 F800
G01 X122.1 Y94.41 M03 S0 F2000
G01 Z3 F300
G01 X122.43 Y95.09 M03 S255 F800
G01 X121.3 Y92.96 M03 S0 F2000
G01 Z3 F300
G01 X122.1 Y94.41 M03 S255 F800
G01 X120.36 Y91.45 M03 S0 F2000
G01 Z3 F300
G01 X121.3 Y92.96 M03 S255 F800
G01 X119.38 Y89.98 M03 S0 F2000
G01 Z3 F300
G01 X120.36 Y91.45 M03 S255 F800
G01 X118.45 Y88.65 M03 S0 F2000
G01 Z3 F300
G01 X119.38 Y89.98 M03 S255 F800
G01 X118.04 Y88.08 M03 S0 F2000
G01 Z3 F300
G01 X118.45 Y88.65 M03 S255 F800
G01 X117.68 Y87.58 M03 S0 F2000
G01 Z3 F300
G01 X118.04 Y88.08 M03 S255 F800
G01 X117.38 Y87.16 M03 S0 F2000
G01 Z3 F300
G01 X117.68 Y87.58 M03 S255 F800
G01 X117.14 Y86.85 M03 S0 F2000
G01 Z3 F300
G01 X117.38 Y87.16 M03 S255 F800
G01 X116.99 Y86.65 M03 S0 F2000
G01 Z3 F300
G01 X117.14 Y86.85 M03 S255 F800
G01 X116.94 Y86.59 M03 S0 F2000
G01 Z3 F300
G01 X116.99 Y86.65 M03 S255 F800
G01 Z3 F300
G01 X124.5 Y94.86 M03 S255 F800
G01 Z3 F300
G01 X127.3 Y94.61 M03 S255 F800
G01 X127.41 Y94.56 M03 S0 F2000
G01 Z3 F300
G01 X127.3 Y94.61 M03 S255 F800
G01 X127.51 Y94.45 M03 S0 F2000
G01 Z3 F300
G01 X127.41 Y94.56 M03 S255 F800
G01 X127.66 Y94.04 M03 S0 F2000
G01 Z3 F300
G01 X127.51 Y94.45 M03 S255 F800
G01 X127.78 Y93.48 M03 S0 F2000
G01 Z3 F300
G01 X127.66 Y94.04 M03 S255 F800
G01 X127.84 Y92.84 M03 S0 F2000
G01 Z3 F300
G01 X127.78 Y93.48 M03 S255 F800
G01 X127.88 Y92.2 M03 S0 F2000
G01 Z3 F300
G01 X127.84 Y92.84 M03 S255 F800
G01 X127.89 Y91.64 M03 S0 F2000
G01 Z3 F300
G01 X127.88 Y92.2 M03 S255 F800
G01 X127.89 Y91.25 M03 S0 F2000
G01 Z3 F300
G01 X127.89 Y91.64 M03 S255 F800
G01 X127.89 Y91.14 M03 S0 F2000
G01 Z3 F300
G01 X127.89 Y91.25 M03 S255 F800
G01 X127.89 Y91.1 M03 S0 F2000
G01 Z3 F300
G01 X127.89 Y91.14 M03 S255 F800
G01 X127.85 Y90.96 M03 S0 F2000
G01 Z3 F300
G01 X127.89 Y91.1 M03 S255 F800
G01 X127.76 Y90.56 M03 S0 F2000
G01 Z3 F300
G01 X127.85 Y90.96 M03 S255 F800
G01 X127.61 Y89.93 M03 S0 F2000
G01 Z3 F300
G01 X127.76 Y90.56 M03 S255 F800
G01 X127.41 Y89.1 M03 S0 F2000
G01 Z3 F300
G01 X127.61 Y89.93 M03 S255 F800
G01 X127.16 Y88.09 M03 S0 F2000
G01 Z3 F300
G01 X127.41 Y89.1 M03 S255 F800
G01 X126.88 Y86.94 M03 S0 F2000
G01 Z3 F300
G01 X127.16 Y88.09 M03 S255 F800
G01 X126.55 Y85.66 M03 S0 F2000
G01 Z3 F300
G01 X126.88 Y86.94 M03 S255 F800
G01 X126.2 Y84.3 M03 S0 F2000
G01 Z3 F300
G01 X126.55 Y85.66 M03 S255 F800
G01 X125.43 Y81.43 M03 S0 F2000
G01 Z3 F300
G01 X126.2 Y84.3 M03 S255 F800
G01 X124.6 Y78.52 M03 S0 F2000
G01 Z3 F300
G01 X125.43 Y81.43 M03 S255 F800
G01 X124.18 Y77.14 M03 S0 F2000
G01 Z3 F300
G01 X124.6 Y78.52 M03 S255 F800
G01 X123.76 Y75.84 M03 S0 F2000
G01 Z3 F300
G01 X124.18 Y77.14 M03 S255 F800
G01 X123.35 Y74.64 M03 S0 F2000
G01 Z3 F300
G01 X123.76 Y75.84 M03 S255 F800
G01 X122.95 Y73.59 M03 S0 F2000
G01 Z3 F300
G01 X123.35 Y74.64 M03 S255 F800
G01 X122.55 Y72.64 M03 S0 F2000
G01 Z3 F300
G01 X122.95 Y73.59 M03 S255 F800
G01 X122.08 Y71.63 M03 S0 F2000
G01 Z3 F300
G01 X122.55 Y72.64 M03 S255 F800
G01 X121 Y69.51 M03 S0 F2000
G01 Z3 F300
G01 X122.08 Y71.63 M03 S255 F800
G01 X119.8 Y67.36 M03 S0 F2000
G01 Z3 F300
G01 X121 Y69.51 M03 S255 F800
G01 X118.61 Y65.33 M03 S0 F2000
G01 Z3 F300
G01 X119.8 Y67.36 M03 S255 F800
G01 X118.04 Y64.38 M03 S0 F2000
G01 Z3 F300
G01 X118.61 Y65.33 M03 S255 F800
G01 X117.5 Y63.51 M03 S0 F2000
G01 Z3 F300
G01 X118.04 Y64.38 M03 S255 F800
G01 X117.01 Y62.73 M03 S0 F2000
G01 Z3 F300
G01 X117.5 Y63.51 M03 S255 F800
G01 X116.59 Y62.05 M03 S0 F2000
G01 Z3 F300
G01 X117.01 Y62.73 M03 S255 F800
G01 X116.24 Y61.5 M03 S0 F2000
G01 Z3 F300
G01 X116.59 Y62.05 M03 S255 F800
G01 X115.96 Y61.09 M03 S0 F2000
G01 Z3 F300
G01 X116.24 Y61.5 M03 S255 F800
G01 X115.8 Y60.83 M03 S0 F2000
G01 Z3 F300
G01 X115.96 Y61.09 M03 S255 F800
G01 X115.74 Y60.74 M03 S0 F2000
G01 Z3 F300
G01 X115.8 Y60.83 M03 S255 F800
G01 X115.6 Y60.64 M03 S0 F2000
G01 Z3 F300
G01 X115.74 Y60.74 M03 S255 F800
G01 X115.23 Y60.34 M03 S0 F2000
G01 Z3 F300
G01 X115.6 Y60.64 M03 S255 F800
G01 X114.69 Y59.91 M03 S0 F2000
G01 Z3 F300
G01 X115.23 Y60.34 M03 S255 F800
G01 X114.05 Y59.38 M03 S0 F2000
G01 Z3 F300
G01 X114.69 Y59.91 M03 S255 F800
G01 X113.36 Y58.78 M03 S0 F2000
G01 Z3 F300
G01 X114.05 Y59.38 M03 S255 F800
G01 X112.71 Y58.18 M03 S0 F2000
G01 Z3 F300
G01 X113.36 Y58.78 M03 S255 F800
G01 X112.16 Y57.59 M03 S0 F2000
G01 Z3 F300
G01 X112.71 Y58.18 M03 S255 F800
G01 X111.76 Y57.06 M03 S0 F2000
G01 Z3 F300
G01 X112.16 Y57.59 M03 S255 F800
G01 X111.13 Y55.93 M03 S0 F2000
G01 Z3 F300
G01 X111.76 Y57.06 M03 S255 F800
G01 X110.5 Y54.63 M03 S0 F2000
G01 Z3 F300
G01 X111.13 Y55.93 M03 S255 F800
G01 X109.91 Y53.25 M03 S0 F2000
G01 Z3 F300
G01 X110.5 Y54.63 M03 S255 F800
G01 X109.39 Y51.91 M03 S0 F2000
G01 Z3 F300
G01 X109.91 Y53.25 M03 S255 F800
G01 X108.94 Y50.7 M03 S0 F2000
G01 Z3 F300
G01 X109.39 Y51.91 M03 S255 F800
G01 X108.75 Y50.16 M03 S0 F2000
G01 Z3 F300
G01 X108.94 Y50.7 M03 S255 F800
G01 X108.59 Y49.71 M03 S0 F2000
G01 Z3 F300
G01 X108.75 Y50.16 M03 S255 F800
G01 X108.46 Y49.33 M03 S0 F2000
G01 Z3 F300
G01 X108.59 Y49.71 M03 S255 F800
G01 X108.36 Y49.04 M03 S0 F2000
G01 Z3 F300
G01 X108.46 Y49.33 M03 S255 F800
G01 X108.31 Y48.86 M03 S0 F2000
G01 Z3 F300
G01 X108.36 Y49.04 M03 S255 F800
G01 X108.29 Y48.8 M03 S0 F2000
G01 Z3 F300
G01 X108.31 Y48.86 M03 S255 F800
G01 X108.25 Y48.73 M03 S0 F2000
G01 Z3 F300
G01 X108.29 Y48.8 M03 S255 F800
G01 X108.14 Y48.5 M03 S0 F2000
G01 Z3 F300
G01 X108.25 Y48.73 M03 S255 F800
G01 X107.96 Y48.15 M03 S0 F2000
G01 Z3 F300
G01 X108.14 Y48.5 M03 S255 F800
G01 X107.73 Y47.68 M03 S0 F2000
G01 Z3 F300
G01 X107.96 Y48.15 M03 S255 F800
G01 X107.45 Y47.11 M03 S0 F2000
G01 Z3 F300
G01 X107.73 Y47.68 M03 S255 F800
G01 X107.14 Y46.48 M03 S0 F2000
G01 Z3 F300
G01 X107.45 Y47.11 M03 S255 F800
G01 X106.44 Y45 M03 S0 F2000
G01 Z3 F300
G01 X107.14 Y46.48 M03 S255 F800
G01 X105.7 Y43.4 M03 S0 F2000
G01 Z3 F300
G01 X106.44 Y45 M03 S255 F800
G01 X105.01 Y41.79 M03 S0 F2000
G01 Z3 F300
G01 X105.7 Y43.4 M03 S255 F800
G01 X104.43 Y40.3 M03 S0 F2000
G01 Z3 F300
G01 X105.01 Y41.79 M03 S255 F800
G01 X104.2 Y39.64 M03 S0 F2000
G01 Z3 F300
G01 X104.43 Y40.3 M03 S255 F800
G01 X104.03 Y39.05 M03 S0 F2000
G01 Z3 F300
G01 X104.2 Y39.64 M03 S255 F800
G01 X103.71 Y37.76 M03 S0 F2000
G01 Z3 F300
G01 X104.03 Y39.05 M03 S255 F800
G01 X103.4 Y36.38 M03 S0 F2000
G01 Z3 F300
G01 X103.71 Y37.76 M03 S255 F800
G01 X103.11 Y34.9 M03 S0 F2000
G01 Z3 F300
G01 X103.4 Y36.38 M03 S255 F800
G01 X102.83 Y33.39 M03 S0 F2000
G01 Z3 F300
G01 X103.11 Y34.9 M03 S255 F800
G01 X102.3 Y30.3 M03 S0 F2000
G01 Z3 F300
G01 X102.83 Y33.39 M03 S255 F800
G01 X102.06 Y28.78 M03 S0 F2000
G01 Z3 F300
G01 X102.3 Y30.3 M03 S255 F800
G01 X101.84 Y27.31 M03 S0 F2000
G01 Z3 F300
G01 X102.06 Y28.78 M03 S255 F800
G01 X101.65 Y25.93 M03 S0 F2000
G01 Z3 F300
G01 X101.84 Y27.31 M03 S255 F800
G01 X101.46 Y24.64 M03 S0 F2000
G01 Z3 F300
G01 X101.65 Y25.93 M03 S255 F800
G01 X101.31 Y23.48 M03 S0 F2000
G01 Z3 F300
G01 X101.46 Y24.64 M03 S255 F800
G01 X101.18 Y22.48 M03 S0 F2000
G01 Z3 F300
G01 X101.31 Y23.48 M03 S255 F800
G01 X101.08 Y21.65 M03 S0 F2000
G01 Z3 F300
G01 X101.18 Y22.48 M03 S255 F800
G01 X101 Y21.03 M03 S0 F2000
G01 Z3 F300
G01 X101.08 Y21.65 M03 S255 F800
G01 X100.95 Y20.64 M03 S0 F2000
G01 Z3 F300
G01 X101 Y21.03 M03 S255 F800
G01 X100.94 Y20.5 M03 S0 F2000
G01 Z3 F300
G01 X100.95 Y20.64 M03 S255 F800
G01 X100.91 Y20.45 M03 S0 F2000
G01 Z3 F300
G01 X100.94 Y20.5 M03 S255 F800
G01 X100.86 Y20.3 M03 S0 F2000
G01 Z3 F300
G01 X100.91 Y20.45 M03 S255 F800
G01 X100.78 Y20.08 M03 S0 F2000
G01 Z3 F300
G01 X100.86 Y20.3 M03 S255 F800
G01 X100.66 Y19.78 M03 S0 F2000
G01 Z3 F300
G01 X100.78 Y20.08 M03 S255 F800
G01 X100.36 Y18.99 M03 S0 F2000
G01 Z3 F300
G01 X100.66 Y19.78 M03 S255 F800
G01 X99.99 Y18.05 M03 S0 F2000
G01 Z3 F300
G01 X100.36 Y18.99 M03 S255 F800
G01 X99.56 Y17.03 M03 S0 F2000
G01 Z3 F300
G01 X99.99 Y18.05 M03 S255 F800
G01 X99.14 Y16.01 M03 S0 F2000
G01 Z3 F300
G01 X99.56 Y17.03 M03 S255 F800
G01 X98.71 Y15.09 M03 S0 F2000
G01 Z3 F300
G01 X99.14 Y16.01 M03 S255 F800
G01 X98.34 Y14.34 M03 S0 F2000
G01 Z3 F300
G01 X98.71 Y15.09 M03 S255 F800
G01 X97.76 Y13.35 M03 S0 F2000
G01 Z3 F300
G01 X98.34 Y14.34 M03 S255 F800
G01 X97.1 Y12.3 M03 S0 F2000
G01 Z3 F300
G01 X97.76 Y13.35 M03 S255 F800
G01 X96.4 Y11.24 M03 S0 F2000
G01 Z3 F300
G01 X97.1 Y12.3 M03 S255 F800
G01 X95.71 Y10.24 M03 S0 F2000
G01 Z3 F300
G01 X96.4 Y11.24 M03 S255 F800
G01 X95.09 Y9.36 M03 S0 F2000
G01 Z3 F300
G01 X95.71 Y10.24 M03 S255 F800
G01 X94.58 Y8.65 M03 S0 F2000
G01 Z3 F300
G01 X95.09 Y9.36 M03 S255 F800
G01 X94.23 Y8.19 M03 S0 F2000
G01 Z3 F300
G01 X94.58 Y8.65 M03 S255 F800
G01 X94.14 Y8.05 M03 S0 F2000
G01 Z3 F300
G01 X94.23 Y8.19 M03 S255 F800
G01 X94.1 Y8.01 M03 S0 F2000
G01 Z3 F300
G01 X94.14 Y8.05 M03 S255 F800
G01 Z3 F300
G01 X94.09 Y8.01 M03 S255 F800
G01 X149.56 Y109.74 M03 S0 F2000
G01 Z3 F300
G01 X157.59 Y107.7 M03 S255 F800
G01 Z3 F300
G01 X157.59 Y107.7 M03 S255 F800
G01 X157.73 Y107.48 M03 S0 F2000
G01 Z3 F300
G01 X157.63 Y107.64 M03 S255 F800
G01 X157.89 Y107.21 M03 S0 F2000
G01 Z3 F300
G01 X157.73 Y107.48 M03 S255 F800
G01 X158.1 Y106.88 M03 S0 F2000
G01 Z3 F300
G01 X157.89 Y107.21 M03 S255 F800
G01 X158.64 Y105.98 M03 S0 F2000
G01 Z3 F300
G01 X158.1 Y106.88 M03 S255 F800
G01 X159.28 Y104.89 M03 S0 F2000
G01 Z3 F300
G01 X158.64 Y105.98 M03 S255 F800
G01 X159.94 Y103.69 M03 S0 F2000
G01 Z3 F300
G01 X159.28 Y104.89 M03 S255 F800
G01 X160.56 Y102.49 M03 S0 F2000
G01 Z3 F300
G01 X159.94 Y103.69 M03 S255 F800
G01 X161.08 Y101.35 M03 S0 F2000
G01 Z3 F300
G01 X160.56 Y102.49 M03 S255 F800
G01 X161.41 Y100.4 M03 S0 F2000
G01 Z3 F300
G01 X161.08 Y101.35 M03 S255 F800
G01 X161.65 Y99.18 M03 S0 F2000
G01 Z3 F300
G01 X161.41 Y100.4 M03 S255 F800
G01 X161.75 Y97.84 M03 S0 F2000
G01 Z3 F300
G01 X161.65 Y99.18 M03 S255 F800
G01 X161.75 Y96.46 M03 S0 F2000
G01 Z3 F300
G01 X161.75 Y97.84 M03 S255 F800
G01 X161.68 Y95.15 M03 S0 F2000
G01 Z3 F300
G01 X161.75 Y96.46 M03 S255 F800
G01 X161.56 Y93.98 M03 S0 F2000
G01 Z3 F300
G01 X161.68 Y95.15 M03 S255 F800
G01 X161.5 Y93.48 M03 S0 F2000
G01 Z3 F300
G01 X161.56 Y93.98 M03 S255 F800
G01 X161.44 Y93.04 M03 S0 F2000
G01 Z3 F300
G01 X161.5 Y93.48 M03 S255 F800
G01 X161.39 Y92.68 M03 S0 F2000
G01 Z3 F300
G01 X161.44 Y93.04 M03 S255 F800
G01 X161.34 Y92.4 M03 S0 F2000
G01 Z3 F300
G01 X161.39 Y92.68 M03 S255 F800
G01 X161.31 Y92.24 M03 S0 F2000
G01 Z3 F300
G01 X161.34 Y92.4 M03 S255 F800
G01 X161.3 Y92.18 M03 S0 F2000
G01 Z3 F300
G01 X161.31 Y92.24 M03 S255 F800
G01 X161.25 Y92.04 M03 S0 F2000
G01 Z3 F300
G01 X161.3 Y92.18 M03 S255 F800
G01 X161.1 Y91.63 M03 S0 F2000
G01 Z3 F300
G01 X161.25 Y92.04 M03 S255 F800
G01 X160.86 Y90.98 M03 S0 F2000
G01 Z3 F300
G01 X161.1 Y91.63 M03 S255 F800
G01 X160.55 Y90.11 M03 S0 F2000
G01 Z3 F300
G01 X160.86 Y90.98 M03 S255 F800
G01 X160.18 Y89.06 M03 S0 F2000
G01 Z3 F300
G01 X160.55 Y90.11 M03 S255 F800
G01 X159.75 Y87.86 M03 S0 F2000
G01 Z3 F300
G01 X160.18 Y89.06 M03 S255 F800
G01 X159.28 Y86.54 M03 S0 F2000
G01 Z3 F300
G01 X159.75 Y87.86 M03 S255 F800
G01 X158.79 Y85.13 M03 S0 F2000
G01 Z3 F300
G01 X159.28 Y86.54 M03 S255 F800
G01 X157.76 Y82.09 M03 S0 F2000
G01 Z3 F300
G01 X158.79 Y85.13 M03 S255 F800
G01 X156.76 Y79.01 M03 S0 F2000
G01 Z3 F300
G01 X157.76 Y82.09 M03 S255 F800
G01 X156.3 Y77.51 M03 S0 F2000
G01 Z3 F300
G01 X156.76 Y79.01 M03 S255 F800
G01 X155.88 Y76.09 M03 S0 F2000
G01 Z3 F300
G01 X156.3 Y77.51 M03 S255 F800
G01 X155.51 Y74.77 M03 S0 F2000
G01 Z3 F300
G01 X155.88 Y76.09 M03 S255 F800
G01 X155.21 Y73.58 M03 S0 F2000
G01 Z3 F300
G01 X155.51 Y74.77 M03 S255 F800
G01 X154.86 Y72.39 M03 S0 F2000
G01 Z3 F300
G01 X155.21 Y73.58 M03 S255 F800
G01 X154.43 Y71.18 M03 S0 F2000
G01 Z3 F300
G01 X154.86 Y72.39 M03 S255 F800
G01 X153.4 Y68.71 M03 S0 F2000
G01 Z3 F300
G01 X154.43 Y71.18 M03 S255 F800
G01 X152.91 Y67.46 M03 S0 F2000
G01 Z3 F300
G01 X153.4 Y68.71 M03 S255 F800
G01 X152.49 Y66.19 M03 S0 F2000
G01 Z3 F300
G01 X152.91 Y67.46 M03 S255 F800
G01 X152.19 Y64.9 M03 S0 F2000
G01 Z3 F300
G01 X152.49 Y66.19 M03 S255 F800
G01 X152.05 Y63.6 M03 S0 F2000
G01 Z3 F300
G01 X152.19 Y64.9 M03 S255 F800
G01 X152.08 Y62.31 M03 S0 F2000
G01 Z3 F300
G01 X152.05 Y63.6 M03 S255 F800
G01 X152.23 Y60.93 M03 S0 F2000
G01 Z3 F300
G01 X152.08 Y62.31 M03 S255 F800
G01 X152.45 Y59.53 M03 S0 F2000
G01 Z3 F300
G01 X152.23 Y60.93 M03 S255 F800
G01 X152.73 Y58.21 M03 S0 F2000
G01 Z3 F300
G01 X152.45 Y59.53 M03 S255 F800
G01 X153 Y57.04 M03 S0 F2000
G01 Z3 F300
G01 X152.73 Y58.21 M03 S255 F800
G01 X153.13 Y56.54 M03 S0 F2000
G01 Z3 F300
G01 X153 Y57.04 M03 S255 F800
G01 X153.25 Y56.1 M03 S0 F2000
G01 Z3 F300
G01 X153.13 Y56.54 M03 S255 F800
G01 X153.35 Y55.74 M03 S0 F2000
G01 Z3 F300
G01 X153.25 Y56.1 M03 S255 F800
G01 X153.43 Y55.48 M03 S0 F2000
G01 Z3 F300
G01 X153.35 Y55.74 M03 S255 F800
G01 X153.48 Y55.31 M03 S0 F2000
G01 Z3 F300
G01 X153.43 Y55.48 M03 S255 F800
G01 X153.49 Y55.25 M03 S0 F2000
G01 Z3 F300
G01 X153.48 Y55.31 M03 S255 F800
G01 X153.51 Y55.21 M03 S0 F2000
G01 Z3 F300
G01 X153.49 Y55.25 M03 S255 F800
G01 X153.6 Y55.09 M03 S0 F2000
G01 Z3 F300
G01 X153.51 Y55.21 M03 S255 F800
G01 X153.9 Y54.63 M03 S0 F2000
G01 Z3 F300
G01 X153.6 Y55.09 M03 S255 F800
G01 X154.33 Y53.94 M03 S0 F2000
G01 Z3 F300
G01 X153.9 Y54.63 M03 S255 F800
G01 X154.81 Y53.09 M03 S0 F2000
G01 Z3 F300
G01 X154.33 Y53.94 M03 S255 F800
G01 X155.3 Y52.14 M03 S0 F2000
G01 Z3 F300
G01 X154.81 Y53.09 M03 S255 F800
G01 X155.73 Y51.15 M03 S0 F2000
G01 Z3 F300
G01 X155.3 Y52.14 M03 S255 F800
G01 X156.03 Y50.2 M03 S0 F2000
G01 Z3 F300
G01 X155.73 Y51.15 M03 S255 F800
G01 X156.13 Y49.34 M03 S0 F2000
G01 Z3 F300
G01 X156.03 Y50.2 M03 S255 F800
G01 X156.1 Y48.58 M03 S0 F2000
G01 Z3 F300
G01 X156.13 Y49.34 M03 S255 F800
G01 X156.03 Y47.71 M03 S0 F2000
G01 Z3 F300
G01 X156.1 Y48.58 M03 S255 F800
G01 X155.93 Y46.78 M03 S0 F2000
G01 Z3 F300
G01 X156.03 Y47.71 M03 S255 F800
G01 X155.8 Y45.76 M03 S0 F2000
G01 Z3 F300
G01 X155.93 Y46.78 M03 S255 F800
G01 X155.48 Y43.65 M03 S0 F2000
G01 Z3 F300
G01 X155.8 Y45.76 M03 S255 F800
G01 X155.11 Y41.55 M03 S0 F2000
G01 Z3 F300
G01 X155.48 Y43.65 M03 S255 F800
G01 X154.93 Y40.55 M03 S0 F2000
G01 Z3 F300
G01 X155.11 Y41.55 M03 S255 F800
G01 X154.75 Y39.63 M03 S0 F2000
G01 Z3 F300
G01 X154.93 Y40.55 M03 S255 F800
G01 X154.59 Y38.78 M03 S0 F2000
G01 Z3 F300
G01 X154.75 Y39.63 M03 S255 F800
G01 X154.44 Y38.04 M03 S0 F2000
G01 Z3 F300
G01 X154.59 Y38.78 M03 S255 F800
G01 X154.31 Y37.43 M03 S0 F2000
G01 Z3 F300
G01 X154.44 Y38.04 M03 S255 F800
G01 X154.21 Y36.96 M03 S0 F2000
G01 Z3 F300
G01 X154.31 Y37.43 M03 S255 F800
G01 X154.15 Y36.66 M03 S0 F2000
G01 Z3 F300
G01 X154.21 Y36.96 M03 S255 F800
G01 X154.13 Y36.56 M03 S0 F2000
G01 Z3 F300
G01 X154.15 Y36.66 M03 S255 F800
G01 X154.1 Y36.49 M03 S0 F2000
G01 Z3 F300
G01 X154.13 Y36.56 M03 S255 F800
G01 X154.04 Y36.25 M03 S0 F2000
G01 Z3 F300
G01 X154.1 Y36.49 M03 S255 F800
G01 X153.95 Y35.89 M03 S0 F2000
G01 Z3 F300
G01 X154.04 Y36.25 M03 S255 F800
G01 X153.84 Y35.41 M03 S0 F2000
G01 Z3 F300
G01 X153.95 Y35.89 M03 S255 F800
G01 X153.7 Y34.83 M03 S0 F2000
G01 Z3 F300
G01 X153.84 Y35.41 M03 S255 F800
G01 X153.55 Y34.15 M03 S0 F2000
G01 Z3 F300
G01 X153.7 Y34.83 M03 S255 F800
G01 X153.25 Y32.6 M03 S0 F2000
G01 Z3 F300
G01 X153.55 Y34.15 M03 S255 F800
G01 X152.98 Y30.88 M03 S0 F2000
G01 Z3 F300
G01 X153.25 Y32.6 M03 S255 F800
G01 X152.79 Y29.1 M03 S0 F2000
G01 Z3 F300
G01 X152.98 Y30.88 M03 S255 F800
G01 X152.74 Y27.39 M03 S0 F2000
G01 Z3 F300
G01 X152.79 Y29.1 M03 S255 F800
G01 X152.78 Y26.6 M03 S0 F2000
G01 Z3 F300
G01 X152.74 Y27.39 M03 S255 F800
G01 X152.88 Y25.86 M03 S0 F2000
G01 Z3 F300
G01 X152.78 Y26.6 M03 S255 F800
G01 X153.2 Y24.66 M03 S0 F2000
G01 Z3 F300
G01 X152.88 Y25.86 M03 S255 F800
G01 X153.75 Y23.29 M03 S0 F2000
G01 Z3 F300
G01 X153.2 Y24.66 M03 S255 F800
G01 X154.44 Y21.85 M03 S0 F2000
G01 Z3 F300
G01 X153.75 Y23.29 M03 S255 F800
G01 X155.18 Y20.44 M03 S0 F2000
G01 Z3 F300
G01 X154.44 Y21.85 M03 S255 F800
G01 X155.89 Y19.15 M03 S0 F2000
G01 Z3 F300
G01 X155.18 Y20.44 M03 S255 F800
G01 X156.21 Y18.6 M03 S0 F2000
G01 Z3 F300
G01 X155.89 Y19.15 M03 S255 F800
G01 X156.5 Y18.11 M03 S0 F2000
G01 Z3 F300
G01 X156.21 Y18.6 M03 S255 F800
G01 X156.74 Y17.71 M03 S0 F2000
G01 Z3 F300
G01 X156.5 Y18.11 M03 S255 F800
G01 X156.93 Y17.41 M03 S0 F2000
G01 Z3 F300
G01 X156.74 Y17.71 M03 S255 F800
G01 X157.05 Y17.21 M03 S0 F2000
G01 Z3 F300
G01 X156.93 Y17.41 M03 S255 F800
G01 X157.09 Y17.15 M03 S0 F2000
G01 Z3 F300
G01 X157.05 Y17.21 M03 S255 F800
G01 X157.04 Y17.09 M03 S0 F2000
G01 Z3 F300
G01 X157.09 Y17.15 M03 S255 F800
G01 X156.89 Y16.93 M03 S0 F2000
G01 Z3 F300
G01 X157.04 Y17.09 M03 S255 F800
G01 X156.65 Y16.68 M03 S0 F2000
G01 Z3 F300
G01 X156.89 Y16.93 M03 S255 F800
G01 X156.34 Y16.34 M03 S0 F2000
G01 Z3 F300
G01 X156.65 Y16.68 M03 S255 F800
G01 X155.51 Y15.5 M03 S0 F2000
G01 Z3 F300
G01 X156.34 Y16.34 M03 S255 F800
G01 X154.53 Y14.51 M03 S0 F2000
G01 Z3 F300
G01 X155.51 Y15.5 M03 S255 F800
G01 X153.44 Y13.49 M03 S0 F2000
G01 Z3 F300
G01 X154.53 Y14.51 M03 S255 F800
G01 X152.33 Y12.55 M03 S0 F2000
G01 Z3 F300
G01 X153.44 Y13.49 M03 S255 F800
G01 X151.8 Y12.14 M03 S0 F2000
G01 Z3 F300
G01 X152.33 Y12.55 M03 S255 F800
G01 X151.3 Y11.8 M03 S0 F2000
G01 Z3 F300
G01 X151.8 Y12.14 M03 S255 F800
G01 X150.85 Y11.53 M03 S0 F2000
G01 Z3 F300
G01 X151.3 Y11.8 M03 S255 F800
G01 X150.44 Y11.35 M03 S0 F2000
G01 Z3 F300
G01 X150.85 Y11.53 M03 S255 F800
G01 X150.14 Y11.29 M03 S0 F2000
G01 Z3 F300
G01 X150.44 Y11.35 M03 S255 F800
G01 X149.83 Y11.3 M03 S0 F2000
G01 Z3 F300
G01 X150.14 Y11.29 M03 S255 F800
G01 X149.18 Y11.48 M03 S0 F2000
G01 Z3 F300
G01 X149.83 Y11.3 M03 S255 F800
G01 X148.5 Y11.83 M03 S0 F2000
G01 Z3 F300
G01 X149.18 Y11.48 M03 S255 F800
G01 X147.88 Y12.26 M03 S0 F2000
G01 Z3 F300
G01 X148.5 Y11.83 M03 S255 F800
G01 X147.31 Y12.73 M03 S0 F2000
G01 Z3 F300
G01 X147.88 Y12.26 M03 S255 F800
G01 X146.86 Y13.15 M03 S0 F2000
G01 Z3 F300
G01 X147.31 Y12.73 M03 S255 F800
G01 X146.56 Y13.45 M03 S0 F2000
G01 Z3 F300
G01 X146.86 Y13.15 M03 S255 F800
G01 X146.45 Y13.56 M03 S0 F2000
G01 Z3 F300
G01 X146.56 Y13.45 M03 S255 F800
G01 X146.44 Y13.55 M03 S0 F2000
G01 Z3 F300
G01 X145.77 Y23.23 M03 S255 F800
G01 Z3 F300
G01 X142.02 Y2.34 M03 S255 F800
G01 Z3 F300
G01 X142.03 Y2.35 M03 S255 F800
G01 X141.84 Y2.24 M03 S0 F2000
G01 Z3 F300
G01 X141.98 Y2.33 M03 S255 F800
G01 X141.64 Y2.1 M03 S0 F2000
G01 Z3 F300
G01 X141.84 Y2.24 M03 S255 F800
G01 X141.35 Y1.94 M03 S0 F2000
G01 Z3 F300
G01 X141.64 Y2.1 M03 S255 F800
G01 X140.64 Y1.51 M03 S0 F2000
G01 Z3 F300
G01 X141.35 Y1.94 M03 S255 F800
G01 X139.76 Y1.05 M03 S0 F2000
G01 Z3 F300
G01 X140.64 Y1.51 M03 S255 F800
G01 X138.83 Y0.61 M03 S0 F2000
G01 Z3 F300
G01 X139.76 Y1.05 M03 S255 F800
G01 X137.9 Y0.25 M03 S0 F2000
G01 Z3 F300
G01 X138.83 Y0.61 M03 S255 F800
G01 X137.08 Y0.05 M03 S0 F2000
G01 Z3 F300
G01 X137.9 Y0.25 M03 S255 F800
G01 X136.41 Y0.08 M03 S0 F2000
G01 Z3 F300
G01 X137.08 Y0.05 M03 S255 F800
G01 X136.06 Y0.23 M03 S0 F2000
G01 Z3 F300
G01 X136.41 Y0.08 M03 S255 F800
G01 X135.71 Y0.46 M03 S0 F2000
G01 Z3 F300
G01 X136.06 Y0.23 M03 S255 F800
G01 X135 Y1.13 M03 S0 F2000
G01 Z3 F300
G01 X135.71 Y0.46 M03 S255 F800
G01 X134.3 Y1.98 M03 S0 F2000
G01 Z3 F300
G01 X135 Y1.13 M03 S255 F800
G01 X133.65 Y2.9 M03 S0 F2000
G01 Z3 F300
G01 X134.3 Y1.98 M03 S255 F800
G01 X133.09 Y3.8 M03 S0 F2000
G01 Z3 F300
G01 X133.65 Y2.9 M03 S255 F800
G01 X132.65 Y4.58 M03 S0 F2000
G01 Z3 F300
G01 X133.09 Y3.8 M03 S255 F800
G01 X132.48 Y4.88 M03 S0 F2000
G01 Z3 F300
G01 X132.65 Y4.58 M03 S255 F800
G01 X132.35 Y5.11 M03 S0 F2000
G01 Z3 F300
G01 X132.48 Y4.88 M03 S255 F800
G01 X132.28 Y5.26 M03 S0 F2000
G01 Z3 F300
G01 X132.35 Y5.11 M03 S255 F800
G01 X132.25 Y5.31 M03 S0 F2000
G01 Z3 F300
G01 X132.28 Y5.26 M03 S255 F800
G01 Z3 F300
G01 X135.47 Y25.12 M03 S255 F800
G01 Z3 F300
G01 X130.27 Y4.03 M03 S255 F800
G01 Z3 F300
G01 X130.28 Y4.04 M03 S255 F800
G01 X130.11 Y3.94 M03 S0 F2000
G01 Z3 F300
G01 X130.24 Y4.01 M03 S255 F800
G01 X129.68 Y3.7 M03 S0 F2000
G01 Z3 F300
G01 X130.11 Y3.94 M03 S255 F800
G01 X129.03 Y3.36 M03 S0 F2000
G01 Z3 F300
G01 X129.68 Y3.7 M03 S255 F800
G01 X128.21 Y2.98 M03 S0 F2000
G01 Z3 F300
G01 X129.03 Y3.36 M03 S255 F800
G01 X127.31 Y2.63 M03 S0 F2000
G01 Z3 F300
G01 X128.21 Y2.98 M03 S255 F800
G01 X126.39 Y2.34 M03 S0 F2000
G01 Z3 F300
G01 X127.31 Y2.63 M03 S255 F800
G01 X125.5 Y2.19 M03 S0 F2000
G01 Z3 F300
G01 X126.39 Y2.34 M03 S255 F800
G01 X124.71 Y2.23 M03 S0 F2000
G01 Z3 F300
G01 X125.5 Y2.19 M03 S255 F800
G01 X124.38 Y2.33 M03 S0 F2000
G01 Z3 F300
G01 X124.71 Y2.23 M03 S255 F800
G01 X123.99 Y2.5 M03 S0 F2000
G01 Z3 F300
G01 X124.38 Y2.33 M03 S255 F800
G01 X123.16 Y3.01 M03 S0 F2000
G01 Z3 F300
G01 X123.99 Y2.5 M03 S255 F800
G01 X122.29 Y3.68 M03 S0 F2000
G01 Z3 F300
G01 X123.16 Y3.01 M03 S255 F800
G01 X121.43 Y4.4 M03 S0 F2000
G01 Z3 F300
G01 X122.29 Y3.68 M03 S255 F800
G01 X120.65 Y5.11 M03 S0 F2000
G01 Z3 F300
G01 X121.43 Y4.4 M03 S255 F800
G01 X120.01 Y5.73 M03 S0 F2000
G01 Z3 F300
G01 X120.65 Y5.11 M03 S255 F800
G01 X119.59 Y6.15 M03 S0 F2000
G01 Z3 F300
G01 X120.01 Y5.73 M03 S255 F800
G01 X119.46 Y6.28 M03 S0 F2000
G01 Z3 F300
G01 X119.59 Y6.15 M03 S255 F800
G01 X119.43 Y6.31 M03 S0 F2000
G01 Z3 F300
G01 X119.46 Y6.28 M03 S255 F800
G01 Z3 F300
G01 X126.71 Y28.26 M03 S255 F800
G01 Z3 F300
G01 X118.5 Y7.66 M03 S255 F800
G01 X118.39 Y7.7 M03 S0 F2000
G01 Z3 F300
G01 X118.51 Y7.66 M03 S255 F800
G01 X118.08 Y7.83 M03 S0 F2000
G01 Z3 F300
G01 X118.39 Y7.7 M03 S255 F800
G01 X117.59 Y8.03 M03 S0 F2000
G01 Z3 F300
G01 X118.08 Y7.83 M03 S255 F800
G01 X117.01 Y8.3 M03 S0 F2000
G01 Z3 F300
G01 X117.59 Y8.03 M03 S255 F800
G01 X115.74 Y9.03 M03 S0 F2000
G01 Z3 F300
G01 X117.01 Y8.3 M03 S255 F800
G01 X115.15 Y9.49 M03 S0 F2000
G01 Z3 F300
G01 X115.74 Y9.03 M03 S255 F800
G01 X114.66 Y9.99 M03 S0 F2000
G01 Z3 F300
G01 X115.15 Y9.49 M03 S255 F800
G01 X114.3 Y10.56 M03 S0 F2000
G01 Z3 F300
G01 X114.66 Y9.99 M03 S255 F800
G01 X113.91 Y11.34 M03 S0 F2000
G01 Z3 F300
G01 X114.3 Y10.56 M03 S255 F800
G01 X113.53 Y12.23 M03 S0 F2000
G01 Z3 F300
G01 X113.91 Y11.34 M03 S255 F800
G01 X113.16 Y13.15 M03 S0 F2000
G01 Z3 F300
G01 X113.53 Y12.23 M03 S255 F800
G01 X112.85 Y14.03 M03 S0 F2000
G01 Z3 F300
G01 X113.16 Y13.15 M03 S255 F800
G01 X112.59 Y14.75 M03 S0 F2000
G01 Z3 F300
G01 X112.85 Y14.03 M03 S255 F800
G01 X112.5 Y15.04 M03 S0 F2000
G01 Z3 F300
G01 X112.59 Y14.75 M03 S255 F800
G01 X112.43 Y15.25 M03 S0 F2000
G01 Z3 F300
G01 X112.5 Y15.04 M03 S255 F800
G01 X112.38 Y15.39 M03 S0 F2000
G01 Z3 F300
G01 X112.43 Y15.25 M03 S255 F800
G01 X112.36 Y15.44 M03 S0 F2000
G01 Z3 F300
G01 X112.38 Y15.39 M03 S255 F800
G01 X112.36 Y15.51 M03 S0 F2000
G01 Z3 F300
G01 X112.36 Y15.44 M03 S255 F800
G01 X112.38 Y15.71 M03 S0 F2000
G01 Z3 F300
G01 X112.36 Y15.51 M03 S255 F800
G01 X112.4 Y16.04 M03 S0 F2000
G01 Z3 F300
G01 X112.38 Y15.71 M03 S255 F800
G01 X112.44 Y16.46 M03 S0 F2000
G01 Z3 F300
G01 X112.4 Y16.04 M03 S255 F800
G01 X112.49 Y16.98 M03 S0 F2000
G01 Z3 F300
G01 X112.44 Y16.46 M03 S255 F800
G01 X112.55 Y17.58 M03 S0 F2000
G01 Z3 F300
G01 X112.49 Y16.98 M03 S255 F800
G01 X112.71 Y18.94 M03 S0 F2000
G01 Z3 F300
G01 X112.55 Y17.58 M03 S255 F800
G01 X112.94 Y20.44 M03 S0 F2000
G01 Z3 F300
G01 X112.71 Y18.94 M03 S255 F800
G01 X113.24 Y21.95 M03 S0 F2000
G01 Z3 F300
G01 X112.94 Y20.44 M03 S255 F800
G01 X113.6 Y23.39 M03 S0 F2000
G01 Z3 F300
G01 X113.24 Y21.95 M03 S255 F800
G01 X113.83 Y24.04 M03 S0 F2000
G01 Z3 F300
G01 X113.6 Y23.39 M03 S255 F800
G01 X114.06 Y24.63 M03 S0 F2000
G01 Z3 F300
G01 X113.83 Y24.04 M03 S255 F800
G01 X114.36 Y25.21 M03 S0 F2000
G01 Z3 F300
G01 X114.06 Y24.63 M03 S255 F800
G01 X114.74 Y25.86 M03 S0 F2000
G01 Z3 F300
G01 X114.36 Y25.21 M03 S255 F800
G01 X115.65 Y27.25 M03 S0 F2000
G01 Z3 F300
G01 X114.74 Y25.86 M03 S255 F800
G01 X116.71 Y28.69 M03 S0 F2000
G01 Z3 F300
G01 X115.65 Y27.25 M03 S255 F800
G01 X117.8 Y30.08 M03 S0 F2000
G01 Z3 F300
G01 X116.71 Y28.69 M03 S255 F800
G01 X118.84 Y31.33 M03 S0 F2000
G01 Z3 F300
G01 X117.8 Y30.08 M03 S255 F800
G01 X119.29 Y31.86 M03 S0 F2000
G01 Z3 F300
G01 X118.84 Y31.33 M03 S255 F800
G01 X119.7 Y32.34 M03 S0 F2000
G01 Z3 F300
G01 X119.29 Y31.86 M03 S255 F800
G01 X120.04 Y32.73 M03 S0 F2000
G01 Z3 F300
G01 X119.7 Y32.34 M03 S255 F800
G01 X120.29 Y33.01 M03 S0 F2000
G01 Z3 F300
G01 X120.04 Y32.73 M03 S255 F800
G01 X120.45 Y33.2 M03 S0 F2000
G01 Z3 F300
G01 X120.29 Y33.01 M03 S255 F800
G01 X120.51 Y33.26 M03 S0 F2000
G01 Z3 F300
G01 X120.45 Y33.2 M03 S255 F800
G01 Z3 F300
G01 X112.3 Y25.6 M03 S255 F800
G01 Z3 F300
G01 X109.53 Y26.08 M03 S255 F800
G01 Z3 F300
G01 X109.54 Y26.09 M03 S255 F800
G01 X109.34 Y26.28 M03 S0 F2000
G01 Z3 F300
G01 X109.43 Y26.15 M03 S255 F800
G01 X109.23 Y26.69 M03 S0 F2000
G01 Z3 F300
G01 X109.34 Y26.28 M03 S255 F800
G01 X109.16 Y27.25 M03 S0 F2000
G01 Z3 F300
G01 X109.23 Y26.69 M03 S255 F800
G01 X109.15 Y27.9 M03 S0 F2000
G01 Z3 F300
G01 X109.16 Y27.25 M03 S255 F800
G01 X109.16 Y28.54 M03 S0 F2000
G01 Z3 F300
G01 X109.15 Y27.9 M03 S255 F800
G01 X109.2 Y29.1 M03 S0 F2000
G01 Z3 F300
G01 X109.16 Y28.54 M03 S255 F800
G01 X109.23 Y29.49 M03 S0 F2000
G01 Z3 F300
G01 X109.2 Y29.1 M03 S255 F800
G01 X109.24 Y29.6 M03 S0 F2000
G01 Z3 F300
G01 X109.23 Y29.49 M03 S255 F800
G01 X109.24 Y29.64 M03 S0 F2000
G01 Z3 F300
G01 X109.24 Y29.6 M03 S255 F800
G01 X109.28 Y29.78 M03 S0 F2000
G01 Z3 F300
G01 X109.24 Y29.64 M03 S255 F800
G01 X109.41 Y30.16 M03 S0 F2000
G01 Z3 F300
G01 X109.28 Y29.78 M03 S255 F800
G01 X109.61 Y30.79 M03 S0 F2000
G01 Z3 F300
G01 X109.41 Y30.16 M03 S255 F800
G01 X109.88 Y31.6 M03 S0 F2000
G01 Z3 F300
G01 X109.61 Y30.79 M03 S255 F800
G01 X110.2 Y32.59 M03 S0 F2000
G01 Z3 F300
G01 X109.88 Y31.6 M03 S255 F800
G01 X110.58 Y33.71 M03 S0 F2000
G01 Z3 F300
G01 X110.2 Y32.59 M03 S255 F800
G01 X111 Y34.95 M03 S0 F2000
G01 Z3 F300
G01 X110.58 Y33.71 M03 S255 F800
G01 X111.46 Y36.29 M03 S0 F2000
G01 Z3 F300
G01 X111 Y34.95 M03 S255 F800
G01 X112.46 Y39.09 M03 S0 F2000
G01 Z3 F300
G01 X111.46 Y36.29 M03 S255 F800
G01 X113.53 Y41.91 M03 S0 F2000
G01 Z3 F300
G01 X112.46 Y39.09 M03 S255 F800
G01 X114.05 Y43.26 M03 S0 F2000
G01 Z3 F300
G01 X113.53 Y41.91 M03 S255 F800
G01 X114.58 Y44.53 M03 S0 F2000
G01 Z3 F300
G01 X114.05 Y43.26 M03 S255 F800
G01 X115.08 Y45.68 M03 S0 F2000
G01 Z3 F300
G01 X114.58 Y44.53 M03 S255 F800
G01 X115.56 Y46.7 M03 S0 F2000
G01 Z3 F300
G01 X115.08 Y45.68 M03 S255 F800
G01 X116.04 Y47.61 M03 S0 F2000
G01 Z3 F300
G01 X115.56 Y46.7 M03 S255 F800
G01 X116.59 Y48.59 M03 S0 F2000
G01 Z3 F300
G01 X116.04 Y47.61 M03 S255 F800
G01 X117.84 Y50.61 M03 S0 F2000
G01 Z3 F300
G01 X116.59 Y48.59 M03 S255 F800
G01 X119.19 Y52.65 M03 S0 F2000
G01 Z3 F300
G01 X117.84 Y50.61 M03 S255 F800
G01 X120.55 Y54.59 M03 S0 F2000
G01 Z3 F300
G01 X119.19 Y52.65 M03 S255 F800
G01 X121.19 Y55.49 M03 S0 F2000
G01 Z3 F300
G01 X120.55 Y54.59 M03 S255 F800
G01 X121.79 Y56.3 M03 S0 F2000
G01 Z3 F300
G01 X121.19 Y55.49 M03 S255 F800
G01 X122.34 Y57.05 M03 S0 F2000
G01 Z3 F300
G01 X121.79 Y56.3 M03 S255 F800
G01 X122.83 Y57.68 M03 S0 F2000
G01 Z3 F300
G01 X122.34 Y57.05 M03 S255 F800
G01 X123.21 Y58.2 M03 S0 F2000
G01 Z3 F300
G01 X122.83 Y57.68 M03 S255 F800
G01 X123.51 Y58.6 M03 S0 F2000
G01 Z3 F300
G01 X123.21 Y58.2 M03 S255 F800
G01 X123.71 Y58.84 M03 S0 F2000
G01 Z3 F300
G01 X123.51 Y58.6 M03 S255 F800
G01 X123.78 Y58.93 M03 S0 F2000
G01 Z3 F300
G01 X123.71 Y58.84 M03 S255 F800
G01 X123.81 Y58.95 M03 S0 F2000
G01 Z3 F300
G01 X123.78 Y58.93 M03 S255 F800
G01 X123.93 Y59.03 M03 S0 F2000
G01 Z3 F300
G01 X123.81 Y58.95 M03 S255 F800
G01 X124.31 Y59.29 M03 S0 F2000
G01 Z3 F300
G01 X123.93 Y59.03 M03 S255 F800
G01 X124.89 Y59.68 M03 S0 F2000
G01 Z3 F300
G01 X124.31 Y59.29 M03 S255 F800
G01 X125.58 Y60.15 M03 S0 F2000
G01 Z3 F300
G01 X124.89 Y59.68 M03 S255 F800
G01 X126.3 Y60.69 M03 S0 F2000
G01 Z3 F300
G01 X125.58 Y60.15 M03 S255 F800
G01 X127 Y61.25 M03 S0 F2000
G01 Z3 F300
G01 X126.3 Y60.69 M03 S255 F800
G01 X127.6 Y61.79 M03 S0 F2000
G01 Z3 F300
G01 X127 Y61.25 M03 S255 F800
G01 X128.04 Y62.28 M03 S0 F2000
G01 Z3 F300
G01 X127.6 Y61.79 M03 S255 F800
G01 X128.76 Y63.36 M03 S0 F2000
G01 Z3 F300
G01 X128.04 Y62.28 M03 S255 F800
G01 X129.49 Y64.6 M03 S0 F2000
G01 Z3 F300
G01 X128.76 Y63.36 M03 S255 F800
G01 X130.19 Y65.93 M03 S0 F2000
G01 Z3 F300
G01 X129.49 Y64.6 M03 S255 F800
G01 X130.81 Y67.23 M03 S0 F2000
G01 Z3 F300
G01 X130.19 Y65.93 M03 S255 F800
G01 X131.36 Y68.4 M03 S0 F2000
G01 Z3 F300
G01 X130.81 Y67.23 M03 S255 F800
G01 X131.59 Y68.91 M03 S0 F2000
G01 Z3 F300
G01 X131.36 Y68.4 M03 S255 F800
G01 X131.79 Y69.35 M03 S0 F2000
G01 Z3 F300
G01 X131.59 Y68.91 M03 S255 F800
G01 X131.95 Y69.73 M03 S0 F2000
G01 Z3 F300
G01 X131.79 Y69.35 M03 S255 F800
G01 X132.06 Y70 M03 S0 F2000
G01 Z3 F300
G01 X131.95 Y69.73 M03 S255 F800
G01 X132.14 Y70.18 M03 S0 F2000
G01 Z3 F300
G01 X132.06 Y70 M03 S255 F800
G01 X132.16 Y70.24 M03 S0 F2000
G01 Z3 F300
G01 X132.14 Y70.18 M03 S255 F800
G01 X132.21 Y70.31 M03 S0 F2000
G01 Z3 F300
G01 X132.16 Y70.24 M03 S255 F800
G01 X132.34 Y70.52 M03 S0 F2000
G01 Z3 F300
G01 X132.21 Y70.31 M03 S255 F800
G01 X132.54 Y70.86 M03 S0 F2000
G01 Z3 F300
G01 X132.34 Y70.52 M03 S255 F800
G01 X132.81 Y71.31 M03 S0 F2000
G01 Z3 F300
G01 X132.54 Y70.86 M03 S255 F800
G01 X133.14 Y71.85 M03 S0 F2000
G01 Z3 F300
G01 X132.81 Y71.31 M03 S255 F800
G01 X133.5 Y72.46 M03 S0 F2000
G01 Z3 F300
G01 X133.14 Y71.85 M03 S255 F800
G01 X134.31 Y73.88 M03 S0 F2000
G01 Z3 F300
G01 X133.5 Y72.46 M03 S255 F800
G01 X135.18 Y75.41 M03 S0 F2000
G01 Z3 F300
G01 X134.31 Y73.88 M03 S255 F800
G01 X135.99 Y76.96 M03 S0 F2000
G01 Z3 F300
G01 X135.18 Y75.41 M03 S255 F800
G01 X136.69 Y78.4 M03 S0 F2000
G01 Z3 F300
G01 X135.99 Y76.96 M03 S255 F800
G01 X136.98 Y79.05 M03 S0 F2000
G01 Z3 F300
G01 X136.69 Y78.4 M03 S255 F800
G01 X137.19 Y79.61 M03 S0 F2000
G01 Z3 F300
G01 X136.98 Y79.05 M03 S255 F800
G01 X137.6 Y80.88 M03 S0 F2000
G01 Z3 F300
G01 X137.19 Y79.61 M03 S255 F800
G01 X138.03 Y82.24 M03 S0 F2000
G01 Z3 F300
G01 X137.6 Y80.88 M03 S255 F800
G01 X138.44 Y83.68 M03 S0 F2000
G01 Z3 F300
G01 X138.03 Y82.24 M03 S255 F800
G01 X138.84 Y85.16 M03 S0 F2000
G01 Z3 F300
G01 X138.44 Y83.68 M03 S255 F800
G01 X139.61 Y88.2 M03 S0 F2000
G01 Z3 F300
G01 X138.84 Y85.16 M03 S255 F800
G01 X140.3 Y91.13 M03 S0 F2000
G01 Z3 F300
G01 X139.61 Y88.2 M03 S255 F800
G01 X140.61 Y92.5 M03 S0 F2000
G01 Z3 F300
G01 X140.3 Y91.13 M03 S255 F800
G01 X140.89 Y93.76 M03 S0 F2000
G01 Z3 F300
G01 X140.61 Y92.5 M03 S255 F800
G01 X141.14 Y94.91 M03 S0 F2000
G01 Z3 F300
G01 X140.89 Y93.76 M03 S255 F800
G01 X141.35 Y95.9 M03 S0 F2000
G01 Z3 F300
G01 X141.14 Y94.91 M03 S255 F800
G01 X141.53 Y96.71 M03 S0 F2000
G01 Z3 F300
G01 X141.35 Y95.9 M03 S255 F800
G01 X141.65 Y97.33 M03 S0 F2000
G01 Z3 F300
G01 X141.53 Y96.71 M03 S255 F800
G01 X141.73 Y97.71 M03 S0 F2000
G01 Z3 F300
G01 X141.65 Y97.33 M03 S255 F800
G01 X141.75 Y97.85 M03 S0 F2000
G01 Z3 F300
G01 X141.73 Y97.71 M03 S255 F800
G01 X141.78 Y97.9 M03 S0 F2000
G01 Z3 F300
G01 X141.75 Y97.85 M03 S255 F800
G01 X141.84 Y98.04 M03 S0 F2000
G01 Z3 F300
G01 X141.78 Y97.9 M03 S255 F800
G01 X141.95 Y98.26 M03 S0 F2000
G01 Z3 F300
G01 X141.84 Y98.04 M03 S255 F800
G01 X142.09 Y98.55 M03 S0 F2000
G01 Z3 F300
G01 X141.95 Y98.26 M03 S255 F800
G01 X142.45 Y99.31 M03 S0 F2000
G01 Z3 F300
G01 X142.09 Y98.55 M03 S255 F800
G01 X142.9 Y100.21 M03 S0 F2000
G01 Z3 F300
G01 X142.45 Y99.31 M03 S255 F800
G01 X143.39 Y101.2 M03 S0 F2000
G01 Z3 F300
G01 X142.9 Y100.21 M03 S255 F800
G01 X143.9 Y102.19 M03 S0 F2000
G01 Z3 F300
G01 X143.39 Y101.2 M03 S255 F800
G01 X144.39 Y103.08 M03 S0 F2000
G01 Z3 F300
G01 X143.9 Y102.19 M03 S255 F800
G01 X144.83 Y103.79 M03 S0 F2000
G01 Z3 F300
G01 X144.39 Y103.08 M03 S255 F800
G01 X145.48 Y104.73 M03 S0 F2000
G01 Z3 F300
G01 X144.83 Y103.79 M03 S255 F800
G01 X146.23 Y105.73 M03 S0 F2000
G01 Z3 F300
G01 X145.48 Y104.73 M03 S255 F800
G01 X147.01 Y106.71 M03 S0 F2000
G01 Z3 F300
G01 X146.23 Y105.73 M03 S255 F800
G01 X147.78 Y107.66 M03 S0 F2000
G01 Z3 F300
G01 X147.01 Y106.71 M03 S255 F800
G01 X148.48 Y108.49 M03 S0 F2000
G01 Z3 F300
G01 X147.78 Y107.66 M03 S255 F800
G01 X149.04 Y109.15 M03 S0 F2000
G01 Z3 F300
G01 X148.48 Y108.49 M03 S255 F800
G01 X149.43 Y109.59 M03 S0 F2000
G01 Z3 F300
G01 X149.04 Y109.15 M03 S255 F800
G01 X149.53 Y109.71 M03 S0 F2000
G01 Z3 F300
G01 X149.43 Y109.59 M03 S255 F800
G01 X149.56 Y109.75 M03 S0 F2000
G01 Z3 F300
G01 X149.53 Y109.71 M03 S255 F800
G01 Z3 F300
G01 X149.56 Y109.74 M03 S255 F800
G00 Z0 M03 S0
M05
G00 X0 Y0 
