( Generated by T2Laser ) 
(  DXF2Gcode for Grbl  )
( Start Point: LL      )
( Frame Mode : Extents )
( X Maximum  : 31      )
( Y Maximum  : 26.3    )
( Laser Power: 255     )
( Vector Rate: 800     )
( Rapid Feed : 2000    )
( Vector Name: BirdBeak.dxf )
G21
G90
F800
M05
G00 Z0 
G01 X24.48 Y25.69 F2000
M03 S0
G01 Z3 F300
G01 X24.45 Y25.74 M03 S255 F800
G01 X24.55 Y25.56 M03 S0 F2000
G01 Z3 F300
G01 X24.48 Y25.69 M03 S255 F800
G01 X24.66 Y25.36 M03 S0 F2000
G01 Z3 F300
G01 X24.55 Y25.56 M03 S255 F800
G01 X24.81 Y25.09 M03 S0 F2000
G01 Z3 F300
G01 X24.66 Y25.36 M03 S255 F800
G01 X25.2 Y24.39 M03 S0 F2000
G01 Z3 F300
G01 X24.81 Y25.09 M03 S255 F800
G01 X25.68 Y23.51 M03 S0 F2000
G01 Z3 F300
G01 X25.2 Y24.39 M03 S255 F800
G01 X26.16 Y22.54 M03 S0 F2000
G01 Z3 F300
G01 X25.68 Y23.51 M03 S255 F800
G01 X26.65 Y21.53 M03 S0 F2000
G01 Z3 F300
G01 X26.16 Y22.54 M03 S255 F800
G01 X27.08 Y20.55 M03 S0 F2000
G01 Z3 F300
G01 X26.65 Y21.53 M03 S255 F800
G01 X27.39 Y19.68 M03 S0 F2000
G01 Z3 F300
G01 X27.08 Y20.55 M03 S255 F800
G01 X27.56 Y19.09 M03 S0 F2000
G01 Z3 F300
G01 X27.39 Y19.68 M03 S255 F800
G01 X27.74 Y18.44 M03 S0 F2000
G01 Z3 F300
G01 X27.56 Y19.09 M03 S255 F800
G01 X28.06 Y16.99 M03 S0 F2000
G01 Z3 F300
G01 X27.74 Y18.44 M03 S255 F800
G01 X28.38 Y15.46 M03 S0 F2000
G01 Z3 F300
G01 X28.06 Y16.99 M03 S255 F800
G01 X28.65 Y13.98 M03 S0 F2000
G01 Z3 F300
G01 X28.38 Y15.46 M03 S255 F800
G01 X28.88 Y12.61 M03 S0 F2000
G01 Z3 F300
G01 X28.65 Y13.98 M03 S255 F800
G01 X28.98 Y12.01 M03 S0 F2000
G01 Z3 F300
G01 X28.88 Y12.61 M03 S255 F800
G01 X29.06 Y11.5 M03 S0 F2000
G01 Z3 F300
G01 X28.98 Y12.01 M03 S255 F800
G01 X29.13 Y11.08 M03 S0 F2000
G01 Z3 F300
G01 X29.06 Y11.5 M03 S255 F800
G01 X29.18 Y10.75 M03 S0 F2000
G01 Z3 F300
G01 X29.13 Y11.08 M03 S255 F800
G01 X29.2 Y10.55 M03 S0 F2000
G01 Z3 F300
G01 X29.18 Y10.75 M03 S255 F800
G01 X29.21 Y10.48 M03 S0 F2000
G01 Z3 F300
G01 X29.2 Y10.55 M03 S255 F800
G01 X29.99 Y9.3 M03 S0 F2000
G01 Z3 F300
G01 X29.21 Y10.48 M03 S255 F800
G01 X30.54 Y8.19 M03 S0 F2000
G01 Z3 F300
G01 X29.99 Y9.3 M03 S255 F800
G01 X30.86 Y7.15 M03 S0 F2000
G01 Z3 F300
G01 X30.54 Y8.19 M03 S255 F800
G01 X30.99 Y6.18 M03 S0 F2000
G01 Z3 F300
G01 X30.86 Y7.15 M03 S255 F800
G01 X30.93 Y5.28 M03 S0 F2000
G01 Z3 F300
G01 X30.99 Y6.18 M03 S255 F800
G01 X30.69 Y4.44 M03 S0 F2000
G01 Z3 F300
G01 X30.93 Y5.28 M03 S255 F800
G01 X30.3 Y3.68 M03 S0 F2000
G01 Z3 F300
G01 X30.69 Y4.44 M03 S255 F800
G01 X29.78 Y2.99 M03 S0 F2000
G01 Z3 F300
G01 X30.3 Y3.68 M03 S255 F800
G01 X29.14 Y2.36 M03 S0 F2000
G01 Z3 F300
G01 X29.78 Y2.99 M03 S255 F800
G01 X28.38 Y1.81 M03 S0 F2000
G01 Z3 F300
G01 X29.14 Y2.36 M03 S255 F800
G01 X27.54 Y1.34 M03 S0 F2000
G01 Z3 F300
G01 X28.38 Y1.81 M03 S255 F800
G01 X26.63 Y0.94 M03 S0 F2000
G01 Z3 F300
G01 X27.54 Y1.34 M03 S255 F800
G01 X25.65 Y0.6 M03 S0 F2000
G01 Z3 F300
G01 X26.63 Y0.94 M03 S255 F800
G01 X24.64 Y0.35 M03 S0 F2000
G01 Z3 F300
G01 X25.65 Y0.6 M03 S255 F800
G01 X23.59 Y0.16 M03 S0 F2000
G01 Z3 F300
G01 X24.64 Y0.35 M03 S255 F800
G01 X22.54 Y0.06 M03 S0 F2000
G01 Z3 F300
G01 X23.59 Y0.16 M03 S255 F800
G01 X21.5 Y0.04 M03 S0 F2000
G01 Z3 F300
G01 X22.54 Y0.06 M03 S255 F800
G01 X20.49 Y0.09 M03 S0 F2000
G01 Z3 F300
G01 X21.5 Y0.04 M03 S255 F800
G01 X19.5 Y0.21 M03 S0 F2000
G01 Z3 F300
G01 X20.49 Y0.09 M03 S255 F800
G01 X18.58 Y0.41 M03 S0 F2000
G01 Z3 F300
G01 X19.5 Y0.21 M03 S255 F800
G01 X17.73 Y0.7 M03 S0 F2000
G01 Z3 F300
G01 X18.58 Y0.41 M03 S255 F800
G01 X16.96 Y1.06 M03 S0 F2000
G01 Z3 F300
G01 X17.73 Y0.7 M03 S255 F800
G01 X16.3 Y1.5 M03 S0 F2000
G01 Z3 F300
G01 X16.96 Y1.06 M03 S255 F800
G01 X15.76 Y2.03 M03 S0 F2000
G01 Z3 F300
G01 X16.3 Y1.5 M03 S255 F800
G01 X15.35 Y2.63 M03 S0 F2000
G01 Z3 F300
G01 X15.76 Y2.03 M03 S255 F800
G01 X15.1 Y3.31 M03 S0 F2000
G01 Z3 F300
G01 X15.35 Y2.63 M03 S255 F800
G01 X15.01 Y4.09 M03 S0 F2000
G01 Z3 F300
G01 X15.1 Y3.31 M03 S255 F800
G01 X15.11 Y4.94 M03 S0 F2000
G01 Z3 F300
G01 X15.01 Y4.09 M03 S255 F800
G01 X15.41 Y5.88 M03 S0 F2000
G01 Z3 F300
G01 X15.11 Y4.94 M03 S255 F800
G01 X15.93 Y6.89 M03 S0 F2000
G01 Z3 F300
G01 X15.41 Y5.88 M03 S255 F800
G01 X16.68 Y8 M03 S0 F2000
G01 Z3 F300
G01 X15.93 Y6.89 M03 S255 F800
G01 X17.68 Y9.19 M03 S0 F2000
G01 Z3 F300
G01 X16.68 Y8 M03 S255 F800
G01 X17.69 Y9.26 M03 S0 F2000
G01 Z3 F300
G01 X17.68 Y9.19 M03 S255 F800
G01 X17.7 Y9.49 M03 S0 F2000
G01 Z3 F300
G01 X17.69 Y9.26 M03 S255 F800
G01 X17.74 Y9.84 M03 S0 F2000
G01 Z3 F300
G01 X17.7 Y9.49 M03 S255 F800
G01 X17.8 Y10.3 M03 S0 F2000
G01 Z3 F300
G01 X17.74 Y9.84 M03 S255 F800
G01 X17.86 Y10.86 M03 S0 F2000
G01 Z3 F300
G01 X17.8 Y10.3 M03 S255 F800
G01 X17.94 Y11.5 M03 S0 F2000
G01 Z3 F300
G01 X17.86 Y10.86 M03 S255 F800
G01 X18.15 Y12.95 M03 S0 F2000
G01 Z3 F300
G01 X17.94 Y11.5 M03 S255 F800
G01 X18.4 Y14.54 M03 S0 F2000
G01 Z3 F300
G01 X18.15 Y12.95 M03 S255 F800
G01 X18.71 Y16.13 M03 S0 F2000
G01 Z3 F300
G01 X18.4 Y14.54 M03 S255 F800
G01 X19.06 Y17.58 M03 S0 F2000
G01 Z3 F300
G01 X18.71 Y16.13 M03 S255 F800
G01 X19.26 Y18.21 M03 S0 F2000
G01 Z3 F300
G01 X19.06 Y17.58 M03 S255 F800
G01 X19.48 Y18.78 M03 S0 F2000
G01 Z3 F300
G01 X19.26 Y18.21 M03 S255 F800
G01 X20.01 Y19.84 M03 S0 F2000
G01 Z3 F300
G01 X19.48 Y18.78 M03 S255 F800
G01 X20.73 Y20.98 M03 S0 F2000
G01 Z3 F300
G01 X20.01 Y19.84 M03 S255 F800
G01 X21.54 Y22.14 M03 S0 F2000
G01 Z3 F300
G01 X20.73 Y20.98 M03 S255 F800
G01 X22.39 Y23.25 M03 S0 F2000
G01 Z3 F300
G01 X21.54 Y22.14 M03 S255 F800
G01 X23.18 Y24.24 M03 S0 F2000
G01 Z3 F300
G01 X22.39 Y23.25 M03 S255 F800
G01 X23.83 Y25.03 M03 S0 F2000
G01 Z3 F300
G01 X23.18 Y24.24 M03 S255 F800
G01 X24.09 Y25.33 M03 S0 F2000
G01 Z3 F300
G01 X23.83 Y25.03 M03 S255 F800
G01 X24.29 Y25.55 M03 S0 F2000
G01 Z3 F300
G01 X24.09 Y25.33 M03 S255 F800
G01 X24.41 Y25.69 M03 S0 F2000
G01 Z3 F300
G01 X24.29 Y25.55 M03 S255 F800
G01 X24.45 Y25.74 M03 S0 F2000
G01 Z3 F300
G01 X24.41 Y25.69 M03 S255 F800
G01 X4.7 Y1 M03 S0 F2000
G01 Z3 F300
G01 X4.73 Y0.95 M03 S255 F800
G01 X4.64 Y1.14 M03 S0 F2000
G01 Z3 F300
G01 X4.7 Y1 M03 S255 F800
G01 X4.55 Y1.35 M03 S0 F2000
G01 Z3 F300
G01 X4.64 Y1.14 M03 S255 F800
G01 X4.43 Y1.63 M03 S0 F2000
G01 Z3 F300
G01 X4.55 Y1.35 M03 S255 F800
G01 X4.1 Y2.38 M03 S0 F2000
G01 Z3 F300
G01 X4.43 Y1.63 M03 S255 F800
G01 X3.71 Y3.29 M03 S0 F2000
G01 Z3 F300
G01 X4.1 Y2.38 M03 S255 F800
G01 X3.31 Y4.3 M03 S0 F2000
G01 Z3 F300
G01 X3.71 Y3.29 M03 S255 F800
G01 X2.93 Y5.35 M03 S0 F2000
G01 Z3 F300
G01 X3.31 Y4.3 M03 S255 F800
G01 X2.6 Y6.36 M03 S0 F2000
G01 Z3 F300
G01 X2.93 Y5.35 M03 S255 F800
G01 X2.36 Y7.26 M03 S0 F2000
G01 Z3 F300
G01 X2.6 Y6.36 M03 S255 F800
G01 X2.25 Y7.86 M03 S0 F2000
G01 Z3 F300
G01 X2.36 Y7.26 M03 S255 F800
G01 X2.14 Y8.54 M03 S0 F2000
G01 Z3 F300
G01 X2.25 Y7.86 M03 S255 F800
G01 X1.95 Y10 M03 S0 F2000
G01 Z3 F300
G01 X2.14 Y8.54 M03 S255 F800
G01 X1.79 Y11.54 M03 S0 F2000
G01 Z3 F300
G01 X1.95 Y10 M03 S255 F800
G01 X1.65 Y13.06 M03 S0 F2000
G01 Z3 F300
G01 X1.79 Y11.54 M03 S255 F800
G01 X1.55 Y14.44 M03 S0 F2000
G01 Z3 F300
G01 X1.65 Y13.06 M03 S255 F800
G01 X1.5 Y15.04 M03 S0 F2000
G01 Z3 F300
G01 X1.55 Y14.44 M03 S255 F800
G01 X1.48 Y15.55 M03 S0 F2000
G01 Z3 F300
G01 X1.5 Y15.04 M03 S255 F800
G01 X1.45 Y15.99 M03 S0 F2000
G01 Z3 F300
G01 X1.48 Y15.55 M03 S255 F800
G01 X1.43 Y16.31 M03 S0 F2000
G01 Z3 F300
G01 X1.45 Y15.99 M03 S255 F800
G01 X1.41 Y16.51 M03 S0 F2000
G01 Z3 F300
G01 X1.43 Y16.31 M03 S255 F800
G01 X1.41 Y16.59 M03 S0 F2000
G01 Z3 F300
G01 X1.41 Y16.51 M03 S255 F800
G01 X0.75 Y17.83 M03 S0 F2000
G01 Z3 F300
G01 X1.41 Y16.59 M03 S255 F800
G01 X0.31 Y18.99 M03 S0 F2000
G01 Z3 F300
G01 X0.75 Y17.83 M03 S255 F800
G01 X0.08 Y20.05 M03 S0 F2000
G01 Z3 F300
G01 X0.31 Y18.99 M03 S255 F800
G01 X0.05 Y21.04 M03 S0 F2000
G01 Z3 F300
G01 X0.08 Y20.05 M03 S255 F800
G01 X0.2 Y21.93 M03 S0 F2000
G01 Z3 F300
G01 X0.05 Y21.04 M03 S255 F800
G01 X0.5 Y22.74 M03 S0 F2000
G01 Z3 F300
G01 X0.2 Y21.93 M03 S255 F800
G01 X0.96 Y23.46 M03 S0 F2000
G01 Z3 F300
G01 X0.5 Y22.74 M03 S255 F800
G01 X1.55 Y24.1 M03 S0 F2000
G01 Z3 F300
G01 X0.96 Y23.46 M03 S255 F800
G01 X2.25 Y24.66 M03 S0 F2000
G01 Z3 F300
G01 X1.55 Y24.1 M03 S255 F800
G01 X3.05 Y25.14 M03 S0 F2000
G01 Z3 F300
G01 X2.25 Y24.66 M03 S255 F800
G01 X3.94 Y25.54 M03 S0 F2000
G01 Z3 F300
G01 X3.05 Y25.14 M03 S255 F800
G01 X4.89 Y25.85 M03 S0 F2000
G01 Z3 F300
G01 X3.94 Y25.54 M03 S255 F800
G01 X5.89 Y26.09 M03 S0 F2000
G01 Z3 F300
G01 X4.89 Y25.85 M03 S255 F800
G01 X6.91 Y26.25 M03 S0 F2000
G01 Z3 F300
G01 X5.89 Y26.09 M03 S255 F800
G01 X7.96 Y26.34 M03 S0 F2000
G01 Z3 F300
G01 X6.91 Y26.25 M03 S255 F800
G01 X9.03 Y26.34 M03 S0 F2000
G01 Z3 F300
G01 X7.96 Y26.34 M03 S255 F800
G01 X10.06 Y26.28 M03 S0 F2000
G01 Z3 F300
G01 X9.03 Y26.34 M03 S255 F800
G01 X11.08 Y26.13 M03 S0 F2000
G01 Z3 F300
G01 X10.06 Y26.28 M03 S255 F800
G01 X12.04 Y25.91 M03 S0 F2000
G01 Z3 F300
G01 X11.08 Y26.13 M03 S255 F800
G01 X12.94 Y25.63 M03 S0 F2000
G01 Z3 F300
G01 X12.04 Y25.91 M03 S255 F800
G01 X13.76 Y25.26 M03 S0 F2000
G01 Z3 F300
G01 X12.94 Y25.63 M03 S255 F800
G01 X14.49 Y24.83 M03 S0 F2000
G01 Z3 F300
G01 X13.76 Y25.26 M03 S255 F800
G01 X15.1 Y24.33 M03 S0 F2000
G01 Z3 F300
G01 X14.49 Y24.83 M03 S255 F800
G01 X15.59 Y23.75 M03 S0 F2000
G01 Z3 F300
G01 X15.1 Y24.33 M03 S255 F800
G01 X15.94 Y23.11 M03 S0 F2000
G01 Z3 F300
G01 X15.59 Y23.75 M03 S255 F800
G01 X16.13 Y22.41 M03 S0 F2000
G01 Z3 F300
G01 X15.94 Y23.11 M03 S255 F800
G01 X16.14 Y21.64 M03 S0 F2000
G01 Z3 F300
G01 X16.13 Y22.41 M03 S255 F800
G01 X15.96 Y20.8 M03 S0 F2000
G01 Z3 F300
G01 X16.14 Y21.64 M03 S255 F800
G01 X15.58 Y19.89 M03 S0 F2000
G01 Z3 F300
G01 X15.96 Y20.8 M03 S255 F800
G01 X14.96 Y18.93 M03 S0 F2000
G01 Z3 F300
G01 X15.58 Y19.89 M03 S255 F800
G01 X14.11 Y17.89 M03 S0 F2000
G01 Z3 F300
G01 X14.96 Y18.93 M03 S255 F800
G01 X13.01 Y16.8 M03 S0 F2000
G01 Z3 F300
G01 X14.11 Y17.89 M03 S255 F800
G01 X13 Y16.73 M03 S0 F2000
G01 Z3 F300
G01 X13.01 Y16.8 M03 S255 F800
G01 X12.95 Y16.5 M03 S0 F2000
G01 Z3 F300
G01 X13 Y16.73 M03 S255 F800
G01 X12.89 Y16.16 M03 S0 F2000
G01 Z3 F300
G01 X12.95 Y16.5 M03 S255 F800
G01 X12.79 Y15.7 M03 S0 F2000
G01 Z3 F300
G01 X12.89 Y16.16 M03 S255 F800
G01 X12.68 Y15.15 M03 S0 F2000
G01 Z3 F300
G01 X12.79 Y15.7 M03 S255 F800
G01 X12.54 Y14.53 M03 S0 F2000
G01 Z3 F300
G01 X12.68 Y15.15 M03 S255 F800
G01 X12.2 Y13.09 M03 S0 F2000
G01 Z3 F300
G01 X12.54 Y14.53 M03 S255 F800
G01 X11.8 Y11.54 M03 S0 F2000
G01 Z3 F300
G01 X12.2 Y13.09 M03 S255 F800
G01 X11.34 Y9.99 M03 S0 F2000
G01 Z3 F300
G01 X11.8 Y11.54 M03 S255 F800
G01 X10.85 Y8.58 M03 S0 F2000
G01 Z3 F300
G01 X11.34 Y9.99 M03 S255 F800
G01 X10.59 Y7.96 M03 S0 F2000
G01 Z3 F300
G01 X10.85 Y8.58 M03 S255 F800
G01 X10.33 Y7.43 M03 S0 F2000
G01 Z3 F300
G01 X10.59 Y7.96 M03 S255 F800
G01 X9.69 Y6.41 M03 S0 F2000
G01 Z3 F300
G01 X10.33 Y7.43 M03 S255 F800
G01 X8.88 Y5.34 M03 S0 F2000
G01 Z3 F300
G01 X9.69 Y6.41 M03 S255 F800
G01 X7.95 Y4.26 M03 S0 F2000
G01 Z3 F300
G01 X8.88 Y5.34 M03 S255 F800
G01 X7.01 Y3.24 M03 S0 F2000
G01 Z3 F300
G01 X7.95 Y4.26 M03 S255 F800
G01 X6.14 Y2.33 M03 S0 F2000
G01 Z3 F300
G01 X7.01 Y3.24 M03 S255 F800
G01 X5.41 Y1.6 M03 S0 F2000
G01 Z3 F300
G01 X6.14 Y2.33 M03 S255 F800
G01 X5.13 Y1.33 M03 S0 F2000
G01 Z3 F300
G01 X5.41 Y1.6 M03 S255 F800
G01 X4.91 Y1.13 M03 S0 F2000
G01 Z3 F300
G01 X5.13 Y1.33 M03 S255 F800
G01 X4.78 Y1 M03 S0 F2000
G01 Z3 F300
G01 X4.91 Y1.13 M03 S255 F800
G01 X4.73 Y0.95 M03 S0 F2000
G01 Z3 F300
G01 X4.78 Y1 M03 S255 F800
G00 Z0 M03 S0
M05
G00 X0 Y0 
