( Generated by T2Laser ) 
(  DXF2Gcode for Grbl  )
( Start Point: LL      )
( Frame Mode : Extents )
( X Maximum  : 104.4   )
( Y Maximum  : 110.4   )
( Laser Power: 255     )
( Vector Rate: 100     )
( Rapid Feed : 2000    )
( Vector Name: TwitterSupport.dxf )
G21
G90
F100
M05
G00 Z0 
G01 X30.31 Y69.97 F2000
M03 S0
G01 Z0 F300
G01 X60.6 Y52.48 M03 S255 F100
G01 Z0 F300
G01 X60.6 Y52.46 M03 S255 F100
G01 Z0 F300
G01 X63.6 Y52.46 M03 S255 F100
G01 Z0 F300
G01 X63.6 Y47.46 M03 S255 F100
G01 Z0 F300
G01 X60.65 Y47.46 M03 S255 F100
G01 Z0 F300
G01 X60.65 Y42.52 M03 S255 F100
G01 Z0 F300
G01 X63.6 Y42.52 M03 S255 F100
G01 Z0 F300
G01 X63.6 Y37.46 M03 S255 F100
G01 Z0 F300
G01 X60.65 Y37.46 M03 S255 F100
G01 Z0 F300
G01 X60.65 Y32.52 M03 S255 F100
G01 Z0 F300
G01 X63.6 Y32.52 M03 S255 F100
G01 Z0 F300
G01 X63.6 Y27.46 M03 S255 F100
G01 Z0 F300
G01 X60.65 Y27.46 M03 S255 F100
G01 Z0 F300
G01 X60.65 Y22.52 M03 S255 F100
G01 Z0 F300
G01 X63.6 Y22.52 M03 S255 F100
G01 Z0 F300
G01 X63.6 Y17.52 M03 S255 F100
G01 Z0 F300
G01 X60.6 Y17.52 M03 S255 F100
G01 Z0 F300
G01 X30.31 Y0.03 M03 S255 F100
G01 Z0 F300
G01 X0.03 Y17.52 M03 S255 F100
G01 Z0 F300
G01 X0.03 Y52.48 M03 S255 F100
G01 Z0 F300
G01 X30.31 Y69.97 M03 S255 F100
G01 X50.28 Y44.97 M03 S0 F2000
G01 Z0 F300
G01 X10.34 Y44.97 M03 S255 F100
G01 Z0 F300
G01 X10.34 Y25.03 M03 S255 F100
G01 Z0 F300
G01 X50.28 Y25.03 M03 S255 F100
G01 Z0 F300
G01 X50.28 Y44.97 M03 S255 F100
G01 X32.23 Y14.49 M03 S0 F2000
G01 Z0 F300
G01 X32.29 Y15 M03 S255 F100
G01 X32.03 Y14.03 M03 S0 F2000
G01 Z0 F300
G01 X32.23 Y14.49 M03 S255 F100
G01 X31.71 Y13.61 M03 S0 F2000
G01 Z0 F300
G01 X32.03 Y14.03 M03 S255 F100
G01 X31.3 Y13.3 M03 S0 F2000
G01 Z0 F300
G01 X31.71 Y13.61 M03 S255 F100
G01 X30.83 Y13.1 M03 S0 F2000
G01 Z0 F300
G01 X31.3 Y13.3 M03 S255 F100
G01 X30.31 Y13.04 M03 S0 F2000
G01 Z0 F300
G01 X30.83 Y13.1 M03 S255 F100
G01 X29.8 Y13.1 M03 S0 F2000
G01 Z0 F300
G01 X30.31 Y13.04 M03 S255 F100
G01 X29.33 Y13.3 M03 S0 F2000
G01 Z0 F300
G01 X29.8 Y13.1 M03 S255 F100
G01 X28.91 Y13.61 M03 S0 F2000
G01 Z0 F300
G01 X29.33 Y13.3 M03 S255 F100
G01 X28.61 Y14.03 M03 S0 F2000
G01 Z0 F300
G01 X28.91 Y13.61 M03 S255 F100
G01 X28.41 Y14.49 M03 S0 F2000
G01 Z0 F300
G01 X28.61 Y14.03 M03 S255 F100
G01 X28.34 Y15 M03 S0 F2000
G01 Z0 F300
G01 X28.41 Y14.49 M03 S255 F100
G01 X28.41 Y15.53 M03 S0 F2000
G01 Z0 F300
G01 X28.34 Y15 M03 S255 F100
G01 X28.61 Y15.99 M03 S0 F2000
G01 Z0 F300
G01 X28.41 Y15.53 M03 S255 F100
G01 X28.91 Y16.4 M03 S0 F2000
G01 Z0 F300
G01 X28.61 Y15.99 M03 S255 F100
G01 X29.33 Y16.71 M03 S0 F2000
G01 Z0 F300
G01 X28.91 Y16.4 M03 S255 F100
G01 X29.8 Y16.91 M03 S0 F2000
G01 Z0 F300
G01 X29.33 Y16.71 M03 S255 F100
G01 X30.31 Y16.98 M03 S0 F2000
G01 Z0 F300
G01 X29.8 Y16.91 M03 S255 F100
G01 X30.83 Y16.91 M03 S0 F2000
G01 Z0 F300
G01 X30.31 Y16.98 M03 S255 F100
G01 X31.3 Y16.71 M03 S0 F2000
G01 Z0 F300
G01 X30.83 Y16.91 M03 S255 F100
G01 X31.71 Y16.4 M03 S0 F2000
G01 Z0 F300
G01 X31.3 Y16.71 M03 S255 F100
G01 X32.03 Y15.99 M03 S0 F2000
G01 Z0 F300
G01 X31.71 Y16.4 M03 S255 F100
G01 X32.23 Y15.53 M03 S0 F2000
G01 Z0 F300
G01 X32.03 Y15.99 M03 S255 F100
G01 X32.29 Y15 M03 S0 F2000
G01 Z0 F300
G01 X32.23 Y15.53 M03 S255 F100
G01 X32.28 Y15 M03 S0 F2000
G01 Z0 F300
G01 X32.28 Y15 M03 S255 F100
G01 X32.23 Y54.49 M03 S0 F2000
G01 Z0 F300
G01 X32.29 Y55 M03 S255 F100
G01 X32.03 Y54.03 M03 S0 F2000
G01 Z0 F300
G01 X32.23 Y54.49 M03 S255 F100
G01 X31.71 Y53.61 M03 S0 F2000
G01 Z0 F300
G01 X32.03 Y54.03 M03 S255 F100
G01 X31.3 Y53.3 M03 S0 F2000
G01 Z0 F300
G01 X31.71 Y53.61 M03 S255 F100
G01 X30.83 Y53.1 M03 S0 F2000
G01 Z0 F300
G01 X31.3 Y53.3 M03 S255 F100
G01 X30.31 Y53.04 M03 S0 F2000
G01 Z0 F300
G01 X30.83 Y53.1 M03 S255 F100
G01 X29.8 Y53.1 M03 S0 F2000
G01 Z0 F300
G01 X30.31 Y53.04 M03 S255 F100
G01 X29.33 Y53.3 M03 S0 F2000
G01 Z0 F300
G01 X29.8 Y53.1 M03 S255 F100
G01 X28.91 Y53.61 M03 S0 F2000
G01 Z0 F300
G01 X29.33 Y53.3 M03 S255 F100
G01 X28.61 Y54.03 M03 S0 F2000
G01 Z0 F300
G01 X28.91 Y53.61 M03 S255 F100
G01 X28.41 Y54.49 M03 S0 F2000
G01 Z0 F300
G01 X28.61 Y54.03 M03 S255 F100
G01 X28.34 Y55 M03 S0 F2000
G01 Z0 F300
G01 X28.41 Y54.49 M03 S255 F100
G01 X28.41 Y55.53 M03 S0 F2000
G01 Z0 F300
G01 X28.34 Y55 M03 S255 F100
G01 X28.61 Y55.99 M03 S0 F2000
G01 Z0 F300
G01 X28.41 Y55.53 M03 S255 F100
G01 X28.91 Y56.4 M03 S0 F2000
G01 Z0 F300
G01 X28.61 Y55.99 M03 S255 F100
G01 X29.33 Y56.71 M03 S0 F2000
G01 Z0 F300
G01 X28.91 Y56.4 M03 S255 F100
G01 X29.8 Y56.91 M03 S0 F2000
G01 Z0 F300
G01 X29.33 Y56.71 M03 S255 F100
G01 X30.31 Y56.98 M03 S0 F2000
G01 Z0 F300
G01 X29.8 Y56.91 M03 S255 F100
G01 X30.83 Y56.91 M03 S0 F2000
G01 Z0 F300
G01 X30.31 Y56.98 M03 S255 F100
G01 X31.3 Y56.71 M03 S0 F2000
G01 Z0 F300
G01 X30.83 Y56.91 M03 S255 F100
G01 X31.71 Y56.4 M03 S0 F2000
G01 Z0 F300
G01 X31.3 Y56.71 M03 S255 F100
G01 X32.03 Y55.99 M03 S0 F2000
G01 Z0 F300
G01 X31.71 Y56.4 M03 S255 F100
G01 X32.23 Y55.53 M03 S0 F2000
G01 Z0 F300
G01 X32.03 Y55.99 M03 S255 F100
G01 X32.29 Y55 M03 S0 F2000
G01 Z0 F300
G01 X32.23 Y55.53 M03 S255 F100
G01 X32.28 Y55 M03 S0 F2000
G01 Z0 F300
G01 X32.28 Y55 M03 S255 F100
G01 X7.64 Y34.49 M03 S0 F2000
G01 Z0 F300
G01 X7.7 Y35 M03 S255 F100
G01 X7.44 Y34.03 M03 S0 F2000
G01 Z0 F300
G01 X7.64 Y34.49 M03 S255 F100
G01 X7.13 Y33.61 M03 S0 F2000
G01 Z0 F300
G01 X7.44 Y34.03 M03 S255 F100
G01 X6.71 Y33.3 M03 S0 F2000
G01 Z0 F300
G01 X7.13 Y33.61 M03 S255 F100
G01 X6.24 Y33.1 M03 S0 F2000
G01 Z0 F300
G01 X6.71 Y33.3 M03 S255 F100
G01 X5.73 Y33.04 M03 S0 F2000
G01 Z0 F300
G01 X6.24 Y33.1 M03 S255 F100
G01 X5.21 Y33.1 M03 S0 F2000
G01 Z0 F300
G01 X5.73 Y33.04 M03 S255 F100
G01 X4.74 Y33.3 M03 S0 F2000
G01 Z0 F300
G01 X5.21 Y33.1 M03 S255 F100
G01 X4.33 Y33.61 M03 S0 F2000
G01 Z0 F300
G01 X4.74 Y33.3 M03 S255 F100
G01 X4.03 Y34.03 M03 S0 F2000
G01 Z0 F300
G01 X4.33 Y33.61 M03 S255 F100
G01 X3.83 Y34.49 M03 S0 F2000
G01 Z0 F300
G01 X4.03 Y34.03 M03 S255 F100
G01 X3.75 Y35 M03 S0 F2000
G01 Z0 F300
G01 X3.83 Y34.49 M03 S255 F100
G01 X3.83 Y35.53 M03 S0 F2000
G01 Z0 F300
G01 X3.75 Y35 M03 S255 F100
G01 X4.03 Y35.99 M03 S0 F2000
G01 Z0 F300
G01 X3.83 Y35.53 M03 S255 F100
G01 X4.33 Y36.4 M03 S0 F2000
G01 Z0 F300
G01 X4.03 Y35.99 M03 S255 F100
G01 X4.74 Y36.71 M03 S0 F2000
G01 Z0 F300
G01 X4.33 Y36.4 M03 S255 F100
G01 X5.21 Y36.91 M03 S0 F2000
G01 Z0 F300
G01 X4.74 Y36.71 M03 S255 F100
G01 X5.73 Y36.98 M03 S0 F2000
G01 Z0 F300
G01 X5.21 Y36.91 M03 S255 F100
G01 X6.24 Y36.91 M03 S0 F2000
G01 Z0 F300
G01 X5.73 Y36.98 M03 S255 F100
G01 X6.71 Y36.71 M03 S0 F2000
G01 Z0 F300
G01 X6.24 Y36.91 M03 S255 F100
G01 X7.13 Y36.4 M03 S0 F2000
G01 Z0 F300
G01 X6.71 Y36.71 M03 S255 F100
G01 X7.44 Y35.99 M03 S0 F2000
G01 Z0 F300
G01 X7.13 Y36.4 M03 S255 F100
G01 X7.64 Y35.53 M03 S0 F2000
G01 Z0 F300
G01 X7.44 Y35.99 M03 S255 F100
G01 X7.7 Y35 M03 S0 F2000
G01 Z0 F300
G01 X7.64 Y35.53 M03 S255 F100
G01 X7.7 Y35 M03 S0 F2000
G01 Z0 F300
G01 X7.7 Y35 M03 S255 F100
G01 X56.7 Y34.49 M03 S0 F2000
G01 Z0 F300
G01 X56.76 Y35 M03 S255 F100
G01 X56.5 Y34.03 M03 S0 F2000
G01 Z0 F300
G01 X56.7 Y34.49 M03 S255 F100
G01 X56.19 Y33.61 M03 S0 F2000
G01 Z0 F300
G01 X56.5 Y34.03 M03 S255 F100
G01 X55.78 Y33.3 M03 S0 F2000
G01 Z0 F300
G01 X56.19 Y33.61 M03 S255 F100
G01 X55.3 Y33.1 M03 S0 F2000
G01 Z0 F300
G01 X55.78 Y33.3 M03 S255 F100
G01 X54.79 Y33.04 M03 S0 F2000
G01 Z0 F300
G01 X55.3 Y33.1 M03 S255 F100
G01 X54.28 Y33.1 M03 S0 F2000
G01 Z0 F300
G01 X54.79 Y33.04 M03 S255 F100
G01 X53.8 Y33.3 M03 S0 F2000
G01 Z0 F300
G01 X54.28 Y33.1 M03 S255 F100
G01 X53.39 Y33.61 M03 S0 F2000
G01 Z0 F300
G01 X53.8 Y33.3 M03 S255 F100
G01 X53.08 Y34.03 M03 S0 F2000
G01 Z0 F300
G01 X53.39 Y33.61 M03 S255 F100
G01 X52.88 Y34.49 M03 S0 F2000
G01 Z0 F300
G01 X53.08 Y34.03 M03 S255 F100
G01 X52.81 Y35 M03 S0 F2000
G01 Z0 F300
G01 X52.88 Y34.49 M03 S255 F100
G01 X52.88 Y35.53 M03 S0 F2000
G01 Z0 F300
G01 X52.81 Y35 M03 S255 F100
G01 X53.08 Y35.99 M03 S0 F2000
G01 Z0 F300
G01 X52.88 Y35.53 M03 S255 F100
G01 X53.39 Y36.4 M03 S0 F2000
G01 Z0 F300
G01 X53.08 Y35.99 M03 S255 F100
G01 X53.8 Y36.71 M03 S0 F2000
G01 Z0 F300
G01 X53.39 Y36.4 M03 S255 F100
G01 X54.28 Y36.91 M03 S0 F2000
G01 Z0 F300
G01 X53.8 Y36.71 M03 S255 F100
G01 X54.79 Y36.98 M03 S0 F2000
G01 Z0 F300
G01 X54.28 Y36.91 M03 S255 F100
G01 X55.3 Y36.91 M03 S0 F2000
G01 Z0 F300
G01 X54.79 Y36.98 M03 S255 F100
G01 X55.78 Y36.71 M03 S0 F2000
G01 Z0 F300
G01 X55.3 Y36.91 M03 S255 F100
G01 X56.19 Y36.4 M03 S0 F2000
G01 Z0 F300
G01 X55.78 Y36.71 M03 S255 F100
G01 X56.5 Y35.99 M03 S0 F2000
G01 Z0 F300
G01 X56.19 Y36.4 M03 S255 F100
G01 X56.7 Y35.53 M03 S0 F2000
G01 Z0 F300
G01 X56.5 Y35.99 M03 S255 F100
G01 X56.76 Y35 M03 S0 F2000
G01 Z0 F300
G01 X56.7 Y35.53 M03 S255 F100
G01 X56.76 Y35 M03 S0 F2000
G01 Z0 F300
G01 X56.76 Y35 M03 S255 F100
G01 X69.45 Y24.42 M03 S0 F2000
G01 Z0 F300
G01 X74.39 Y24.42 M03 S255 F100
G01 Z0 F300
G01 X74.39 Y21.47 M03 S255 F100
G01 Z0 F300
G01 X79.45 Y21.47 M03 S255 F100
G01 Z0 F300
G01 X79.45 Y24.42 M03 S255 F100
G01 Z0 F300
G01 X84.39 Y24.42 M03 S255 F100
G01 Z0 F300
G01 X84.39 Y21.47 M03 S255 F100
G01 Z0 F300
G01 X89.45 Y21.47 M03 S255 F100
G01 Z0 F300
G01 X89.45 Y24.42 M03 S255 F100
G01 Z0 F300
G01 X94.39 Y24.42 M03 S255 F100
G01 Z0 F300
G01 X94.39 Y21.47 M03 S255 F100
G01 Z0 F300
G01 X99.45 Y21.47 M03 S255 F100
G01 Z0 F300
G01 X99.45 Y24.42 M03 S255 F100
G01 Z0 F300
G01 X104.39 Y24.42 M03 S255 F100
G01 Z0 F300
G01 X104.39 Y101.42 M03 S255 F100
G01 Z0 F300
G01 X99.39 Y101.42 M03 S255 F100
G01 Z0 F300
G01 X99.39 Y98.47 M03 S255 F100
G01 Z0 F300
G01 X94.45 Y98.47 M03 S255 F100
G01 Z0 F300
G01 X94.45 Y101.42 M03 S255 F100
G01 Z0 F300
G01 X89.39 Y101.42 M03 S255 F100
G01 Z0 F300
G01 X89.39 Y98.47 M03 S255 F100
G01 Z0 F300
G01 X84.45 Y98.47 M03 S255 F100
G01 Z0 F300
G01 X84.45 Y101.42 M03 S255 F100
G01 Z0 F300
G01 X79.39 Y101.42 M03 S255 F100
G01 Z0 F300
G01 X79.39 Y98.47 M03 S255 F100
G01 Z0 F300
G01 X74.45 Y98.47 M03 S255 F100
G01 Z0 F300
G01 X74.45 Y101.42 M03 S255 F100
G01 Z0 F300
G01 X69.45 Y101.42 M03 S255 F100
G01 Z0 F300
G01 X69.45 Y24.42 M03 S255 F100
G01 X6.42 Y110.43 M03 S0 F2000
G01 Z0 F300
G01 X6.42 Y105.49 M03 S255 F100
G01 Z0 F300
G01 X3.47 Y105.49 M03 S255 F100
G01 Z0 F300
G01 X3.47 Y100.43 M03 S255 F100
G01 Z0 F300
G01 X6.42 Y100.43 M03 S255 F100
G01 Z0 F300
G01 X6.42 Y95.49 M03 S255 F100
G01 Z0 F300
G01 X3.47 Y95.49 M03 S255 F100
G01 Z0 F300
G01 X3.47 Y90.43 M03 S255 F100
G01 Z0 F300
G01 X6.42 Y90.43 M03 S255 F100
G01 Z0 F300
G01 X6.42 Y85.49 M03 S255 F100
G01 Z0 F300
G01 X3.47 Y85.49 M03 S255 F100
G01 Z0 F300
G01 X3.47 Y80.43 M03 S255 F100
G01 Z0 F300
G01 X6.42 Y80.43 M03 S255 F100
G01 Z0 F300
G01 X6.42 Y75.49 M03 S255 F100
G01 Z0 F300
G01 X6.47 Y75.49 M03 S255 F100
G01 Z0 F300
G01 X10.01 Y75.49 M03 S255 F100
G01 Z0 F300
G01 X56.42 Y75.49 M03 S255 F100
G01 Z0 F300
G01 X56.42 Y89.49 M03 S255 F100
G01 Z0 F300
G01 X16.47 Y89.49 M03 S255 F100
G01 Z0 F300
G01 X16.47 Y96.43 M03 S255 F100
G01 Z0 F300
G01 X56.42 Y96.43 M03 S255 F100
G01 Z0 F300
G01 X56.42 Y110.43 M03 S255 F100
G01 Z0 F300
G01 X10.01 Y110.43 M03 S255 F100
G01 Z0 F300
G01 X6.47 Y110.43 M03 S255 F100
G01 Z0 F300
G01 X6.42 Y110.43 M03 S255 F100
G00 M03 S0
M05
G01 X30.31 Y69.97 M03 S0 F2000
M03 S0
G01 Z0.5 F300
G01 X60.6 Y52.48 M03 S255 F100
G01 Z0.5 F300
G01 X60.6 Y52.46 M03 S255 F100
G01 Z0.5 F300
G01 X63.6 Y52.46 M03 S255 F100
G01 Z0.5 F300
G01 X63.6 Y47.46 M03 S255 F100
G01 Z0.5 F300
G01 X60.65 Y47.46 M03 S255 F100
G01 Z0.5 F300
G01 X60.65 Y42.52 M03 S255 F100
G01 Z0.5 F300
G01 X63.6 Y42.52 M03 S255 F100
G01 Z0.5 F300
G01 X63.6 Y37.46 M03 S255 F100
G01 Z0.5 F300
G01 X60.65 Y37.46 M03 S255 F100
G01 Z0.5 F300
G01 X60.65 Y32.52 M03 S255 F100
G01 Z0.5 F300
G01 X63.6 Y32.52 M03 S255 F100
G01 Z0.5 F300
G01 X63.6 Y27.46 M03 S255 F100
G01 Z0.5 F300
G01 X60.65 Y27.46 M03 S255 F100
G01 Z0.5 F300
G01 X60.65 Y22.52 M03 S255 F100
G01 Z0.5 F300
G01 X63.6 Y22.52 M03 S255 F100
G01 Z0.5 F300
G01 X63.6 Y17.52 M03 S255 F100
G01 Z0.5 F300
G01 X60.6 Y17.52 M03 S255 F100
G01 Z0.5 F300
G01 X30.31 Y0.03 M03 S255 F100
G01 Z0.5 F300
G01 X0.03 Y17.52 M03 S255 F100
G01 Z0.5 F300
G01 X0.03 Y52.48 M03 S255 F100
G01 Z0.5 F300
G01 X30.31 Y69.97 M03 S255 F100
G01 X50.28 Y44.97 M03 S0 F2000
G01 Z0.5 F300
G01 X10.34 Y44.97 M03 S255 F100
G01 Z0.5 F300
G01 X10.34 Y25.03 M03 S255 F100
G01 Z0.5 F300
G01 X50.28 Y25.03 M03 S255 F100
G01 Z0.5 F300
G01 X50.28 Y44.97 M03 S255 F100
G01 X32.23 Y14.49 M03 S0 F2000
G01 Z0.5 F300
G01 X32.29 Y15 M03 S255 F100
G01 X32.03 Y14.03 M03 S0 F2000
G01 Z0.5 F300
G01 X32.23 Y14.49 M03 S255 F100
G01 X31.71 Y13.61 M03 S0 F2000
G01 Z0.5 F300
G01 X32.03 Y14.03 M03 S255 F100
G01 X31.3 Y13.3 M03 S0 F2000
G01 Z0.5 F300
G01 X31.71 Y13.61 M03 S255 F100
G01 X30.83 Y13.1 M03 S0 F2000
G01 Z0.5 F300
G01 X31.3 Y13.3 M03 S255 F100
G01 X30.31 Y13.04 M03 S0 F2000
G01 Z0.5 F300
G01 X30.83 Y13.1 M03 S255 F100
G01 X29.8 Y13.1 M03 S0 F2000
G01 Z0.5 F300
G01 X30.31 Y13.04 M03 S255 F100
G01 X29.33 Y13.3 M03 S0 F2000
G01 Z0.5 F300
G01 X29.8 Y13.1 M03 S255 F100
G01 X28.91 Y13.61 M03 S0 F2000
G01 Z0.5 F300
G01 X29.33 Y13.3 M03 S255 F100
G01 X28.61 Y14.03 M03 S0 F2000
G01 Z0.5 F300
G01 X28.91 Y13.61 M03 S255 F100
G01 X28.41 Y14.49 M03 S0 F2000
G01 Z0.5 F300
G01 X28.61 Y14.03 M03 S255 F100
G01 X28.34 Y15 M03 S0 F2000
G01 Z0.5 F300
G01 X28.41 Y14.49 M03 S255 F100
G01 X28.41 Y15.53 M03 S0 F2000
G01 Z0.5 F300
G01 X28.34 Y15 M03 S255 F100
G01 X28.61 Y15.99 M03 S0 F2000
G01 Z0.5 F300
G01 X28.41 Y15.53 M03 S255 F100
G01 X28.91 Y16.4 M03 S0 F2000
G01 Z0.5 F300
G01 X28.61 Y15.99 M03 S255 F100
G01 X29.33 Y16.71 M03 S0 F2000
G01 Z0.5 F300
G01 X28.91 Y16.4 M03 S255 F100
G01 X29.8 Y16.91 M03 S0 F2000
G01 Z0.5 F300
G01 X29.33 Y16.71 M03 S255 F100
G01 X30.31 Y16.98 M03 S0 F2000
G01 Z0.5 F300
G01 X29.8 Y16.91 M03 S255 F100
G01 X30.83 Y16.91 M03 S0 F2000
G01 Z0.5 F300
G01 X30.31 Y16.98 M03 S255 F100
G01 X31.3 Y16.71 M03 S0 F2000
G01 Z0.5 F300
G01 X30.83 Y16.91 M03 S255 F100
G01 X31.71 Y16.4 M03 S0 F2000
G01 Z0.5 F300
G01 X31.3 Y16.71 M03 S255 F100
G01 X32.03 Y15.99 M03 S0 F2000
G01 Z0.5 F300
G01 X31.71 Y16.4 M03 S255 F100
G01 X32.23 Y15.53 M03 S0 F2000
G01 Z0.5 F300
G01 X32.03 Y15.99 M03 S255 F100
G01 X32.29 Y15 M03 S0 F2000
G01 Z0.5 F300
G01 X32.23 Y15.53 M03 S255 F100
G01 X32.28 Y15 M03 S0 F2000
G01 Z0.5 F300
G01 X32.28 Y15 M03 S255 F100
G01 X32.23 Y54.49 M03 S0 F2000
G01 Z0.5 F300
G01 X32.29 Y55 M03 S255 F100
G01 X32.03 Y54.03 M03 S0 F2000
G01 Z0.5 F300
G01 X32.23 Y54.49 M03 S255 F100
G01 X31.71 Y53.61 M03 S0 F2000
G01 Z0.5 F300
G01 X32.03 Y54.03 M03 S255 F100
G01 X31.3 Y53.3 M03 S0 F2000
G01 Z0.5 F300
G01 X31.71 Y53.61 M03 S255 F100
G01 X30.83 Y53.1 M03 S0 F2000
G01 Z0.5 F300
G01 X31.3 Y53.3 M03 S255 F100
G01 X30.31 Y53.04 M03 S0 F2000
G01 Z0.5 F300
G01 X30.83 Y53.1 M03 S255 F100
G01 X29.8 Y53.1 M03 S0 F2000
G01 Z0.5 F300
G01 X30.31 Y53.04 M03 S255 F100
G01 X29.33 Y53.3 M03 S0 F2000
G01 Z0.5 F300
G01 X29.8 Y53.1 M03 S255 F100
G01 X28.91 Y53.61 M03 S0 F2000
G01 Z0.5 F300
G01 X29.33 Y53.3 M03 S255 F100
G01 X28.61 Y54.03 M03 S0 F2000
G01 Z0.5 F300
G01 X28.91 Y53.61 M03 S255 F100
G01 X28.41 Y54.49 M03 S0 F2000
G01 Z0.5 F300
G01 X28.61 Y54.03 M03 S255 F100
G01 X28.34 Y55 M03 S0 F2000
G01 Z0.5 F300
G01 X28.41 Y54.49 M03 S255 F100
G01 X28.41 Y55.53 M03 S0 F2000
G01 Z0.5 F300
G01 X28.34 Y55 M03 S255 F100
G01 X28.61 Y55.99 M03 S0 F2000
G01 Z0.5 F300
G01 X28.41 Y55.53 M03 S255 F100
G01 X28.91 Y56.4 M03 S0 F2000
G01 Z0.5 F300
G01 X28.61 Y55.99 M03 S255 F100
G01 X29.33 Y56.71 M03 S0 F2000
G01 Z0.5 F300
G01 X28.91 Y56.4 M03 S255 F100
G01 X29.8 Y56.91 M03 S0 F2000
G01 Z0.5 F300
G01 X29.33 Y56.71 M03 S255 F100
G01 X30.31 Y56.98 M03 S0 F2000
G01 Z0.5 F300
G01 X29.8 Y56.91 M03 S255 F100
G01 X30.83 Y56.91 M03 S0 F2000
G01 Z0.5 F300
G01 X30.31 Y56.98 M03 S255 F100
G01 X31.3 Y56.71 M03 S0 F2000
G01 Z0.5 F300
G01 X30.83 Y56.91 M03 S255 F100
G01 X31.71 Y56.4 M03 S0 F2000
G01 Z0.5 F300
G01 X31.3 Y56.71 M03 S255 F100
G01 X32.03 Y55.99 M03 S0 F2000
G01 Z0.5 F300
G01 X31.71 Y56.4 M03 S255 F100
G01 X32.23 Y55.53 M03 S0 F2000
G01 Z0.5 F300
G01 X32.03 Y55.99 M03 S255 F100
G01 X32.29 Y55 M03 S0 F2000
G01 Z0.5 F300
G01 X32.23 Y55.53 M03 S255 F100
G01 X32.28 Y55 M03 S0 F2000
G01 Z0.5 F300
G01 X32.28 Y55 M03 S255 F100
G01 X7.64 Y34.49 M03 S0 F2000
G01 Z0.5 F300
G01 X7.7 Y35 M03 S255 F100
G01 X7.44 Y34.03 M03 S0 F2000
G01 Z0.5 F300
G01 X7.64 Y34.49 M03 S255 F100
G01 X7.13 Y33.61 M03 S0 F2000
G01 Z0.5 F300
G01 X7.44 Y34.03 M03 S255 F100
G01 X6.71 Y33.3 M03 S0 F2000
G01 Z0.5 F300
G01 X7.13 Y33.61 M03 S255 F100
G01 X6.24 Y33.1 M03 S0 F2000
G01 Z0.5 F300
G01 X6.71 Y33.3 M03 S255 F100
G01 X5.73 Y33.04 M03 S0 F2000
G01 Z0.5 F300
G01 X6.24 Y33.1 M03 S255 F100
G01 X5.21 Y33.1 M03 S0 F2000
G01 Z0.5 F300
G01 X5.73 Y33.04 M03 S255 F100
G01 X4.74 Y33.3 M03 S0 F2000
G01 Z0.5 F300
G01 X5.21 Y33.1 M03 S255 F100
G01 X4.33 Y33.61 M03 S0 F2000
G01 Z0.5 F300
G01 X4.74 Y33.3 M03 S255 F100
G01 X4.03 Y34.03 M03 S0 F2000
G01 Z0.5 F300
G01 X4.33 Y33.61 M03 S255 F100
G01 X3.83 Y34.49 M03 S0 F2000
G01 Z0.5 F300
G01 X4.03 Y34.03 M03 S255 F100
G01 X3.75 Y35 M03 S0 F2000
G01 Z0.5 F300
G01 X3.83 Y34.49 M03 S255 F100
G01 X3.83 Y35.53 M03 S0 F2000
G01 Z0.5 F300
G01 X3.75 Y35 M03 S255 F100
G01 X4.03 Y35.99 M03 S0 F2000
G01 Z0.5 F300
G01 X3.83 Y35.53 M03 S255 F100
G01 X4.33 Y36.4 M03 S0 F2000
G01 Z0.5 F300
G01 X4.03 Y35.99 M03 S255 F100
G01 X4.74 Y36.71 M03 S0 F2000
G01 Z0.5 F300
G01 X4.33 Y36.4 M03 S255 F100
G01 X5.21 Y36.91 M03 S0 F2000
G01 Z0.5 F300
G01 X4.74 Y36.71 M03 S255 F100
G01 X5.73 Y36.98 M03 S0 F2000
G01 Z0.5 F300
G01 X5.21 Y36.91 M03 S255 F100
G01 X6.24 Y36.91 M03 S0 F2000
G01 Z0.5 F300
G01 X5.73 Y36.98 M03 S255 F100
G01 X6.71 Y36.71 M03 S0 F2000
G01 Z0.5 F300
G01 X6.24 Y36.91 M03 S255 F100
G01 X7.13 Y36.4 M03 S0 F2000
G01 Z0.5 F300
G01 X6.71 Y36.71 M03 S255 F100
G01 X7.44 Y35.99 M03 S0 F2000
G01 Z0.5 F300
G01 X7.13 Y36.4 M03 S255 F100
G01 X7.64 Y35.53 M03 S0 F2000
G01 Z0.5 F300
G01 X7.44 Y35.99 M03 S255 F100
G01 X7.7 Y35 M03 S0 F2000
G01 Z0.5 F300
G01 X7.64 Y35.53 M03 S255 F100
G01 X7.7 Y35 M03 S0 F2000
G01 Z0.5 F300
G01 X7.7 Y35 M03 S255 F100
G01 X56.7 Y34.49 M03 S0 F2000
G01 Z0.5 F300
G01 X56.76 Y35 M03 S255 F100
G01 X56.5 Y34.03 M03 S0 F2000
G01 Z0.5 F300
G01 X56.7 Y34.49 M03 S255 F100
G01 X56.19 Y33.61 M03 S0 F2000
G01 Z0.5 F300
G01 X56.5 Y34.03 M03 S255 F100
G01 X55.78 Y33.3 M03 S0 F2000
G01 Z0.5 F300
G01 X56.19 Y33.61 M03 S255 F100
G01 X55.3 Y33.1 M03 S0 F2000
G01 Z0.5 F300
G01 X55.78 Y33.3 M03 S255 F100
G01 X54.79 Y33.04 M03 S0 F2000
G01 Z0.5 F300
G01 X55.3 Y33.1 M03 S255 F100
G01 X54.28 Y33.1 M03 S0 F2000
G01 Z0.5 F300
G01 X54.79 Y33.04 M03 S255 F100
G01 X53.8 Y33.3 M03 S0 F2000
G01 Z0.5 F300
G01 X54.28 Y33.1 M03 S255 F100
G01 X53.39 Y33.61 M03 S0 F2000
G01 Z0.5 F300
G01 X53.8 Y33.3 M03 S255 F100
G01 X53.08 Y34.03 M03 S0 F2000
G01 Z0.5 F300
G01 X53.39 Y33.61 M03 S255 F100
G01 X52.88 Y34.49 M03 S0 F2000
G01 Z0.5 F300
G01 X53.08 Y34.03 M03 S255 F100
G01 X52.81 Y35 M03 S0 F2000
G01 Z0.5 F300
G01 X52.88 Y34.49 M03 S255 F100
G01 X52.88 Y35.53 M03 S0 F2000
G01 Z0.5 F300
G01 X52.81 Y35 M03 S255 F100
G01 X53.08 Y35.99 M03 S0 F2000
G01 Z0.5 F300
G01 X52.88 Y35.53 M03 S255 F100
G01 X53.39 Y36.4 M03 S0 F2000
G01 Z0.5 F300
G01 X53.08 Y35.99 M03 S255 F100
G01 X53.8 Y36.71 M03 S0 F2000
G01 Z0.5 F300
G01 X53.39 Y36.4 M03 S255 F100
G01 X54.28 Y36.91 M03 S0 F2000
G01 Z0.5 F300
G01 X53.8 Y36.71 M03 S255 F100
G01 X54.79 Y36.98 M03 S0 F2000
G01 Z0.5 F300
G01 X54.28 Y36.91 M03 S255 F100
G01 X55.3 Y36.91 M03 S0 F2000
G01 Z0.5 F300
G01 X54.79 Y36.98 M03 S255 F100
G01 X55.78 Y36.71 M03 S0 F2000
G01 Z0.5 F300
G01 X55.3 Y36.91 M03 S255 F100
G01 X56.19 Y36.4 M03 S0 F2000
G01 Z0.5 F300
G01 X55.78 Y36.71 M03 S255 F100
G01 X56.5 Y35.99 M03 S0 F2000
G01 Z0.5 F300
G01 X56.19 Y36.4 M03 S255 F100
G01 X56.7 Y35.53 M03 S0 F2000
G01 Z0.5 F300
G01 X56.5 Y35.99 M03 S255 F100
G01 X56.76 Y35 M03 S0 F2000
G01 Z0.5 F300
G01 X56.7 Y35.53 M03 S255 F100
G01 X56.76 Y35 M03 S0 F2000
G01 Z0.5 F300
G01 X56.76 Y35 M03 S255 F100
G01 X69.45 Y24.42 M03 S0 F2000
G01 Z0.5 F300
G01 X74.39 Y24.42 M03 S255 F100
G01 Z0.5 F300
G01 X74.39 Y21.47 M03 S255 F100
G01 Z0.5 F300
G01 X79.45 Y21.47 M03 S255 F100
G01 Z0.5 F300
G01 X79.45 Y24.42 M03 S255 F100
G01 Z0.5 F300
G01 X84.39 Y24.42 M03 S255 F100
G01 Z0.5 F300
G01 X84.39 Y21.47 M03 S255 F100
G01 Z0.5 F300
G01 X89.45 Y21.47 M03 S255 F100
G01 Z0.5 F300
G01 X89.45 Y24.42 M03 S255 F100
G01 Z0.5 F300
G01 X94.39 Y24.42 M03 S255 F100
G01 Z0.5 F300
G01 X94.39 Y21.47 M03 S255 F100
G01 Z0.5 F300
G01 X99.45 Y21.47 M03 S255 F100
G01 Z0.5 F300
G01 X99.45 Y24.42 M03 S255 F100
G01 Z0.5 F300
G01 X104.39 Y24.42 M03 S255 F100
G01 Z0.5 F300
G01 X104.39 Y101.42 M03 S255 F100
G01 Z0.5 F300
G01 X99.39 Y101.42 M03 S255 F100
G01 Z0.5 F300
G01 X99.39 Y98.47 M03 S255 F100
G01 Z0.5 F300
G01 X94.45 Y98.47 M03 S255 F100
G01 Z0.5 F300
G01 X94.45 Y101.42 M03 S255 F100
G01 Z0.5 F300
G01 X89.39 Y101.42 M03 S255 F100
G01 Z0.5 F300
G01 X89.39 Y98.47 M03 S255 F100
G01 Z0.5 F300
G01 X84.45 Y98.47 M03 S255 F100
G01 Z0.5 F300
G01 X84.45 Y101.42 M03 S255 F100
G01 Z0.5 F300
G01 X79.39 Y101.42 M03 S255 F100
G01 Z0.5 F300
G01 X79.39 Y98.47 M03 S255 F100
G01 Z0.5 F300
G01 X74.45 Y98.47 M03 S255 F100
G01 Z0.5 F300
G01 X74.45 Y101.42 M03 S255 F100
G01 Z0.5 F300
G01 X69.45 Y101.42 M03 S255 F100
G01 Z0.5 F300
G01 X69.45 Y24.42 M03 S255 F100
G01 X6.42 Y110.43 M03 S0 F2000
G01 Z0.5 F300
G01 X6.42 Y105.49 M03 S255 F100
G01 Z0.5 F300
G01 X3.47 Y105.49 M03 S255 F100
G01 Z0.5 F300
G01 X3.47 Y100.43 M03 S255 F100
G01 Z0.5 F300
G01 X6.42 Y100.43 M03 S255 F100
G01 Z0.5 F300
G01 X6.42 Y95.49 M03 S255 F100
G01 Z0.5 F300
G01 X3.47 Y95.49 M03 S255 F100
G01 Z0.5 F300
G01 X3.47 Y90.43 M03 S255 F100
G01 Z0.5 F300
G01 X6.42 Y90.43 M03 S255 F100
G01 Z0.5 F300
G01 X6.42 Y85.49 M03 S255 F100
G01 Z0.5 F300
G01 X3.47 Y85.49 M03 S255 F100
G01 Z0.5 F300
G01 X3.47 Y80.43 M03 S255 F100
G01 Z0.5 F300
G01 X6.42 Y80.43 M03 S255 F100
G01 Z0.5 F300
G01 X6.42 Y75.49 M03 S255 F100
G01 Z0.5 F300
G01 X6.47 Y75.49 M03 S255 F100
G01 Z0.5 F300
G01 X10.01 Y75.49 M03 S255 F100
G01 Z0.5 F300
G01 X56.42 Y75.49 M03 S255 F100
G01 Z0.5 F300
G01 X56.42 Y89.49 M03 S255 F100
G01 Z0.5 F300
G01 X16.47 Y89.49 M03 S255 F100
G01 Z0.5 F300
G01 X16.47 Y96.43 M03 S255 F100
G01 Z0.5 F300
G01 X56.42 Y96.43 M03 S255 F100
G01 Z0.5 F300
G01 X56.42 Y110.43 M03 S255 F100
G01 Z0.5 F300
G01 X10.01 Y110.43 M03 S255 F100
G01 Z0.5 F300
G01 X6.47 Y110.43 M03 S255 F100
G01 Z0.5 F300
G01 X6.42 Y110.43 M03 S255 F100
G00 M03 S0
M05
G01 X30.31 Y69.97 M03 S0 F2000
M03 S0
G01 Z1 F300
G01 X60.6 Y52.48 M03 S255 F100
G01 Z1 F300
G01 X60.6 Y52.46 M03 S255 F100
G01 Z1 F300
G01 X63.6 Y52.46 M03 S255 F100
G01 Z1 F300
G01 X63.6 Y47.46 M03 S255 F100
G01 Z1 F300
G01 X60.65 Y47.46 M03 S255 F100
G01 Z1 F300
G01 X60.65 Y42.52 M03 S255 F100
G01 Z1 F300
G01 X63.6 Y42.52 M03 S255 F100
G01 Z1 F300
G01 X63.6 Y37.46 M03 S255 F100
G01 Z1 F300
G01 X60.65 Y37.46 M03 S255 F100
G01 Z1 F300
G01 X60.65 Y32.52 M03 S255 F100
G01 Z1 F300
G01 X63.6 Y32.52 M03 S255 F100
G01 Z1 F300
G01 X63.6 Y27.46 M03 S255 F100
G01 Z1 F300
G01 X60.65 Y27.46 M03 S255 F100
G01 Z1 F300
G01 X60.65 Y22.52 M03 S255 F100
G01 Z1 F300
G01 X63.6 Y22.52 M03 S255 F100
G01 Z1 F300
G01 X63.6 Y17.52 M03 S255 F100
G01 Z1 F300
G01 X60.6 Y17.52 M03 S255 F100
G01 Z1 F300
G01 X30.31 Y0.03 M03 S255 F100
G01 Z1 F300
G01 X0.03 Y17.52 M03 S255 F100
G01 Z1 F300
G01 X0.03 Y52.48 M03 S255 F100
G01 Z1 F300
G01 X30.31 Y69.97 M03 S255 F100
G01 X50.28 Y44.97 M03 S0 F2000
G01 Z1 F300
G01 X10.34 Y44.97 M03 S255 F100
G01 Z1 F300
G01 X10.34 Y25.03 M03 S255 F100
G01 Z1 F300
G01 X50.28 Y25.03 M03 S255 F100
G01 Z1 F300
G01 X50.28 Y44.97 M03 S255 F100
G01 X32.23 Y14.49 M03 S0 F2000
G01 Z1 F300
G01 X32.29 Y15 M03 S255 F100
G01 X32.03 Y14.03 M03 S0 F2000
G01 Z1 F300
G01 X32.23 Y14.49 M03 S255 F100
G01 X31.71 Y13.61 M03 S0 F2000
G01 Z1 F300
G01 X32.03 Y14.03 M03 S255 F100
G01 X31.3 Y13.3 M03 S0 F2000
G01 Z1 F300
G01 X31.71 Y13.61 M03 S255 F100
G01 X30.83 Y13.1 M03 S0 F2000
G01 Z1 F300
G01 X31.3 Y13.3 M03 S255 F100
G01 X30.31 Y13.04 M03 S0 F2000
G01 Z1 F300
G01 X30.83 Y13.1 M03 S255 F100
G01 X29.8 Y13.1 M03 S0 F2000
G01 Z1 F300
G01 X30.31 Y13.04 M03 S255 F100
G01 X29.33 Y13.3 M03 S0 F2000
G01 Z1 F300
G01 X29.8 Y13.1 M03 S255 F100
G01 X28.91 Y13.61 M03 S0 F2000
G01 Z1 F300
G01 X29.33 Y13.3 M03 S255 F100
G01 X28.61 Y14.03 M03 S0 F2000
G01 Z1 F300
G01 X28.91 Y13.61 M03 S255 F100
G01 X28.41 Y14.49 M03 S0 F2000
G01 Z1 F300
G01 X28.61 Y14.03 M03 S255 F100
G01 X28.34 Y15 M03 S0 F2000
G01 Z1 F300
G01 X28.41 Y14.49 M03 S255 F100
G01 X28.41 Y15.53 M03 S0 F2000
G01 Z1 F300
G01 X28.34 Y15 M03 S255 F100
G01 X28.61 Y15.99 M03 S0 F2000
G01 Z1 F300
G01 X28.41 Y15.53 M03 S255 F100
G01 X28.91 Y16.4 M03 S0 F2000
G01 Z1 F300
G01 X28.61 Y15.99 M03 S255 F100
G01 X29.33 Y16.71 M03 S0 F2000
G01 Z1 F300
G01 X28.91 Y16.4 M03 S255 F100
G01 X29.8 Y16.91 M03 S0 F2000
G01 Z1 F300
G01 X29.33 Y16.71 M03 S255 F100
G01 X30.31 Y16.98 M03 S0 F2000
G01 Z1 F300
G01 X29.8 Y16.91 M03 S255 F100
G01 X30.83 Y16.91 M03 S0 F2000
G01 Z1 F300
G01 X30.31 Y16.98 M03 S255 F100
G01 X31.3 Y16.71 M03 S0 F2000
G01 Z1 F300
G01 X30.83 Y16.91 M03 S255 F100
G01 X31.71 Y16.4 M03 S0 F2000
G01 Z1 F300
G01 X31.3 Y16.71 M03 S255 F100
G01 X32.03 Y15.99 M03 S0 F2000
G01 Z1 F300
G01 X31.71 Y16.4 M03 S255 F100
G01 X32.23 Y15.53 M03 S0 F2000
G01 Z1 F300
G01 X32.03 Y15.99 M03 S255 F100
G01 X32.29 Y15 M03 S0 F2000
G01 Z1 F300
G01 X32.23 Y15.53 M03 S255 F100
G01 X32.28 Y15 M03 S0 F2000
G01 Z1 F300
G01 X32.28 Y15 M03 S255 F100
G01 X32.23 Y54.49 M03 S0 F2000
G01 Z1 F300
G01 X32.29 Y55 M03 S255 F100
G01 X32.03 Y54.03 M03 S0 F2000
G01 Z1 F300
G01 X32.23 Y54.49 M03 S255 F100
G01 X31.71 Y53.61 M03 S0 F2000
G01 Z1 F300
G01 X32.03 Y54.03 M03 S255 F100
G01 X31.3 Y53.3 M03 S0 F2000
G01 Z1 F300
G01 X31.71 Y53.61 M03 S255 F100
G01 X30.83 Y53.1 M03 S0 F2000
G01 Z1 F300
G01 X31.3 Y53.3 M03 S255 F100
G01 X30.31 Y53.04 M03 S0 F2000
G01 Z1 F300
G01 X30.83 Y53.1 M03 S255 F100
G01 X29.8 Y53.1 M03 S0 F2000
G01 Z1 F300
G01 X30.31 Y53.04 M03 S255 F100
G01 X29.33 Y53.3 M03 S0 F2000
G01 Z1 F300
G01 X29.8 Y53.1 M03 S255 F100
G01 X28.91 Y53.61 M03 S0 F2000
G01 Z1 F300
G01 X29.33 Y53.3 M03 S255 F100
G01 X28.61 Y54.03 M03 S0 F2000
G01 Z1 F300
G01 X28.91 Y53.61 M03 S255 F100
G01 X28.41 Y54.49 M03 S0 F2000
G01 Z1 F300
G01 X28.61 Y54.03 M03 S255 F100
G01 X28.34 Y55 M03 S0 F2000
G01 Z1 F300
G01 X28.41 Y54.49 M03 S255 F100
G01 X28.41 Y55.53 M03 S0 F2000
G01 Z1 F300
G01 X28.34 Y55 M03 S255 F100
G01 X28.61 Y55.99 M03 S0 F2000
G01 Z1 F300
G01 X28.41 Y55.53 M03 S255 F100
G01 X28.91 Y56.4 M03 S0 F2000
G01 Z1 F300
G01 X28.61 Y55.99 M03 S255 F100
G01 X29.33 Y56.71 M03 S0 F2000
G01 Z1 F300
G01 X28.91 Y56.4 M03 S255 F100
G01 X29.8 Y56.91 M03 S0 F2000
G01 Z1 F300
G01 X29.33 Y56.71 M03 S255 F100
G01 X30.31 Y56.98 M03 S0 F2000
G01 Z1 F300
G01 X29.8 Y56.91 M03 S255 F100
G01 X30.83 Y56.91 M03 S0 F2000
G01 Z1 F300
G01 X30.31 Y56.98 M03 S255 F100
G01 X31.3 Y56.71 M03 S0 F2000
G01 Z1 F300
G01 X30.83 Y56.91 M03 S255 F100
G01 X31.71 Y56.4 M03 S0 F2000
G01 Z1 F300
G01 X31.3 Y56.71 M03 S255 F100
G01 X32.03 Y55.99 M03 S0 F2000
G01 Z1 F300
G01 X31.71 Y56.4 M03 S255 F100
G01 X32.23 Y55.53 M03 S0 F2000
G01 Z1 F300
G01 X32.03 Y55.99 M03 S255 F100
G01 X32.29 Y55 M03 S0 F2000
G01 Z1 F300
G01 X32.23 Y55.53 M03 S255 F100
G01 X32.28 Y55 M03 S0 F2000
G01 Z1 F300
G01 X32.28 Y55 M03 S255 F100
G01 X7.64 Y34.49 M03 S0 F2000
G01 Z1 F300
G01 X7.7 Y35 M03 S255 F100
G01 X7.44 Y34.03 M03 S0 F2000
G01 Z1 F300
G01 X7.64 Y34.49 M03 S255 F100
G01 X7.13 Y33.61 M03 S0 F2000
G01 Z1 F300
G01 X7.44 Y34.03 M03 S255 F100
G01 X6.71 Y33.3 M03 S0 F2000
G01 Z1 F300
G01 X7.13 Y33.61 M03 S255 F100
G01 X6.24 Y33.1 M03 S0 F2000
G01 Z1 F300
G01 X6.71 Y33.3 M03 S255 F100
G01 X5.73 Y33.04 M03 S0 F2000
G01 Z1 F300
G01 X6.24 Y33.1 M03 S255 F100
G01 X5.21 Y33.1 M03 S0 F2000
G01 Z1 F300
G01 X5.73 Y33.04 M03 S255 F100
G01 X4.74 Y33.3 M03 S0 F2000
G01 Z1 F300
G01 X5.21 Y33.1 M03 S255 F100
G01 X4.33 Y33.61 M03 S0 F2000
G01 Z1 F300
G01 X4.74 Y33.3 M03 S255 F100
G01 X4.03 Y34.03 M03 S0 F2000
G01 Z1 F300
G01 X4.33 Y33.61 M03 S255 F100
G01 X3.83 Y34.49 M03 S0 F2000
G01 Z1 F300
G01 X4.03 Y34.03 M03 S255 F100
G01 X3.75 Y35 M03 S0 F2000
G01 Z1 F300
G01 X3.83 Y34.49 M03 S255 F100
G01 X3.83 Y35.53 M03 S0 F2000
G01 Z1 F300
G01 X3.75 Y35 M03 S255 F100
G01 X4.03 Y35.99 M03 S0 F2000
G01 Z1 F300
G01 X3.83 Y35.53 M03 S255 F100
G01 X4.33 Y36.4 M03 S0 F2000
G01 Z1 F300
G01 X4.03 Y35.99 M03 S255 F100
G01 X4.74 Y36.71 M03 S0 F2000
G01 Z1 F300
G01 X4.33 Y36.4 M03 S255 F100
G01 X5.21 Y36.91 M03 S0 F2000
G01 Z1 F300
G01 X4.74 Y36.71 M03 S255 F100
G01 X5.73 Y36.98 M03 S0 F2000
G01 Z1 F300
G01 X5.21 Y36.91 M03 S255 F100
G01 X6.24 Y36.91 M03 S0 F2000
G01 Z1 F300
G01 X5.73 Y36.98 M03 S255 F100
G01 X6.71 Y36.71 M03 S0 F2000
G01 Z1 F300
G01 X6.24 Y36.91 M03 S255 F100
G01 X7.13 Y36.4 M03 S0 F2000
G01 Z1 F300
G01 X6.71 Y36.71 M03 S255 F100
G01 X7.44 Y35.99 M03 S0 F2000
G01 Z1 F300
G01 X7.13 Y36.4 M03 S255 F100
G01 X7.64 Y35.53 M03 S0 F2000
G01 Z1 F300
G01 X7.44 Y35.99 M03 S255 F100
G01 X7.7 Y35 M03 S0 F2000
G01 Z1 F300
G01 X7.64 Y35.53 M03 S255 F100
G01 X7.7 Y35 M03 S0 F2000
G01 Z1 F300
G01 X7.7 Y35 M03 S255 F100
G01 X56.7 Y34.49 M03 S0 F2000
G01 Z1 F300
G01 X56.76 Y35 M03 S255 F100
G01 X56.5 Y34.03 M03 S0 F2000
G01 Z1 F300
G01 X56.7 Y34.49 M03 S255 F100
G01 X56.19 Y33.61 M03 S0 F2000
G01 Z1 F300
G01 X56.5 Y34.03 M03 S255 F100
G01 X55.78 Y33.3 M03 S0 F2000
G01 Z1 F300
G01 X56.19 Y33.61 M03 S255 F100
G01 X55.3 Y33.1 M03 S0 F2000
G01 Z1 F300
G01 X55.78 Y33.3 M03 S255 F100
G01 X54.79 Y33.04 M03 S0 F2000
G01 Z1 F300
G01 X55.3 Y33.1 M03 S255 F100
G01 X54.28 Y33.1 M03 S0 F2000
G01 Z1 F300
G01 X54.79 Y33.04 M03 S255 F100
G01 X53.8 Y33.3 M03 S0 F2000
G01 Z1 F300
G01 X54.28 Y33.1 M03 S255 F100
G01 X53.39 Y33.61 M03 S0 F2000
G01 Z1 F300
G01 X53.8 Y33.3 M03 S255 F100
G01 X53.08 Y34.03 M03 S0 F2000
G01 Z1 F300
G01 X53.39 Y33.61 M03 S255 F100
G01 X52.88 Y34.49 M03 S0 F2000
G01 Z1 F300
G01 X53.08 Y34.03 M03 S255 F100
G01 X52.81 Y35 M03 S0 F2000
G01 Z1 F300
G01 X52.88 Y34.49 M03 S255 F100
G01 X52.88 Y35.53 M03 S0 F2000
G01 Z1 F300
G01 X52.81 Y35 M03 S255 F100
G01 X53.08 Y35.99 M03 S0 F2000
G01 Z1 F300
G01 X52.88 Y35.53 M03 S255 F100
G01 X53.39 Y36.4 M03 S0 F2000
G01 Z1 F300
G01 X53.08 Y35.99 M03 S255 F100
G01 X53.8 Y36.71 M03 S0 F2000
G01 Z1 F300
G01 X53.39 Y36.4 M03 S255 F100
G01 X54.28 Y36.91 M03 S0 F2000
G01 Z1 F300
G01 X53.8 Y36.71 M03 S255 F100
G01 X54.79 Y36.98 M03 S0 F2000
G01 Z1 F300
G01 X54.28 Y36.91 M03 S255 F100
G01 X55.3 Y36.91 M03 S0 F2000
G01 Z1 F300
G01 X54.79 Y36.98 M03 S255 F100
G01 X55.78 Y36.71 M03 S0 F2000
G01 Z1 F300
G01 X55.3 Y36.91 M03 S255 F100
G01 X56.19 Y36.4 M03 S0 F2000
G01 Z1 F300
G01 X55.78 Y36.71 M03 S255 F100
G01 X56.5 Y35.99 M03 S0 F2000
G01 Z1 F300
G01 X56.19 Y36.4 M03 S255 F100
G01 X56.7 Y35.53 M03 S0 F2000
G01 Z1 F300
G01 X56.5 Y35.99 M03 S255 F100
G01 X56.76 Y35 M03 S0 F2000
G01 Z1 F300
G01 X56.7 Y35.53 M03 S255 F100
G01 X56.76 Y35 M03 S0 F2000
G01 Z1 F300
G01 X56.76 Y35 M03 S255 F100
G01 X69.45 Y24.42 M03 S0 F2000
G01 Z1 F300
G01 X74.39 Y24.42 M03 S255 F100
G01 Z1 F300
G01 X74.39 Y21.47 M03 S255 F100
G01 Z1 F300
G01 X79.45 Y21.47 M03 S255 F100
G01 Z1 F300
G01 X79.45 Y24.42 M03 S255 F100
G01 Z1 F300
G01 X84.39 Y24.42 M03 S255 F100
G01 Z1 F300
G01 X84.39 Y21.47 M03 S255 F100
G01 Z1 F300
G01 X89.45 Y21.47 M03 S255 F100
G01 Z1 F300
G01 X89.45 Y24.42 M03 S255 F100
G01 Z1 F300
G01 X94.39 Y24.42 M03 S255 F100
G01 Z1 F300
G01 X94.39 Y21.47 M03 S255 F100
G01 Z1 F300
G01 X99.45 Y21.47 M03 S255 F100
G01 Z1 F300
G01 X99.45 Y24.42 M03 S255 F100
G01 Z1 F300
G01 X104.39 Y24.42 M03 S255 F100
G01 Z1 F300
G01 X104.39 Y101.42 M03 S255 F100
G01 Z1 F300
G01 X99.39 Y101.42 M03 S255 F100
G01 Z1 F300
G01 X99.39 Y98.47 M03 S255 F100
G01 Z1 F300
G01 X94.45 Y98.47 M03 S255 F100
G01 Z1 F300
G01 X94.45 Y101.42 M03 S255 F100
G01 Z1 F300
G01 X89.39 Y101.42 M03 S255 F100
G01 Z1 F300
G01 X89.39 Y98.47 M03 S255 F100
G01 Z1 F300
G01 X84.45 Y98.47 M03 S255 F100
G01 Z1 F300
G01 X84.45 Y101.42 M03 S255 F100
G01 Z1 F300
G01 X79.39 Y101.42 M03 S255 F100
G01 Z1 F300
G01 X79.39 Y98.47 M03 S255 F100
G01 Z1 F300
G01 X74.45 Y98.47 M03 S255 F100
G01 Z1 F300
G01 X74.45 Y101.42 M03 S255 F100
G01 Z1 F300
G01 X69.45 Y101.42 M03 S255 F100
G01 Z1 F300
G01 X69.45 Y24.42 M03 S255 F100
G01 X6.42 Y110.43 M03 S0 F2000
G01 Z1 F300
G01 X6.42 Y105.49 M03 S255 F100
G01 Z1 F300
G01 X3.47 Y105.49 M03 S255 F100
G01 Z1 F300
G01 X3.47 Y100.43 M03 S255 F100
G01 Z1 F300
G01 X6.42 Y100.43 M03 S255 F100
G01 Z1 F300
G01 X6.42 Y95.49 M03 S255 F100
G01 Z1 F300
G01 X3.47 Y95.49 M03 S255 F100
G01 Z1 F300
G01 X3.47 Y90.43 M03 S255 F100
G01 Z1 F300
G01 X6.42 Y90.43 M03 S255 F100
G01 Z1 F300
G01 X6.42 Y85.49 M03 S255 F100
G01 Z1 F300
G01 X3.47 Y85.49 M03 S255 F100
G01 Z1 F300
G01 X3.47 Y80.43 M03 S255 F100
G01 Z1 F300
G01 X6.42 Y80.43 M03 S255 F100
G01 Z1 F300
G01 X6.42 Y75.49 M03 S255 F100
G01 Z1 F300
G01 X6.47 Y75.49 M03 S255 F100
G01 Z1 F300
G01 X10.01 Y75.49 M03 S255 F100
G01 Z1 F300
G01 X56.42 Y75.49 M03 S255 F100
G01 Z1 F300
G01 X56.42 Y89.49 M03 S255 F100
G01 Z1 F300
G01 X16.47 Y89.49 M03 S255 F100
G01 Z1 F300
G01 X16.47 Y96.43 M03 S255 F100
G01 Z1 F300
G01 X56.42 Y96.43 M03 S255 F100
G01 Z1 F300
G01 X56.42 Y110.43 M03 S255 F100
G01 Z1 F300
G01 X10.01 Y110.43 M03 S255 F100
G01 Z1 F300
G01 X6.47 Y110.43 M03 S255 F100
G01 Z1 F300
G01 X6.42 Y110.43 M03 S255 F100
G00 M03 S0
M05
G01 X30.31 Y69.97 M03 S0 F2000
M03 S0
G01 Z1.5 F300
G01 X60.6 Y52.48 M03 S255 F100
G01 Z1.5 F300
G01 X60.6 Y52.46 M03 S255 F100
G01 Z1.5 F300
G01 X63.6 Y52.46 M03 S255 F100
G01 Z1.5 F300
G01 X63.6 Y47.46 M03 S255 F100
G01 Z1.5 F300
G01 X60.65 Y47.46 M03 S255 F100
G01 Z1.5 F300
G01 X60.65 Y42.52 M03 S255 F100
G01 Z1.5 F300
G01 X63.6 Y42.52 M03 S255 F100
G01 Z1.5 F300
G01 X63.6 Y37.46 M03 S255 F100
G01 Z1.5 F300
G01 X60.65 Y37.46 M03 S255 F100
G01 Z1.5 F300
G01 X60.65 Y32.52 M03 S255 F100
G01 Z1.5 F300
G01 X63.6 Y32.52 M03 S255 F100
G01 Z1.5 F300
G01 X63.6 Y27.46 M03 S255 F100
G01 Z1.5 F300
G01 X60.65 Y27.46 M03 S255 F100
G01 Z1.5 F300
G01 X60.65 Y22.52 M03 S255 F100
G01 Z1.5 F300
G01 X63.6 Y22.52 M03 S255 F100
G01 Z1.5 F300
G01 X63.6 Y17.52 M03 S255 F100
G01 Z1.5 F300
G01 X60.6 Y17.52 M03 S255 F100
G01 Z1.5 F300
G01 X30.31 Y0.03 M03 S255 F100
G01 Z1.5 F300
G01 X0.03 Y17.52 M03 S255 F100
G01 Z1.5 F300
G01 X0.03 Y52.48 M03 S255 F100
G01 Z1.5 F300
G01 X30.31 Y69.97 M03 S255 F100
G01 X50.28 Y44.97 M03 S0 F2000
G01 Z1.5 F300
G01 X10.34 Y44.97 M03 S255 F100
G01 Z1.5 F300
G01 X10.34 Y25.03 M03 S255 F100
G01 Z1.5 F300
G01 X50.28 Y25.03 M03 S255 F100
G01 Z1.5 F300
G01 X50.28 Y44.97 M03 S255 F100
G01 X32.23 Y14.49 M03 S0 F2000
G01 Z1.5 F300
G01 X32.29 Y15 M03 S255 F100
G01 X32.03 Y14.03 M03 S0 F2000
G01 Z1.5 F300
G01 X32.23 Y14.49 M03 S255 F100
G01 X31.71 Y13.61 M03 S0 F2000
G01 Z1.5 F300
G01 X32.03 Y14.03 M03 S255 F100
G01 X31.3 Y13.3 M03 S0 F2000
G01 Z1.5 F300
G01 X31.71 Y13.61 M03 S255 F100
G01 X30.83 Y13.1 M03 S0 F2000
G01 Z1.5 F300
G01 X31.3 Y13.3 M03 S255 F100
G01 X30.31 Y13.04 M03 S0 F2000
G01 Z1.5 F300
G01 X30.83 Y13.1 M03 S255 F100
G01 X29.8 Y13.1 M03 S0 F2000
G01 Z1.5 F300
G01 X30.31 Y13.04 M03 S255 F100
G01 X29.33 Y13.3 M03 S0 F2000
G01 Z1.5 F300
G01 X29.8 Y13.1 M03 S255 F100
G01 X28.91 Y13.61 M03 S0 F2000
G01 Z1.5 F300
G01 X29.33 Y13.3 M03 S255 F100
G01 X28.61 Y14.03 M03 S0 F2000
G01 Z1.5 F300
G01 X28.91 Y13.61 M03 S255 F100
G01 X28.41 Y14.49 M03 S0 F2000
G01 Z1.5 F300
G01 X28.61 Y14.03 M03 S255 F100
G01 X28.34 Y15 M03 S0 F2000
G01 Z1.5 F300
G01 X28.41 Y14.49 M03 S255 F100
G01 X28.41 Y15.53 M03 S0 F2000
G01 Z1.5 F300
G01 X28.34 Y15 M03 S255 F100
G01 X28.61 Y15.99 M03 S0 F2000
G01 Z1.5 F300
G01 X28.41 Y15.53 M03 S255 F100
G01 X28.91 Y16.4 M03 S0 F2000
G01 Z1.5 F300
G01 X28.61 Y15.99 M03 S255 F100
G01 X29.33 Y16.71 M03 S0 F2000
G01 Z1.5 F300
G01 X28.91 Y16.4 M03 S255 F100
G01 X29.8 Y16.91 M03 S0 F2000
G01 Z1.5 F300
G01 X29.33 Y16.71 M03 S255 F100
G01 X30.31 Y16.98 M03 S0 F2000
G01 Z1.5 F300
G01 X29.8 Y16.91 M03 S255 F100
G01 X30.83 Y16.91 M03 S0 F2000
G01 Z1.5 F300
G01 X30.31 Y16.98 M03 S255 F100
G01 X31.3 Y16.71 M03 S0 F2000
G01 Z1.5 F300
G01 X30.83 Y16.91 M03 S255 F100
G01 X31.71 Y16.4 M03 S0 F2000
G01 Z1.5 F300
G01 X31.3 Y16.71 M03 S255 F100
G01 X32.03 Y15.99 M03 S0 F2000
G01 Z1.5 F300
G01 X31.71 Y16.4 M03 S255 F100
G01 X32.23 Y15.53 M03 S0 F2000
G01 Z1.5 F300
G01 X32.03 Y15.99 M03 S255 F100
G01 X32.29 Y15 M03 S0 F2000
G01 Z1.5 F300
G01 X32.23 Y15.53 M03 S255 F100
G01 X32.28 Y15 M03 S0 F2000
G01 Z1.5 F300
G01 X32.28 Y15 M03 S255 F100
G01 X32.23 Y54.49 M03 S0 F2000
G01 Z1.5 F300
G01 X32.29 Y55 M03 S255 F100
G01 X32.03 Y54.03 M03 S0 F2000
G01 Z1.5 F300
G01 X32.23 Y54.49 M03 S255 F100
G01 X31.71 Y53.61 M03 S0 F2000
G01 Z1.5 F300
G01 X32.03 Y54.03 M03 S255 F100
G01 X31.3 Y53.3 M03 S0 F2000
G01 Z1.5 F300
G01 X31.71 Y53.61 M03 S255 F100
G01 X30.83 Y53.1 M03 S0 F2000
G01 Z1.5 F300
G01 X31.3 Y53.3 M03 S255 F100
G01 X30.31 Y53.04 M03 S0 F2000
G01 Z1.5 F300
G01 X30.83 Y53.1 M03 S255 F100
G01 X29.8 Y53.1 M03 S0 F2000
G01 Z1.5 F300
G01 X30.31 Y53.04 M03 S255 F100
G01 X29.33 Y53.3 M03 S0 F2000
G01 Z1.5 F300
G01 X29.8 Y53.1 M03 S255 F100
G01 X28.91 Y53.61 M03 S0 F2000
G01 Z1.5 F300
G01 X29.33 Y53.3 M03 S255 F100
G01 X28.61 Y54.03 M03 S0 F2000
G01 Z1.5 F300
G01 X28.91 Y53.61 M03 S255 F100
G01 X28.41 Y54.49 M03 S0 F2000
G01 Z1.5 F300
G01 X28.61 Y54.03 M03 S255 F100
G01 X28.34 Y55 M03 S0 F2000
G01 Z1.5 F300
G01 X28.41 Y54.49 M03 S255 F100
G01 X28.41 Y55.53 M03 S0 F2000
G01 Z1.5 F300
G01 X28.34 Y55 M03 S255 F100
G01 X28.61 Y55.99 M03 S0 F2000
G01 Z1.5 F300
G01 X28.41 Y55.53 M03 S255 F100
G01 X28.91 Y56.4 M03 S0 F2000
G01 Z1.5 F300
G01 X28.61 Y55.99 M03 S255 F100
G01 X29.33 Y56.71 M03 S0 F2000
G01 Z1.5 F300
G01 X28.91 Y56.4 M03 S255 F100
G01 X29.8 Y56.91 M03 S0 F2000
G01 Z1.5 F300
G01 X29.33 Y56.71 M03 S255 F100
G01 X30.31 Y56.98 M03 S0 F2000
G01 Z1.5 F300
G01 X29.8 Y56.91 M03 S255 F100
G01 X30.83 Y56.91 M03 S0 F2000
G01 Z1.5 F300
G01 X30.31 Y56.98 M03 S255 F100
G01 X31.3 Y56.71 M03 S0 F2000
G01 Z1.5 F300
G01 X30.83 Y56.91 M03 S255 F100
G01 X31.71 Y56.4 M03 S0 F2000
G01 Z1.5 F300
G01 X31.3 Y56.71 M03 S255 F100
G01 X32.03 Y55.99 M03 S0 F2000
G01 Z1.5 F300
G01 X31.71 Y56.4 M03 S255 F100
G01 X32.23 Y55.53 M03 S0 F2000
G01 Z1.5 F300
G01 X32.03 Y55.99 M03 S255 F100
G01 X32.29 Y55 M03 S0 F2000
G01 Z1.5 F300
G01 X32.23 Y55.53 M03 S255 F100
G01 X32.28 Y55 M03 S0 F2000
G01 Z1.5 F300
G01 X32.28 Y55 M03 S255 F100
G01 X7.64 Y34.49 M03 S0 F2000
G01 Z1.5 F300
G01 X7.7 Y35 M03 S255 F100
G01 X7.44 Y34.03 M03 S0 F2000
G01 Z1.5 F300
G01 X7.64 Y34.49 M03 S255 F100
G01 X7.13 Y33.61 M03 S0 F2000
G01 Z1.5 F300
G01 X7.44 Y34.03 M03 S255 F100
G01 X6.71 Y33.3 M03 S0 F2000
G01 Z1.5 F300
G01 X7.13 Y33.61 M03 S255 F100
G01 X6.24 Y33.1 M03 S0 F2000
G01 Z1.5 F300
G01 X6.71 Y33.3 M03 S255 F100
G01 X5.73 Y33.04 M03 S0 F2000
G01 Z1.5 F300
G01 X6.24 Y33.1 M03 S255 F100
G01 X5.21 Y33.1 M03 S0 F2000
G01 Z1.5 F300
G01 X5.73 Y33.04 M03 S255 F100
G01 X4.74 Y33.3 M03 S0 F2000
G01 Z1.5 F300
G01 X5.21 Y33.1 M03 S255 F100
G01 X4.33 Y33.61 M03 S0 F2000
G01 Z1.5 F300
G01 X4.74 Y33.3 M03 S255 F100
G01 X4.03 Y34.03 M03 S0 F2000
G01 Z1.5 F300
G01 X4.33 Y33.61 M03 S255 F100
G01 X3.83 Y34.49 M03 S0 F2000
G01 Z1.5 F300
G01 X4.03 Y34.03 M03 S255 F100
G01 X3.75 Y35 M03 S0 F2000
G01 Z1.5 F300
G01 X3.83 Y34.49 M03 S255 F100
G01 X3.83 Y35.53 M03 S0 F2000
G01 Z1.5 F300
G01 X3.75 Y35 M03 S255 F100
G01 X4.03 Y35.99 M03 S0 F2000
G01 Z1.5 F300
G01 X3.83 Y35.53 M03 S255 F100
G01 X4.33 Y36.4 M03 S0 F2000
G01 Z1.5 F300
G01 X4.03 Y35.99 M03 S255 F100
G01 X4.74 Y36.71 M03 S0 F2000
G01 Z1.5 F300
G01 X4.33 Y36.4 M03 S255 F100
G01 X5.21 Y36.91 M03 S0 F2000
G01 Z1.5 F300
G01 X4.74 Y36.71 M03 S255 F100
G01 X5.73 Y36.98 M03 S0 F2000
G01 Z1.5 F300
G01 X5.21 Y36.91 M03 S255 F100
G01 X6.24 Y36.91 M03 S0 F2000
G01 Z1.5 F300
G01 X5.73 Y36.98 M03 S255 F100
G01 X6.71 Y36.71 M03 S0 F2000
G01 Z1.5 F300
G01 X6.24 Y36.91 M03 S255 F100
G01 X7.13 Y36.4 M03 S0 F2000
G01 Z1.5 F300
G01 X6.71 Y36.71 M03 S255 F100
G01 X7.44 Y35.99 M03 S0 F2000
G01 Z1.5 F300
G01 X7.13 Y36.4 M03 S255 F100
G01 X7.64 Y35.53 M03 S0 F2000
G01 Z1.5 F300
G01 X7.44 Y35.99 M03 S255 F100
G01 X7.7 Y35 M03 S0 F2000
G01 Z1.5 F300
G01 X7.64 Y35.53 M03 S255 F100
G01 X7.7 Y35 M03 S0 F2000
G01 Z1.5 F300
G01 X7.7 Y35 M03 S255 F100
G01 X56.7 Y34.49 M03 S0 F2000
G01 Z1.5 F300
G01 X56.76 Y35 M03 S255 F100
G01 X56.5 Y34.03 M03 S0 F2000
G01 Z1.5 F300
G01 X56.7 Y34.49 M03 S255 F100
G01 X56.19 Y33.61 M03 S0 F2000
G01 Z1.5 F300
G01 X56.5 Y34.03 M03 S255 F100
G01 X55.78 Y33.3 M03 S0 F2000
G01 Z1.5 F300
G01 X56.19 Y33.61 M03 S255 F100
G01 X55.3 Y33.1 M03 S0 F2000
G01 Z1.5 F300
G01 X55.78 Y33.3 M03 S255 F100
G01 X54.79 Y33.04 M03 S0 F2000
G01 Z1.5 F300
G01 X55.3 Y33.1 M03 S255 F100
G01 X54.28 Y33.1 M03 S0 F2000
G01 Z1.5 F300
G01 X54.79 Y33.04 M03 S255 F100
G01 X53.8 Y33.3 M03 S0 F2000
G01 Z1.5 F300
G01 X54.28 Y33.1 M03 S255 F100
G01 X53.39 Y33.61 M03 S0 F2000
G01 Z1.5 F300
G01 X53.8 Y33.3 M03 S255 F100
G01 X53.08 Y34.03 M03 S0 F2000
G01 Z1.5 F300
G01 X53.39 Y33.61 M03 S255 F100
G01 X52.88 Y34.49 M03 S0 F2000
G01 Z1.5 F300
G01 X53.08 Y34.03 M03 S255 F100
G01 X52.81 Y35 M03 S0 F2000
G01 Z1.5 F300
G01 X52.88 Y34.49 M03 S255 F100
G01 X52.88 Y35.53 M03 S0 F2000
G01 Z1.5 F300
G01 X52.81 Y35 M03 S255 F100
G01 X53.08 Y35.99 M03 S0 F2000
G01 Z1.5 F300
G01 X52.88 Y35.53 M03 S255 F100
G01 X53.39 Y36.4 M03 S0 F2000
G01 Z1.5 F300
G01 X53.08 Y35.99 M03 S255 F100
G01 X53.8 Y36.71 M03 S0 F2000
G01 Z1.5 F300
G01 X53.39 Y36.4 M03 S255 F100
G01 X54.28 Y36.91 M03 S0 F2000
G01 Z1.5 F300
G01 X53.8 Y36.71 M03 S255 F100
G01 X54.79 Y36.98 M03 S0 F2000
G01 Z1.5 F300
G01 X54.28 Y36.91 M03 S255 F100
G01 X55.3 Y36.91 M03 S0 F2000
G01 Z1.5 F300
G01 X54.79 Y36.98 M03 S255 F100
G01 X55.78 Y36.71 M03 S0 F2000
G01 Z1.5 F300
G01 X55.3 Y36.91 M03 S255 F100
G01 X56.19 Y36.4 M03 S0 F2000
G01 Z1.5 F300
G01 X55.78 Y36.71 M03 S255 F100
G01 X56.5 Y35.99 M03 S0 F2000
G01 Z1.5 F300
G01 X56.19 Y36.4 M03 S255 F100
G01 X56.7 Y35.53 M03 S0 F2000
G01 Z1.5 F300
G01 X56.5 Y35.99 M03 S255 F100
G01 X56.76 Y35 M03 S0 F2000
G01 Z1.5 F300
G01 X56.7 Y35.53 M03 S255 F100
G01 X56.76 Y35 M03 S0 F2000
G01 Z1.5 F300
G01 X56.76 Y35 M03 S255 F100
G01 X69.45 Y24.42 M03 S0 F2000
G01 Z1.5 F300
G01 X74.39 Y24.42 M03 S255 F100
G01 Z1.5 F300
G01 X74.39 Y21.47 M03 S255 F100
G01 Z1.5 F300
G01 X79.45 Y21.47 M03 S255 F100
G01 Z1.5 F300
G01 X79.45 Y24.42 M03 S255 F100
G01 Z1.5 F300
G01 X84.39 Y24.42 M03 S255 F100
G01 Z1.5 F300
G01 X84.39 Y21.47 M03 S255 F100
G01 Z1.5 F300
G01 X89.45 Y21.47 M03 S255 F100
G01 Z1.5 F300
G01 X89.45 Y24.42 M03 S255 F100
G01 Z1.5 F300
G01 X94.39 Y24.42 M03 S255 F100
G01 Z1.5 F300
G01 X94.39 Y21.47 M03 S255 F100
G01 Z1.5 F300
G01 X99.45 Y21.47 M03 S255 F100
G01 Z1.5 F300
G01 X99.45 Y24.42 M03 S255 F100
G01 Z1.5 F300
G01 X104.39 Y24.42 M03 S255 F100
G01 Z1.5 F300
G01 X104.39 Y101.42 M03 S255 F100
G01 Z1.5 F300
G01 X99.39 Y101.42 M03 S255 F100
G01 Z1.5 F300
G01 X99.39 Y98.47 M03 S255 F100
G01 Z1.5 F300
G01 X94.45 Y98.47 M03 S255 F100
G01 Z1.5 F300
G01 X94.45 Y101.42 M03 S255 F100
G01 Z1.5 F300
G01 X89.39 Y101.42 M03 S255 F100
G01 Z1.5 F300
G01 X89.39 Y98.47 M03 S255 F100
G01 Z1.5 F300
G01 X84.45 Y98.47 M03 S255 F100
G01 Z1.5 F300
G01 X84.45 Y101.42 M03 S255 F100
G01 Z1.5 F300
G01 X79.39 Y101.42 M03 S255 F100
G01 Z1.5 F300
G01 X79.39 Y98.47 M03 S255 F100
G01 Z1.5 F300
G01 X74.45 Y98.47 M03 S255 F100
G01 Z1.5 F300
G01 X74.45 Y101.42 M03 S255 F100
G01 Z1.5 F300
G01 X69.45 Y101.42 M03 S255 F100
G01 Z1.5 F300
G01 X69.45 Y24.42 M03 S255 F100
G01 X6.42 Y110.43 M03 S0 F2000
G01 Z1.5 F300
G01 X6.42 Y105.49 M03 S255 F100
G01 Z1.5 F300
G01 X3.47 Y105.49 M03 S255 F100
G01 Z1.5 F300
G01 X3.47 Y100.43 M03 S255 F100
G01 Z1.5 F300
G01 X6.42 Y100.43 M03 S255 F100
G01 Z1.5 F300
G01 X6.42 Y95.49 M03 S255 F100
G01 Z1.5 F300
G01 X3.47 Y95.49 M03 S255 F100
G01 Z1.5 F300
G01 X3.47 Y90.43 M03 S255 F100
G01 Z1.5 F300
G01 X6.42 Y90.43 M03 S255 F100
G01 Z1.5 F300
G01 X6.42 Y85.49 M03 S255 F100
G01 Z1.5 F300
G01 X3.47 Y85.49 M03 S255 F100
G01 Z1.5 F300
G01 X3.47 Y80.43 M03 S255 F100
G01 Z1.5 F300
G01 X6.42 Y80.43 M03 S255 F100
G01 Z1.5 F300
G01 X6.42 Y75.49 M03 S255 F100
G01 Z1.5 F300
G01 X6.47 Y75.49 M03 S255 F100
G01 Z1.5 F300
G01 X10.01 Y75.49 M03 S255 F100
G01 Z1.5 F300
G01 X56.42 Y75.49 M03 S255 F100
G01 Z1.5 F300
G01 X56.42 Y89.49 M03 S255 F100
G01 Z1.5 F300
G01 X16.47 Y89.49 M03 S255 F100
G01 Z1.5 F300
G01 X16.47 Y96.43 M03 S255 F100
G01 Z1.5 F300
G01 X56.42 Y96.43 M03 S255 F100
G01 Z1.5 F300
G01 X56.42 Y110.43 M03 S255 F100
G01 Z1.5 F300
G01 X10.01 Y110.43 M03 S255 F100
G01 Z1.5 F300
G01 X6.47 Y110.43 M03 S255 F100
G01 Z1.5 F300
G01 X6.42 Y110.43 M03 S255 F100
G00 M03 S0
M05
G01 X30.31 Y69.97 M03 S0 F2000
M03 S0
G01 Z2 F300
G01 X60.6 Y52.48 M03 S255 F100
G01 Z2 F300
G01 X60.6 Y52.46 M03 S255 F100
G01 Z2 F300
G01 X63.6 Y52.46 M03 S255 F100
G01 Z2 F300
G01 X63.6 Y47.46 M03 S255 F100
G01 Z2 F300
G01 X60.65 Y47.46 M03 S255 F100
G01 Z2 F300
G01 X60.65 Y42.52 M03 S255 F100
G01 Z2 F300
G01 X63.6 Y42.52 M03 S255 F100
G01 Z2 F300
G01 X63.6 Y37.46 M03 S255 F100
G01 Z2 F300
G01 X60.65 Y37.46 M03 S255 F100
G01 Z2 F300
G01 X60.65 Y32.52 M03 S255 F100
G01 Z2 F300
G01 X63.6 Y32.52 M03 S255 F100
G01 Z2 F300
G01 X63.6 Y27.46 M03 S255 F100
G01 Z2 F300
G01 X60.65 Y27.46 M03 S255 F100
G01 Z2 F300
G01 X60.65 Y22.52 M03 S255 F100
G01 Z2 F300
G01 X63.6 Y22.52 M03 S255 F100
G01 Z2 F300
G01 X63.6 Y17.52 M03 S255 F100
G01 Z2 F300
G01 X60.6 Y17.52 M03 S255 F100
G01 Z2 F300
G01 X30.31 Y0.03 M03 S255 F100
G01 Z2 F300
G01 X0.03 Y17.52 M03 S255 F100
G01 Z2 F300
G01 X0.03 Y52.48 M03 S255 F100
G01 Z2 F300
G01 X30.31 Y69.97 M03 S255 F100
G01 X50.28 Y44.97 M03 S0 F2000
G01 Z2 F300
G01 X10.34 Y44.97 M03 S255 F100
G01 Z2 F300
G01 X10.34 Y25.03 M03 S255 F100
G01 Z2 F300
G01 X50.28 Y25.03 M03 S255 F100
G01 Z2 F300
G01 X50.28 Y44.97 M03 S255 F100
G01 X32.23 Y14.49 M03 S0 F2000
G01 Z2 F300
G01 X32.29 Y15 M03 S255 F100
G01 X32.03 Y14.03 M03 S0 F2000
G01 Z2 F300
G01 X32.23 Y14.49 M03 S255 F100
G01 X31.71 Y13.61 M03 S0 F2000
G01 Z2 F300
G01 X32.03 Y14.03 M03 S255 F100
G01 X31.3 Y13.3 M03 S0 F2000
G01 Z2 F300
G01 X31.71 Y13.61 M03 S255 F100
G01 X30.83 Y13.1 M03 S0 F2000
G01 Z2 F300
G01 X31.3 Y13.3 M03 S255 F100
G01 X30.31 Y13.04 M03 S0 F2000
G01 Z2 F300
G01 X30.83 Y13.1 M03 S255 F100
G01 X29.8 Y13.1 M03 S0 F2000
G01 Z2 F300
G01 X30.31 Y13.04 M03 S255 F100
G01 X29.33 Y13.3 M03 S0 F2000
G01 Z2 F300
G01 X29.8 Y13.1 M03 S255 F100
G01 X28.91 Y13.61 M03 S0 F2000
G01 Z2 F300
G01 X29.33 Y13.3 M03 S255 F100
G01 X28.61 Y14.03 M03 S0 F2000
G01 Z2 F300
G01 X28.91 Y13.61 M03 S255 F100
G01 X28.41 Y14.49 M03 S0 F2000
G01 Z2 F300
G01 X28.61 Y14.03 M03 S255 F100
G01 X28.34 Y15 M03 S0 F2000
G01 Z2 F300
G01 X28.41 Y14.49 M03 S255 F100
G01 X28.41 Y15.53 M03 S0 F2000
G01 Z2 F300
G01 X28.34 Y15 M03 S255 F100
G01 X28.61 Y15.99 M03 S0 F2000
G01 Z2 F300
G01 X28.41 Y15.53 M03 S255 F100
G01 X28.91 Y16.4 M03 S0 F2000
G01 Z2 F300
G01 X28.61 Y15.99 M03 S255 F100
G01 X29.33 Y16.71 M03 S0 F2000
G01 Z2 F300
G01 X28.91 Y16.4 M03 S255 F100
G01 X29.8 Y16.91 M03 S0 F2000
G01 Z2 F300
G01 X29.33 Y16.71 M03 S255 F100
G01 X30.31 Y16.98 M03 S0 F2000
G01 Z2 F300
G01 X29.8 Y16.91 M03 S255 F100
G01 X30.83 Y16.91 M03 S0 F2000
G01 Z2 F300
G01 X30.31 Y16.98 M03 S255 F100
G01 X31.3 Y16.71 M03 S0 F2000
G01 Z2 F300
G01 X30.83 Y16.91 M03 S255 F100
G01 X31.71 Y16.4 M03 S0 F2000
G01 Z2 F300
G01 X31.3 Y16.71 M03 S255 F100
G01 X32.03 Y15.99 M03 S0 F2000
G01 Z2 F300
G01 X31.71 Y16.4 M03 S255 F100
G01 X32.23 Y15.53 M03 S0 F2000
G01 Z2 F300
G01 X32.03 Y15.99 M03 S255 F100
G01 X32.29 Y15 M03 S0 F2000
G01 Z2 F300
G01 X32.23 Y15.53 M03 S255 F100
G01 X32.28 Y15 M03 S0 F2000
G01 Z2 F300
G01 X32.28 Y15 M03 S255 F100
G01 X32.23 Y54.49 M03 S0 F2000
G01 Z2 F300
G01 X32.29 Y55 M03 S255 F100
G01 X32.03 Y54.03 M03 S0 F2000
G01 Z2 F300
G01 X32.23 Y54.49 M03 S255 F100
G01 X31.71 Y53.61 M03 S0 F2000
G01 Z2 F300
G01 X32.03 Y54.03 M03 S255 F100
G01 X31.3 Y53.3 M03 S0 F2000
G01 Z2 F300
G01 X31.71 Y53.61 M03 S255 F100
G01 X30.83 Y53.1 M03 S0 F2000
G01 Z2 F300
G01 X31.3 Y53.3 M03 S255 F100
G01 X30.31 Y53.04 M03 S0 F2000
G01 Z2 F300
G01 X30.83 Y53.1 M03 S255 F100
G01 X29.8 Y53.1 M03 S0 F2000
G01 Z2 F300
G01 X30.31 Y53.04 M03 S255 F100
G01 X29.33 Y53.3 M03 S0 F2000
G01 Z2 F300
G01 X29.8 Y53.1 M03 S255 F100
G01 X28.91 Y53.61 M03 S0 F2000
G01 Z2 F300
G01 X29.33 Y53.3 M03 S255 F100
G01 X28.61 Y54.03 M03 S0 F2000
G01 Z2 F300
G01 X28.91 Y53.61 M03 S255 F100
G01 X28.41 Y54.49 M03 S0 F2000
G01 Z2 F300
G01 X28.61 Y54.03 M03 S255 F100
G01 X28.34 Y55 M03 S0 F2000
G01 Z2 F300
G01 X28.41 Y54.49 M03 S255 F100
G01 X28.41 Y55.53 M03 S0 F2000
G01 Z2 F300
G01 X28.34 Y55 M03 S255 F100
G01 X28.61 Y55.99 M03 S0 F2000
G01 Z2 F300
G01 X28.41 Y55.53 M03 S255 F100
G01 X28.91 Y56.4 M03 S0 F2000
G01 Z2 F300
G01 X28.61 Y55.99 M03 S255 F100
G01 X29.33 Y56.71 M03 S0 F2000
G01 Z2 F300
G01 X28.91 Y56.4 M03 S255 F100
G01 X29.8 Y56.91 M03 S0 F2000
G01 Z2 F300
G01 X29.33 Y56.71 M03 S255 F100
G01 X30.31 Y56.98 M03 S0 F2000
G01 Z2 F300
G01 X29.8 Y56.91 M03 S255 F100
G01 X30.83 Y56.91 M03 S0 F2000
G01 Z2 F300
G01 X30.31 Y56.98 M03 S255 F100
G01 X31.3 Y56.71 M03 S0 F2000
G01 Z2 F300
G01 X30.83 Y56.91 M03 S255 F100
G01 X31.71 Y56.4 M03 S0 F2000
G01 Z2 F300
G01 X31.3 Y56.71 M03 S255 F100
G01 X32.03 Y55.99 M03 S0 F2000
G01 Z2 F300
G01 X31.71 Y56.4 M03 S255 F100
G01 X32.23 Y55.53 M03 S0 F2000
G01 Z2 F300
G01 X32.03 Y55.99 M03 S255 F100
G01 X32.29 Y55 M03 S0 F2000
G01 Z2 F300
G01 X32.23 Y55.53 M03 S255 F100
G01 X32.28 Y55 M03 S0 F2000
G01 Z2 F300
G01 X32.28 Y55 M03 S255 F100
G01 X7.64 Y34.49 M03 S0 F2000
G01 Z2 F300
G01 X7.7 Y35 M03 S255 F100
G01 X7.44 Y34.03 M03 S0 F2000
G01 Z2 F300
G01 X7.64 Y34.49 M03 S255 F100
G01 X7.13 Y33.61 M03 S0 F2000
G01 Z2 F300
G01 X7.44 Y34.03 M03 S255 F100
G01 X6.71 Y33.3 M03 S0 F2000
G01 Z2 F300
G01 X7.13 Y33.61 M03 S255 F100
G01 X6.24 Y33.1 M03 S0 F2000
G01 Z2 F300
G01 X6.71 Y33.3 M03 S255 F100
G01 X5.73 Y33.04 M03 S0 F2000
G01 Z2 F300
G01 X6.24 Y33.1 M03 S255 F100
G01 X5.21 Y33.1 M03 S0 F2000
G01 Z2 F300
G01 X5.73 Y33.04 M03 S255 F100
G01 X4.74 Y33.3 M03 S0 F2000
G01 Z2 F300
G01 X5.21 Y33.1 M03 S255 F100
G01 X4.33 Y33.61 M03 S0 F2000
G01 Z2 F300
G01 X4.74 Y33.3 M03 S255 F100
G01 X4.03 Y34.03 M03 S0 F2000
G01 Z2 F300
G01 X4.33 Y33.61 M03 S255 F100
G01 X3.83 Y34.49 M03 S0 F2000
G01 Z2 F300
G01 X4.03 Y34.03 M03 S255 F100
G01 X3.75 Y35 M03 S0 F2000
G01 Z2 F300
G01 X3.83 Y34.49 M03 S255 F100
G01 X3.83 Y35.53 M03 S0 F2000
G01 Z2 F300
G01 X3.75 Y35 M03 S255 F100
G01 X4.03 Y35.99 M03 S0 F2000
G01 Z2 F300
G01 X3.83 Y35.53 M03 S255 F100
G01 X4.33 Y36.4 M03 S0 F2000
G01 Z2 F300
G01 X4.03 Y35.99 M03 S255 F100
G01 X4.74 Y36.71 M03 S0 F2000
G01 Z2 F300
G01 X4.33 Y36.4 M03 S255 F100
G01 X5.21 Y36.91 M03 S0 F2000
G01 Z2 F300
G01 X4.74 Y36.71 M03 S255 F100
G01 X5.73 Y36.98 M03 S0 F2000
G01 Z2 F300
G01 X5.21 Y36.91 M03 S255 F100
G01 X6.24 Y36.91 M03 S0 F2000
G01 Z2 F300
G01 X5.73 Y36.98 M03 S255 F100
G01 X6.71 Y36.71 M03 S0 F2000
G01 Z2 F300
G01 X6.24 Y36.91 M03 S255 F100
G01 X7.13 Y36.4 M03 S0 F2000
G01 Z2 F300
G01 X6.71 Y36.71 M03 S255 F100
G01 X7.44 Y35.99 M03 S0 F2000
G01 Z2 F300
G01 X7.13 Y36.4 M03 S255 F100
G01 X7.64 Y35.53 M03 S0 F2000
G01 Z2 F300
G01 X7.44 Y35.99 M03 S255 F100
G01 X7.7 Y35 M03 S0 F2000
G01 Z2 F300
G01 X7.64 Y35.53 M03 S255 F100
G01 X7.7 Y35 M03 S0 F2000
G01 Z2 F300
G01 X7.7 Y35 M03 S255 F100
G01 X56.7 Y34.49 M03 S0 F2000
G01 Z2 F300
G01 X56.76 Y35 M03 S255 F100
G01 X56.5 Y34.03 M03 S0 F2000
G01 Z2 F300
G01 X56.7 Y34.49 M03 S255 F100
G01 X56.19 Y33.61 M03 S0 F2000
G01 Z2 F300
G01 X56.5 Y34.03 M03 S255 F100
G01 X55.78 Y33.3 M03 S0 F2000
G01 Z2 F300
G01 X56.19 Y33.61 M03 S255 F100
G01 X55.3 Y33.1 M03 S0 F2000
G01 Z2 F300
G01 X55.78 Y33.3 M03 S255 F100
G01 X54.79 Y33.04 M03 S0 F2000
G01 Z2 F300
G01 X55.3 Y33.1 M03 S255 F100
G01 X54.28 Y33.1 M03 S0 F2000
G01 Z2 F300
G01 X54.79 Y33.04 M03 S255 F100
G01 X53.8 Y33.3 M03 S0 F2000
G01 Z2 F300
G01 X54.28 Y33.1 M03 S255 F100
G01 X53.39 Y33.61 M03 S0 F2000
G01 Z2 F300
G01 X53.8 Y33.3 M03 S255 F100
G01 X53.08 Y34.03 M03 S0 F2000
G01 Z2 F300
G01 X53.39 Y33.61 M03 S255 F100
G01 X52.88 Y34.49 M03 S0 F2000
G01 Z2 F300
G01 X53.08 Y34.03 M03 S255 F100
G01 X52.81 Y35 M03 S0 F2000
G01 Z2 F300
G01 X52.88 Y34.49 M03 S255 F100
G01 X52.88 Y35.53 M03 S0 F2000
G01 Z2 F300
G01 X52.81 Y35 M03 S255 F100
G01 X53.08 Y35.99 M03 S0 F2000
G01 Z2 F300
G01 X52.88 Y35.53 M03 S255 F100
G01 X53.39 Y36.4 M03 S0 F2000
G01 Z2 F300
G01 X53.08 Y35.99 M03 S255 F100
G01 X53.8 Y36.71 M03 S0 F2000
G01 Z2 F300
G01 X53.39 Y36.4 M03 S255 F100
G01 X54.28 Y36.91 M03 S0 F2000
G01 Z2 F300
G01 X53.8 Y36.71 M03 S255 F100
G01 X54.79 Y36.98 M03 S0 F2000
G01 Z2 F300
G01 X54.28 Y36.91 M03 S255 F100
G01 X55.3 Y36.91 M03 S0 F2000
G01 Z2 F300
G01 X54.79 Y36.98 M03 S255 F100
G01 X55.78 Y36.71 M03 S0 F2000
G01 Z2 F300
G01 X55.3 Y36.91 M03 S255 F100
G01 X56.19 Y36.4 M03 S0 F2000
G01 Z2 F300
G01 X55.78 Y36.71 M03 S255 F100
G01 X56.5 Y35.99 M03 S0 F2000
G01 Z2 F300
G01 X56.19 Y36.4 M03 S255 F100
G01 X56.7 Y35.53 M03 S0 F2000
G01 Z2 F300
G01 X56.5 Y35.99 M03 S255 F100
G01 X56.76 Y35 M03 S0 F2000
G01 Z2 F300
G01 X56.7 Y35.53 M03 S255 F100
G01 X56.76 Y35 M03 S0 F2000
G01 Z2 F300
G01 X56.76 Y35 M03 S255 F100
G01 X69.45 Y24.42 M03 S0 F2000
G01 Z2 F300
G01 X74.39 Y24.42 M03 S255 F100
G01 Z2 F300
G01 X74.39 Y21.47 M03 S255 F100
G01 Z2 F300
G01 X79.45 Y21.47 M03 S255 F100
G01 Z2 F300
G01 X79.45 Y24.42 M03 S255 F100
G01 Z2 F300
G01 X84.39 Y24.42 M03 S255 F100
G01 Z2 F300
G01 X84.39 Y21.47 M03 S255 F100
G01 Z2 F300
G01 X89.45 Y21.47 M03 S255 F100
G01 Z2 F300
G01 X89.45 Y24.42 M03 S255 F100
G01 Z2 F300
G01 X94.39 Y24.42 M03 S255 F100
G01 Z2 F300
G01 X94.39 Y21.47 M03 S255 F100
G01 Z2 F300
G01 X99.45 Y21.47 M03 S255 F100
G01 Z2 F300
G01 X99.45 Y24.42 M03 S255 F100
G01 Z2 F300
G01 X104.39 Y24.42 M03 S255 F100
G01 Z2 F300
G01 X104.39 Y101.42 M03 S255 F100
G01 Z2 F300
G01 X99.39 Y101.42 M03 S255 F100
G01 Z2 F300
G01 X99.39 Y98.47 M03 S255 F100
G01 Z2 F300
G01 X94.45 Y98.47 M03 S255 F100
G01 Z2 F300
G01 X94.45 Y101.42 M03 S255 F100
G01 Z2 F300
G01 X89.39 Y101.42 M03 S255 F100
G01 Z2 F300
G01 X89.39 Y98.47 M03 S255 F100
G01 Z2 F300
G01 X84.45 Y98.47 M03 S255 F100
G01 Z2 F300
G01 X84.45 Y101.42 M03 S255 F100
G01 Z2 F300
G01 X79.39 Y101.42 M03 S255 F100
G01 Z2 F300
G01 X79.39 Y98.47 M03 S255 F100
G01 Z2 F300
G01 X74.45 Y98.47 M03 S255 F100
G01 Z2 F300
G01 X74.45 Y101.42 M03 S255 F100
G01 Z2 F300
G01 X69.45 Y101.42 M03 S255 F100
G01 Z2 F300
G01 X69.45 Y24.42 M03 S255 F100
G01 X6.42 Y110.43 M03 S0 F2000
G01 Z2 F300
G01 X6.42 Y105.49 M03 S255 F100
G01 Z2 F300
G01 X3.47 Y105.49 M03 S255 F100
G01 Z2 F300
G01 X3.47 Y100.43 M03 S255 F100
G01 Z2 F300
G01 X6.42 Y100.43 M03 S255 F100
G01 Z2 F300
G01 X6.42 Y95.49 M03 S255 F100
G01 Z2 F300
G01 X3.47 Y95.49 M03 S255 F100
G01 Z2 F300
G01 X3.47 Y90.43 M03 S255 F100
G01 Z2 F300
G01 X6.42 Y90.43 M03 S255 F100
G01 Z2 F300
G01 X6.42 Y85.49 M03 S255 F100
G01 Z2 F300
G01 X3.47 Y85.49 M03 S255 F100
G01 Z2 F300
G01 X3.47 Y80.43 M03 S255 F100
G01 Z2 F300
G01 X6.42 Y80.43 M03 S255 F100
G01 Z2 F300
G01 X6.42 Y75.49 M03 S255 F100
G01 Z2 F300
G01 X6.47 Y75.49 M03 S255 F100
G01 Z2 F300
G01 X10.01 Y75.49 M03 S255 F100
G01 Z2 F300
G01 X56.42 Y75.49 M03 S255 F100
G01 Z2 F300
G01 X56.42 Y89.49 M03 S255 F100
G01 Z2 F300
G01 X16.47 Y89.49 M03 S255 F100
G01 Z2 F300
G01 X16.47 Y96.43 M03 S255 F100
G01 Z2 F300
G01 X56.42 Y96.43 M03 S255 F100
G01 Z2 F300
G01 X56.42 Y110.43 M03 S255 F100
G01 Z2 F300
G01 X10.01 Y110.43 M03 S255 F100
G01 Z2 F300
G01 X6.47 Y110.43 M03 S255 F100
G01 Z2 F300
G01 X6.42 Y110.43 M03 S255 F100
G00 M03 S0
M05
G01 X30.31 Y69.97 M03 S0 F2000
M03 S0
G01 Z2.5 F300
G01 X60.6 Y52.48 M03 S255 F100
G01 Z2.5 F300
G01 X60.6 Y52.46 M03 S255 F100
G01 Z2.5 F300
G01 X63.6 Y52.46 M03 S255 F100
G01 Z2.5 F300
G01 X63.6 Y47.46 M03 S255 F100
G01 Z2.5 F300
G01 X60.65 Y47.46 M03 S255 F100
G01 Z2.5 F300
G01 X60.65 Y42.52 M03 S255 F100
G01 Z2.5 F300
G01 X63.6 Y42.52 M03 S255 F100
G01 Z2.5 F300
G01 X63.6 Y37.46 M03 S255 F100
G01 Z2.5 F300
G01 X60.65 Y37.46 M03 S255 F100
G01 Z2.5 F300
G01 X60.65 Y32.52 M03 S255 F100
G01 Z2.5 F300
G01 X63.6 Y32.52 M03 S255 F100
G01 Z2.5 F300
G01 X63.6 Y27.46 M03 S255 F100
G01 Z2.5 F300
G01 X60.65 Y27.46 M03 S255 F100
G01 Z2.5 F300
G01 X60.65 Y22.52 M03 S255 F100
G01 Z2.5 F300
G01 X63.6 Y22.52 M03 S255 F100
G01 Z2.5 F300
G01 X63.6 Y17.52 M03 S255 F100
G01 Z2.5 F300
G01 X60.6 Y17.52 M03 S255 F100
G01 Z2.5 F300
G01 X30.31 Y0.03 M03 S255 F100
G01 Z2.5 F300
G01 X0.03 Y17.52 M03 S255 F100
G01 Z2.5 F300
G01 X0.03 Y52.48 M03 S255 F100
G01 Z2.5 F300
G01 X30.31 Y69.97 M03 S255 F100
G01 X50.28 Y44.97 M03 S0 F2000
G01 Z2.5 F300
G01 X10.34 Y44.97 M03 S255 F100
G01 Z2.5 F300
G01 X10.34 Y25.03 M03 S255 F100
G01 Z2.5 F300
G01 X50.28 Y25.03 M03 S255 F100
G01 Z2.5 F300
G01 X50.28 Y44.97 M03 S255 F100
G01 X32.23 Y14.49 M03 S0 F2000
G01 Z2.5 F300
G01 X32.29 Y15 M03 S255 F100
G01 X32.03 Y14.03 M03 S0 F2000
G01 Z2.5 F300
G01 X32.23 Y14.49 M03 S255 F100
G01 X31.71 Y13.61 M03 S0 F2000
G01 Z2.5 F300
G01 X32.03 Y14.03 M03 S255 F100
G01 X31.3 Y13.3 M03 S0 F2000
G01 Z2.5 F300
G01 X31.71 Y13.61 M03 S255 F100
G01 X30.83 Y13.1 M03 S0 F2000
G01 Z2.5 F300
G01 X31.3 Y13.3 M03 S255 F100
G01 X30.31 Y13.04 M03 S0 F2000
G01 Z2.5 F300
G01 X30.83 Y13.1 M03 S255 F100
G01 X29.8 Y13.1 M03 S0 F2000
G01 Z2.5 F300
G01 X30.31 Y13.04 M03 S255 F100
G01 X29.33 Y13.3 M03 S0 F2000
G01 Z2.5 F300
G01 X29.8 Y13.1 M03 S255 F100
G01 X28.91 Y13.61 M03 S0 F2000
G01 Z2.5 F300
G01 X29.33 Y13.3 M03 S255 F100
G01 X28.61 Y14.03 M03 S0 F2000
G01 Z2.5 F300
G01 X28.91 Y13.61 M03 S255 F100
G01 X28.41 Y14.49 M03 S0 F2000
G01 Z2.5 F300
G01 X28.61 Y14.03 M03 S255 F100
G01 X28.34 Y15 M03 S0 F2000
G01 Z2.5 F300
G01 X28.41 Y14.49 M03 S255 F100
G01 X28.41 Y15.53 M03 S0 F2000
G01 Z2.5 F300
G01 X28.34 Y15 M03 S255 F100
G01 X28.61 Y15.99 M03 S0 F2000
G01 Z2.5 F300
G01 X28.41 Y15.53 M03 S255 F100
G01 X28.91 Y16.4 M03 S0 F2000
G01 Z2.5 F300
G01 X28.61 Y15.99 M03 S255 F100
G01 X29.33 Y16.71 M03 S0 F2000
G01 Z2.5 F300
G01 X28.91 Y16.4 M03 S255 F100
G01 X29.8 Y16.91 M03 S0 F2000
G01 Z2.5 F300
G01 X29.33 Y16.71 M03 S255 F100
G01 X30.31 Y16.98 M03 S0 F2000
G01 Z2.5 F300
G01 X29.8 Y16.91 M03 S255 F100
G01 X30.83 Y16.91 M03 S0 F2000
G01 Z2.5 F300
G01 X30.31 Y16.98 M03 S255 F100
G01 X31.3 Y16.71 M03 S0 F2000
G01 Z2.5 F300
G01 X30.83 Y16.91 M03 S255 F100
G01 X31.71 Y16.4 M03 S0 F2000
G01 Z2.5 F300
G01 X31.3 Y16.71 M03 S255 F100
G01 X32.03 Y15.99 M03 S0 F2000
G01 Z2.5 F300
G01 X31.71 Y16.4 M03 S255 F100
G01 X32.23 Y15.53 M03 S0 F2000
G01 Z2.5 F300
G01 X32.03 Y15.99 M03 S255 F100
G01 X32.29 Y15 M03 S0 F2000
G01 Z2.5 F300
G01 X32.23 Y15.53 M03 S255 F100
G01 X32.28 Y15 M03 S0 F2000
G01 Z2.5 F300
G01 X32.28 Y15 M03 S255 F100
G01 X32.23 Y54.49 M03 S0 F2000
G01 Z2.5 F300
G01 X32.29 Y55 M03 S255 F100
G01 X32.03 Y54.03 M03 S0 F2000
G01 Z2.5 F300
G01 X32.23 Y54.49 M03 S255 F100
G01 X31.71 Y53.61 M03 S0 F2000
G01 Z2.5 F300
G01 X32.03 Y54.03 M03 S255 F100
G01 X31.3 Y53.3 M03 S0 F2000
G01 Z2.5 F300
G01 X31.71 Y53.61 M03 S255 F100
G01 X30.83 Y53.1 M03 S0 F2000
G01 Z2.5 F300
G01 X31.3 Y53.3 M03 S255 F100
G01 X30.31 Y53.04 M03 S0 F2000
G01 Z2.5 F300
G01 X30.83 Y53.1 M03 S255 F100
G01 X29.8 Y53.1 M03 S0 F2000
G01 Z2.5 F300
G01 X30.31 Y53.04 M03 S255 F100
G01 X29.33 Y53.3 M03 S0 F2000
G01 Z2.5 F300
G01 X29.8 Y53.1 M03 S255 F100
G01 X28.91 Y53.61 M03 S0 F2000
G01 Z2.5 F300
G01 X29.33 Y53.3 M03 S255 F100
G01 X28.61 Y54.03 M03 S0 F2000
G01 Z2.5 F300
G01 X28.91 Y53.61 M03 S255 F100
G01 X28.41 Y54.49 M03 S0 F2000
G01 Z2.5 F300
G01 X28.61 Y54.03 M03 S255 F100
G01 X28.34 Y55 M03 S0 F2000
G01 Z2.5 F300
G01 X28.41 Y54.49 M03 S255 F100
G01 X28.41 Y55.53 M03 S0 F2000
G01 Z2.5 F300
G01 X28.34 Y55 M03 S255 F100
G01 X28.61 Y55.99 M03 S0 F2000
G01 Z2.5 F300
G01 X28.41 Y55.53 M03 S255 F100
G01 X28.91 Y56.4 M03 S0 F2000
G01 Z2.5 F300
G01 X28.61 Y55.99 M03 S255 F100
G01 X29.33 Y56.71 M03 S0 F2000
G01 Z2.5 F300
G01 X28.91 Y56.4 M03 S255 F100
G01 X29.8 Y56.91 M03 S0 F2000
G01 Z2.5 F300
G01 X29.33 Y56.71 M03 S255 F100
G01 X30.31 Y56.98 M03 S0 F2000
G01 Z2.5 F300
G01 X29.8 Y56.91 M03 S255 F100
G01 X30.83 Y56.91 M03 S0 F2000
G01 Z2.5 F300
G01 X30.31 Y56.98 M03 S255 F100
G01 X31.3 Y56.71 M03 S0 F2000
G01 Z2.5 F300
G01 X30.83 Y56.91 M03 S255 F100
G01 X31.71 Y56.4 M03 S0 F2000
G01 Z2.5 F300
G01 X31.3 Y56.71 M03 S255 F100
G01 X32.03 Y55.99 M03 S0 F2000
G01 Z2.5 F300
G01 X31.71 Y56.4 M03 S255 F100
G01 X32.23 Y55.53 M03 S0 F2000
G01 Z2.5 F300
G01 X32.03 Y55.99 M03 S255 F100
G01 X32.29 Y55 M03 S0 F2000
G01 Z2.5 F300
G01 X32.23 Y55.53 M03 S255 F100
G01 X32.28 Y55 M03 S0 F2000
G01 Z2.5 F300
G01 X32.28 Y55 M03 S255 F100
G01 X7.64 Y34.49 M03 S0 F2000
G01 Z2.5 F300
G01 X7.7 Y35 M03 S255 F100
G01 X7.44 Y34.03 M03 S0 F2000
G01 Z2.5 F300
G01 X7.64 Y34.49 M03 S255 F100
G01 X7.13 Y33.61 M03 S0 F2000
G01 Z2.5 F300
G01 X7.44 Y34.03 M03 S255 F100
G01 X6.71 Y33.3 M03 S0 F2000
G01 Z2.5 F300
G01 X7.13 Y33.61 M03 S255 F100
G01 X6.24 Y33.1 M03 S0 F2000
G01 Z2.5 F300
G01 X6.71 Y33.3 M03 S255 F100
G01 X5.73 Y33.04 M03 S0 F2000
G01 Z2.5 F300
G01 X6.24 Y33.1 M03 S255 F100
G01 X5.21 Y33.1 M03 S0 F2000
G01 Z2.5 F300
G01 X5.73 Y33.04 M03 S255 F100
G01 X4.74 Y33.3 M03 S0 F2000
G01 Z2.5 F300
G01 X5.21 Y33.1 M03 S255 F100
G01 X4.33 Y33.61 M03 S0 F2000
G01 Z2.5 F300
G01 X4.74 Y33.3 M03 S255 F100
G01 X4.03 Y34.03 M03 S0 F2000
G01 Z2.5 F300
G01 X4.33 Y33.61 M03 S255 F100
G01 X3.83 Y34.49 M03 S0 F2000
G01 Z2.5 F300
G01 X4.03 Y34.03 M03 S255 F100
G01 X3.75 Y35 M03 S0 F2000
G01 Z2.5 F300
G01 X3.83 Y34.49 M03 S255 F100
G01 X3.83 Y35.53 M03 S0 F2000
G01 Z2.5 F300
G01 X3.75 Y35 M03 S255 F100
G01 X4.03 Y35.99 M03 S0 F2000
G01 Z2.5 F300
G01 X3.83 Y35.53 M03 S255 F100
G01 X4.33 Y36.4 M03 S0 F2000
G01 Z2.5 F300
G01 X4.03 Y35.99 M03 S255 F100
G01 X4.74 Y36.71 M03 S0 F2000
G01 Z2.5 F300
G01 X4.33 Y36.4 M03 S255 F100
G01 X5.21 Y36.91 M03 S0 F2000
G01 Z2.5 F300
G01 X4.74 Y36.71 M03 S255 F100
G01 X5.73 Y36.98 M03 S0 F2000
G01 Z2.5 F300
G01 X5.21 Y36.91 M03 S255 F100
G01 X6.24 Y36.91 M03 S0 F2000
G01 Z2.5 F300
G01 X5.73 Y36.98 M03 S255 F100
G01 X6.71 Y36.71 M03 S0 F2000
G01 Z2.5 F300
G01 X6.24 Y36.91 M03 S255 F100
G01 X7.13 Y36.4 M03 S0 F2000
G01 Z2.5 F300
G01 X6.71 Y36.71 M03 S255 F100
G01 X7.44 Y35.99 M03 S0 F2000
G01 Z2.5 F300
G01 X7.13 Y36.4 M03 S255 F100
G01 X7.64 Y35.53 M03 S0 F2000
G01 Z2.5 F300
G01 X7.44 Y35.99 M03 S255 F100
G01 X7.7 Y35 M03 S0 F2000
G01 Z2.5 F300
G01 X7.64 Y35.53 M03 S255 F100
G01 X7.7 Y35 M03 S0 F2000
G01 Z2.5 F300
G01 X7.7 Y35 M03 S255 F100
G01 X56.7 Y34.49 M03 S0 F2000
G01 Z2.5 F300
G01 X56.76 Y35 M03 S255 F100
G01 X56.5 Y34.03 M03 S0 F2000
G01 Z2.5 F300
G01 X56.7 Y34.49 M03 S255 F100
G01 X56.19 Y33.61 M03 S0 F2000
G01 Z2.5 F300
G01 X56.5 Y34.03 M03 S255 F100
G01 X55.78 Y33.3 M03 S0 F2000
G01 Z2.5 F300
G01 X56.19 Y33.61 M03 S255 F100
G01 X55.3 Y33.1 M03 S0 F2000
G01 Z2.5 F300
G01 X55.78 Y33.3 M03 S255 F100
G01 X54.79 Y33.04 M03 S0 F2000
G01 Z2.5 F300
G01 X55.3 Y33.1 M03 S255 F100
G01 X54.28 Y33.1 M03 S0 F2000
G01 Z2.5 F300
G01 X54.79 Y33.04 M03 S255 F100
G01 X53.8 Y33.3 M03 S0 F2000
G01 Z2.5 F300
G01 X54.28 Y33.1 M03 S255 F100
G01 X53.39 Y33.61 M03 S0 F2000
G01 Z2.5 F300
G01 X53.8 Y33.3 M03 S255 F100
G01 X53.08 Y34.03 M03 S0 F2000
G01 Z2.5 F300
G01 X53.39 Y33.61 M03 S255 F100
G01 X52.88 Y34.49 M03 S0 F2000
G01 Z2.5 F300
G01 X53.08 Y34.03 M03 S255 F100
G01 X52.81 Y35 M03 S0 F2000
G01 Z2.5 F300
G01 X52.88 Y34.49 M03 S255 F100
G01 X52.88 Y35.53 M03 S0 F2000
G01 Z2.5 F300
G01 X52.81 Y35 M03 S255 F100
G01 X53.08 Y35.99 M03 S0 F2000
G01 Z2.5 F300
G01 X52.88 Y35.53 M03 S255 F100
G01 X53.39 Y36.4 M03 S0 F2000
G01 Z2.5 F300
G01 X53.08 Y35.99 M03 S255 F100
G01 X53.8 Y36.71 M03 S0 F2000
G01 Z2.5 F300
G01 X53.39 Y36.4 M03 S255 F100
G01 X54.28 Y36.91 M03 S0 F2000
G01 Z2.5 F300
G01 X53.8 Y36.71 M03 S255 F100
G01 X54.79 Y36.98 M03 S0 F2000
G01 Z2.5 F300
G01 X54.28 Y36.91 M03 S255 F100
G01 X55.3 Y36.91 M03 S0 F2000
G01 Z2.5 F300
G01 X54.79 Y36.98 M03 S255 F100
G01 X55.78 Y36.71 M03 S0 F2000
G01 Z2.5 F300
G01 X55.3 Y36.91 M03 S255 F100
G01 X56.19 Y36.4 M03 S0 F2000
G01 Z2.5 F300
G01 X55.78 Y36.71 M03 S255 F100
G01 X56.5 Y35.99 M03 S0 F2000
G01 Z2.5 F300
G01 X56.19 Y36.4 M03 S255 F100
G01 X56.7 Y35.53 M03 S0 F2000
G01 Z2.5 F300
G01 X56.5 Y35.99 M03 S255 F100
G01 X56.76 Y35 M03 S0 F2000
G01 Z2.5 F300
G01 X56.7 Y35.53 M03 S255 F100
G01 X56.76 Y35 M03 S0 F2000
G01 Z2.5 F300
G01 X56.76 Y35 M03 S255 F100
G01 X69.45 Y24.42 M03 S0 F2000
G01 Z2.5 F300
G01 X74.39 Y24.42 M03 S255 F100
G01 Z2.5 F300
G01 X74.39 Y21.47 M03 S255 F100
G01 Z2.5 F300
G01 X79.45 Y21.47 M03 S255 F100
G01 Z2.5 F300
G01 X79.45 Y24.42 M03 S255 F100
G01 Z2.5 F300
G01 X84.39 Y24.42 M03 S255 F100
G01 Z2.5 F300
G01 X84.39 Y21.47 M03 S255 F100
G01 Z2.5 F300
G01 X89.45 Y21.47 M03 S255 F100
G01 Z2.5 F300
G01 X89.45 Y24.42 M03 S255 F100
G01 Z2.5 F300
G01 X94.39 Y24.42 M03 S255 F100
G01 Z2.5 F300
G01 X94.39 Y21.47 M03 S255 F100
G01 Z2.5 F300
G01 X99.45 Y21.47 M03 S255 F100
G01 Z2.5 F300
G01 X99.45 Y24.42 M03 S255 F100
G01 Z2.5 F300
G01 X104.39 Y24.42 M03 S255 F100
G01 Z2.5 F300
G01 X104.39 Y101.42 M03 S255 F100
G01 Z2.5 F300
G01 X99.39 Y101.42 M03 S255 F100
G01 Z2.5 F300
G01 X99.39 Y98.47 M03 S255 F100
G01 Z2.5 F300
G01 X94.45 Y98.47 M03 S255 F100
G01 Z2.5 F300
G01 X94.45 Y101.42 M03 S255 F100
G01 Z2.5 F300
G01 X89.39 Y101.42 M03 S255 F100
G01 Z2.5 F300
G01 X89.39 Y98.47 M03 S255 F100
G01 Z2.5 F300
G01 X84.45 Y98.47 M03 S255 F100
G01 Z2.5 F300
G01 X84.45 Y101.42 M03 S255 F100
G01 Z2.5 F300
G01 X79.39 Y101.42 M03 S255 F100
G01 Z2.5 F300
G01 X79.39 Y98.47 M03 S255 F100
G01 Z2.5 F300
G01 X74.45 Y98.47 M03 S255 F100
G01 Z2.5 F300
G01 X74.45 Y101.42 M03 S255 F100
G01 Z2.5 F300
G01 X69.45 Y101.42 M03 S255 F100
G01 Z2.5 F300
G01 X69.45 Y24.42 M03 S255 F100
G01 X6.42 Y110.43 M03 S0 F2000
G01 Z2.5 F300
G01 X6.42 Y105.49 M03 S255 F100
G01 Z2.5 F300
G01 X3.47 Y105.49 M03 S255 F100
G01 Z2.5 F300
G01 X3.47 Y100.43 M03 S255 F100
G01 Z2.5 F300
G01 X6.42 Y100.43 M03 S255 F100
G01 Z2.5 F300
G01 X6.42 Y95.49 M03 S255 F100
G01 Z2.5 F300
G01 X3.47 Y95.49 M03 S255 F100
G01 Z2.5 F300
G01 X3.47 Y90.43 M03 S255 F100
G01 Z2.5 F300
G01 X6.42 Y90.43 M03 S255 F100
G01 Z2.5 F300
G01 X6.42 Y85.49 M03 S255 F100
G01 Z2.5 F300
G01 X3.47 Y85.49 M03 S255 F100
G01 Z2.5 F300
G01 X3.47 Y80.43 M03 S255 F100
G01 Z2.5 F300
G01 X6.42 Y80.43 M03 S255 F100
G01 Z2.5 F300
G01 X6.42 Y75.49 M03 S255 F100
G01 Z2.5 F300
G01 X6.47 Y75.49 M03 S255 F100
G01 Z2.5 F300
G01 X10.01 Y75.49 M03 S255 F100
G01 Z2.5 F300
G01 X56.42 Y75.49 M03 S255 F100
G01 Z2.5 F300
G01 X56.42 Y89.49 M03 S255 F100
G01 Z2.5 F300
G01 X16.47 Y89.49 M03 S255 F100
G01 Z2.5 F300
G01 X16.47 Y96.43 M03 S255 F100
G01 Z2.5 F300
G01 X56.42 Y96.43 M03 S255 F100
G01 Z2.5 F300
G01 X56.42 Y110.43 M03 S255 F100
G01 Z2.5 F300
G01 X10.01 Y110.43 M03 S255 F100
G01 Z2.5 F300
G01 X6.47 Y110.43 M03 S255 F100
G01 Z2.5 F300
G01 X6.42 Y110.43 M03 S255 F100
G00 Z0 M03 S0
M05
G00 X0 Y0 
