( Generated by T2Laser ) 
(  DXF2Gcode for Grbl  )
( Start Point: LL      )
( Frame Mode : Extents )
( X Maximum  : 149.9   )
( Y Maximum  : 149.9   )
( Laser Power: 255     )
( Vector Rate: 600     )
( Rapid Feed : 2000    )
( Vector Name: Square15cm.dxf )
G21
G90
F600
M05
G00 Z0 
G01 X0.1 Y149.9 F2000
M03 S0
G01 Z3 F300
G01 X149.9 Y149.9 M03 S255 F600
G01 Z3 F300
G01 X149.9 Y0.1 M03 S255 F600
G01 Z3 F300
G01 X0.1 Y0.1 M03 S255 F600
G01 Z3 F300
G01 X0.1 Y149.9 M03 S255 F600
G00 Z0 M03 S0
M05
G00 X0 Y0 
