( Generated by T2Laser ) 
(  DXF2Gcode for Grbl  )
( Start Point: LL      )
( Frame Mode : Extents )
( X Maximum  : 60.1    )
( Y Maximum  : 46      )
( Laser Power: 255     )
( Vector Rate: 3400    )
( Rapid Feed : 2000    )
( Vector Name: Twitter2-PipeMark.dxf )
G21
G90
F3400
M05
G00 Z0 
G01 X34.93 Y6.38 F2000
M03 S0
G01 Z3 F300
G01 X60.1 Y6.38 M03 S255 F3400
G01 Z3 F300
G01 X60.09 Y46 M03 S255 F3400
G01 X41.22 Y0.09 M03 S0 F2000
G01 Z3 F300
G01 X41.22 Y6.38 M03 S255 F3400
G01 X47.57 Y0.02 M03 S0 F2000
G01 Z3 F300
G01 X47.57 Y6.31 M03 S255 F3400
G01 X53.82 Y0.16 M03 S0 F2000
G01 Z3 F300
G01 X53.82 Y6.45 M03 S255 F3400
G01 X41.22 Y46 M03 S0 F2000
G01 Z3 F300
G01 X41.22 Y6.38 M03 S255 F3400
G01 X47.51 Y46 M03 S0 F2000
G01 Z3 F300
G01 X47.51 Y6.38 M03 S255 F3400
G01 X53.8 Y46 M03 S0 F2000
G01 Z3 F300
G01 X53.8 Y6.38 M03 S255 F3400
G01 X25.05 Y21.35 M03 S0 F2000
G01 Z3 F300
G01 X8.28 Y26.4 M03 S255 F3400
G01 Z3 F300
G01 X6.44 Y20.36 M03 S255 F3400
G01 Z3 F300
G01 X23.22 Y15.31 M03 S255 F3400
G01 X6.44 Y20.36 M03 S0 F2000
G01 Z3 F300
G01 X6.39 Y7.78 M03 S255 F3400
G01 X8.28 Y26.4 M03 S0 F2000
G01 Z3 F300
G01 X15.18 Y36.91 M03 S255 F3400
G01 X29.21 Y27.65 M03 S0 F2000
G01 Z3 F300
G01 X29.21 Y27.65 M03 S255 F3400
G01 X28.38 Y28.19 M03 S0 F2000
G01 Z2.4 F300
G01 X15.6 Y36.59 M03 S204 F3400
G01 X15.19 Y36.86 M03 S0 F2000
G01 Z3 F300
G01 X15.19 Y36.86 M03 S255 F3400
G01 X0.1 Y7.8 M03 S0 F2000
G01 Z2.4 F300
G01 X23.21 Y7.78 M03 S204 F3400
G01 X41.22 Y0.09 M03 S0 F2000
G01 Z3 F300
G01 X41.22 Y6.38 M03 S255 F3400
G01 X47.57 Y0.02 M03 S0 F2000
G01 Z3 F300
G01 X47.57 Y6.31 M03 S255 F3400
G01 X53.82 Y0.16 M03 S0 F2000
G01 Z3 F300
G01 X53.82 Y6.45 M03 S255 F3400
G01 X29.21 Y27.65 M03 S0 F2000
G01 Z3 F300
G01 X29.21 Y27.65 M03 S255 F3400
G01 X15.19 Y36.86 M03 S0 F2000
G01 Z3 F300
G01 X15.19 Y36.86 M03 S255 F3400
G00 Z0 M03 S0
M05
G00 X0 Y0 
