( Generated by T2Laser ) 
(  DXF2Gcode for Grbl  )
( Start Point: LL      )
( Frame Mode : Extents )
( X Maximum  : 65      )
( Y Maximum  : 46      )
( Laser Power: 255     )
( Vector Rate: 600     )
( Rapid Feed : 2000    )
( Vector Name: Twitter2-PipeCut.dxf )
G21
G90
F600
M05
G00 Z0 
G01 X53.8 Y16.45 F2000
M03 S0
G01 Z3 F300
G01 X47.51 Y16.45 M03 S255 F600
G01 Z3 F300
G01 X47.51 Y18.96 M03 S255 F600
G01 Z3 F300
G01 X53.8 Y18.96 M03 S255 F600
G01 Z3 F300
G01 X53.8 Y16.45 M03 S255 F600
G01 X34.93 Y46 M03 S0 F2000
G01 Z3 F300
G01 X34.98 Y0.09 M03 S255 F600
G01 Z3 F300
G01 X60.16 Y0.09 M03 S255 F600
G01 Z3 F300
G01 X60.1 Y6.38 M03 S255 F600
G01 Z3 F300
G01 X65.02 Y9.88 M03 S255 F600
G01 Z3 F300
G01 X65.02 Y42.38 M03 S255 F600
G01 Z3 F300
G01 X60.09 Y46 M03 S255 F600
G01 Z3 F300
G01 X34.93 Y46 M03 S255 F600
G01 X29.21 Y27.65 M03 S0 F2000
G01 Z3 F300
G01 X30.86 Y33.68 M03 S255 F600
G01 Z3 F300
G01 X19.14 Y41.29 M03 S255 F600
G01 Z3 F300
G01 X15.18 Y36.91 M03 S255 F600
G01 Z3 F300
G01 X9.92 Y40.37 M03 S255 F600
G01 Z3 F300
G01 X3.02 Y29.85 M03 S255 F600
G01 Z3 F300
G01 X8.28 Y26.4 M03 S255 F600
G01 Z3 F300
G01 X3.06 Y27.95 M03 S255 F600
G01 Z3 F300
G01 X1.25 Y21.92 M03 S255 F600
G01 Z3 F300
G01 X6.44 Y20.36 M03 S255 F600
G01 Z3 F300
G01 X0.15 Y20.38 M03 S255 F600
G01 Z3 F300
G01 X0.1 Y7.8 M03 S255 F600
G01 Z3 F300
G01 X1.32 Y1.8 M03 S255 F600
G01 Z3 F300
G01 X5.17 Y1.8 M03 S255 F600
G01 Z3 F300
G01 X6.39 Y7.78 M03 S255 F600
G01 Z3 F300
G01 X7.61 Y1.96 M03 S255 F600
G01 Z3 F300
G01 X21.87 Y1.74 M03 S255 F600
G01 Z3 F300
G01 X23.21 Y7.78 M03 S255 F600
G01 Z3 F300
G01 X23.22 Y15.31 M03 S255 F600
G01 Z3 F300
G01 X25.05 Y21.35 M03 S255 F600
G01 Z3 F300
G01 X29.21 Y27.65 M03 S255 F600
G00 Z0 M03 S0
M05
G00 X0 Y0 
